;FLAVOR:UltiGCode
;TIME:2150
;MATERIAL:4527
;MATERIAL2:0
;NOZZLE_DIAMETER:0.4
;Generated with Cura_SteamEngine 3.4.0
M82 ;absolute extrusion mode

G92 E0
G10
;LAYER_COUNT:100
;LAYER:0
M107
G0 F3600 X101.974 Y97.677 Z0.3
;TYPE:SUPPORT
G11
G1 F1800 X120.993 Y97.677 E1.997
G1 X120.992 Y102.562 E2.50992
G1 X120.873 Y102.679 E2.52744
G1 X118.499 Y102.679 E2.77671
G1 X118.143 Y103.011 E2.82783
G1 X117.946 Y105.781 E3.11941
G1 X117.904 Y107.438 E3.29345
G1 X117.762 Y109.304 E3.48995
G1 X117.76 Y110.284 E3.59285
G1 X117.69 Y110.774 E3.64482
G1 X117.69 Y111.639 E3.73564
G1 X117.638 Y112.098 E3.78415
G1 X117.652 Y112.436 E3.81967
G1 X117.508 Y114.478 E4.03461
G1 X117.508 Y115.329 E4.12397
G1 X117.499 Y115.43 E4.13461
G1 X117.436 Y115.842 E4.17838
G1 X117.436 Y116.729 E4.27151
G1 X117.362 Y117.232 E4.32489
G1 X117.269 Y120.148 E4.63123
G1 X117.615 Y120.504 E4.68336
G1 X119.388 Y120.504 E4.86952
G1 X119.506 Y120.622 E4.88704
G1 X119.505 Y128.566 E5.72116
G1 X119.366 Y128.705 E5.7418
G1 X103.58 Y128.705 E7.39933
G1 X103.462 Y128.587 E7.41686
G1 X103.462 Y120.62 E8.25339
G1 X103.58 Y120.502 E8.27091
G1 X105.358 Y120.502 E8.4576
G1 X105.704 Y120.144 E8.50988
G1 X105.566 Y116.691 E8.87273
G1 X105.507 Y116.271 E8.91727
G1 X105.494 Y116.126 E8.93255
G1 X105.494 Y115.3 E9.01928
G1 X105.418 Y114.772 E9.07529
G1 X105.377 Y112.958 E9.26581
G1 X105.24 Y111.165 E9.45463
G1 X105.24 Y110.194 E9.55658
G1 X105.096 Y108.34 E9.75184
G1 X105.125 Y108.18 E9.76891
G1 X105.058 Y107.431 E9.84787
G1 X105.058 Y106.488 E9.94689
G1 X104.986 Y105.988 E9.99993
G1 X104.986 Y105.091 E10.09411
G1 X104.824 Y103.009 E10.31338
G1 X104.468 Y102.679 E10.36435
G1 X102.094 Y102.679 E10.61362
G1 X101.975 Y102.562 E10.63115
G1 X101.974 Y97.677 E11.14407
G0 F3600 X102.114 Y97.986
G1 F1800 X120.852 Y97.986 E13.11156
G0 F3600 X118.983 Y97.817
G1 F1800 X118.983 Y102.539 E13.60737
G0 F3600 X118.322 Y102.652
G1 F1800 X104.644 Y102.652 E15.04356
G0 F3600 X104.985 Y103.277
G1 F1800 X104.985 Y97.817 E15.61686
G0 F3600 X102.652 Y97.817
G1 F1800 X102.652 Y102.539 E16.11267
G0 F3600 X102.114 Y100.319
G1 F1800 X120.852 Y100.319 E18.08016
G0 F3600 X116.65 Y97.817
G1 F1800 X116.65 Y128.565 E21.3087
G0 F3600 X118.983 Y128.565
G1 F1800 X118.983 Y120.644 E22.14041
G0 F3600 X119.364 Y121.316
G1 F1800 X103.601 Y121.316 E23.79552
G0 F3600 X104.985 Y120.642
G1 F1800 X104.985 Y128.565 E24.62744
G0 F3600 X103.601 Y128.315
G1 F1800 X119.364 Y128.315 E26.28255
G0 F3600 X119.364 Y125.982
G1 F1800 X103.601 Y125.982 E27.93767
G0 F3600 X103.601 Y123.649
G1 F1800 X119.364 Y123.649 E29.59278
G0 F3600 X117.164 Y118.983
G1 F1800 X105.796 Y118.983 E30.78642
G0 F3600 X105.701 Y116.65
G1 F1800 X117.296 Y116.65 E32.0039
G0 F3600 X117.379 Y114.317
G1 F1800 X105.547 Y114.317 E33.24626
G0 F3600 X105.442 Y111.984
G1 F1800 X117.51 Y111.984 E34.5134
G0 F3600 X117.621 Y109.651
G1 F1800 X105.338 Y109.651 E35.80311
G0 F3600 X105.198 Y107.318
G1 F1800 X117.766 Y107.318 E37.12275
G0 F3600 X117.862 Y104.985
G1 F1800 X105.118 Y104.985 E38.46087
G0 F3600 X107.318 Y97.817
G1 F1800 X107.318 Y128.565 E41.68941
G0 F3600 X109.651 Y128.565
G1 F1800 X109.651 Y97.817 E44.91795
G0 F3600 X111.984 Y97.817
G1 F1800 X111.984 Y128.565 E48.14649
G0 F3600 X114.317 Y128.565
G1 F1800 X114.317 Y97.817 E51.37503
G10
G0 F3600 X114.317 Y97.498
G0 X114.317 Y96.282
G0 X120.905 Y96.232
G0 X121.3 Y96.627
;TYPE:WALL-OUTER
G11
G1 F1800 X101.876 Y96.627 E53.41455
G1 X101.701 Y96.627 E53.43293
G1 X101.701 Y96.452 E53.44482
G1 X101.702 Y94.495 E53.6503
G1 X121.3 Y94.495 E55.70809
G1 X121.3 Y96.627 E55.93195
G0 F3600 X121.1 Y96.627
G0 X120.975 Y96.302
;TYPE:WALL-INNER
G1 F1800 X102.201 Y96.302 E57.90322
G1 X102.026 Y96.302 E57.9216
G1 X102.026 Y96.127 E57.93349
G1 X102.027 Y94.82 E58.07072
G1 X120.975 Y94.82 E60.06026
G1 X120.975 Y96.302 E60.21587
G0 F3600 X120.625 Y95.952
G1 F1800 X102.551 Y95.952 E62.11364
G1 X102.376 Y95.952 E62.13202
G1 X102.376 Y95.777 E62.14391
G1 X102.377 Y95.17 E62.20765
G1 X120.625 Y95.17 E64.12369
G1 X120.625 Y95.952 E64.2058
G0 F3600 X120.275 Y95.602
G1 F1800 X102.726 Y95.602 E66.04844
G1 X102.727 Y95.52 E66.05705
G1 X120.275 Y95.52 E66.48869
G1 X120.275 Y95.602 E66.4973
G10
G0 F3600 X104.985 Y96.282
G0 X104.985 Y97.498
G0 X104.985 Y101.113
;TIME_ELAPSED:28.230826
;LAYER:1
M106 S255
G0 F4800 X104.985 Y101.113 Z0.5
;TYPE:SUPPORT
G11
G1 F1800 X107.318 Y101.119 E66.66061
G1 X107.318 Y99.037 E66.80635
G1 X109.651 Y99.042 E66.96966
G1 X109.651 Y101.125 E67.11547
G1 X111.984 Y101.13 E67.27878
G1 X111.984 Y99.048 E67.42452
G1 X114.317 Y99.053 E67.58783
G1 X114.317 Y101.136 E67.73364
G1 X116.65 Y101.142 E67.89695
G1 X118.273 Y101.146 E68.01056
G1 X118.299 Y100.779 E68.03632
G1 X118.656 Y100.448 E68.0704
G1 X118.7 Y100.448 E68.07348
G1 X118.717 Y99.063 E68.17043
G1 X116.65 Y99.059 E68.31512
G1 X116.65 Y101.142 E68.46093
G0 F4800 X104.985 Y101.113
G1 F1800 X104.677 Y101.113 E68.48249
G1 X104.649 Y100.749 E68.50805
G1 X104.295 Y100.417 E68.54202
G1 X104.248 Y100.416 E68.54531
G1 X104.264 Y99.029 E68.64241
G1 X104.985 Y99.031 E68.69288
G1 X104.985 Y101.113 E68.83862
G0 F4800 X104.985 Y105.078
G1 F1800 X104.986 Y105.091 E68.83953
G1 X104.986 Y105.987 E68.90225
G1 X105.058 Y106.487 E68.93761
G1 X105.058 Y107.43 E69.00362
G1 X105.125 Y108.179 E69.05626
G1 X105.096 Y108.339 E69.06765
G1 X105.24 Y110.193 E69.19782
G1 X105.24 Y111.165 E69.26586
G1 X105.377 Y112.958 E69.39173
G1 X105.418 Y114.772 E69.51874
G1 X105.494 Y115.3 E69.55609
G1 X105.494 Y116.126 E69.61391
G1 X105.507 Y116.271 E69.6241
G1 X105.566 Y116.691 E69.65378
G1 X105.704 Y120.144 E69.89569
G1 X105.358 Y120.502 E69.93054
G1 X104.985 Y120.502 E69.95665
G1 X104.985 Y128.705 E70.53086
G1 X103.58 Y128.705 E70.62921
G1 X103.462 Y128.587 E70.64089
G1 X103.462 Y120.62 E71.19858
G1 X103.58 Y120.502 E71.21026
G1 X104.985 Y120.502 E71.30861
G0 F4800 X104.985 Y128.705
G1 F1800 X107.318 Y128.705 E71.47192
G1 X107.318 Y102.829 E73.28324
G1 X109.651 Y102.829 E73.44655
G1 X109.651 Y128.705 E75.25787
G1 X111.984 Y128.705 E75.42118
G1 X111.984 Y102.829 E77.2325
G1 X114.317 Y102.829 E77.39581
G1 X114.317 Y128.705 E79.20713
G1 X116.65 Y128.705 E79.37044
G1 X116.65 Y102.829 E81.18176
G1 X118.154 Y102.829 E81.28704
G1 X117.946 Y105.776 E81.49384
G1 X117.904 Y107.438 E81.61022
G1 X117.762 Y109.304 E81.74122
G1 X117.762 Y110.253 E81.80765
G1 X117.76 Y110.284 E81.80982
G1 X117.69 Y110.774 E81.84447
G1 X117.69 Y111.639 E81.90502
G1 X117.638 Y112.098 E81.93736
G1 X117.652 Y112.436 E81.96104
G1 X117.508 Y114.478 E82.10433
G1 X117.508 Y115.329 E82.1639
G1 X117.499 Y115.43 E82.171
G1 X117.436 Y115.842 E82.20018
G1 X117.436 Y116.729 E82.26227
G1 X117.362 Y117.232 E82.29786
G1 X117.269 Y120.148 E82.50208
G1 X117.615 Y120.504 E82.53683
G1 X118.983 Y120.504 E82.63259
G1 X119.388 Y120.504 E82.66094
G1 X119.506 Y120.622 E82.67262
G1 X119.505 Y128.566 E83.2287
G1 X119.366 Y128.705 E83.24246
G1 X118.983 Y128.705 E83.26927
G1 X118.983 Y120.504 E83.84334
G0 F4800 X104.985 Y105.078
G1 F1800 X104.81 Y102.829 E84.00125
G1 X104.985 Y102.829 E84.0135
G1 X104.985 Y105.078 E84.17093
G10
G0 F4800 X104.985 Y97.498
G0 X104.985 Y96.282
G0 X120.275 Y95.602
;TYPE:WALL-INNER
G11
G1 F2100 X102.727 Y95.602 E85.39929
G1 X102.727 Y95.52 E85.40503
G1 X120.275 Y95.52 E85.69281
G1 X120.275 Y95.602 E85.69855
G0 F4800 X120.625 Y95.952
G1 F2100 X102.377 Y95.952 E86.97591
G1 X102.377 Y95.17 E87.03065
G1 X120.625 Y95.17 E88.30801
G1 X120.625 Y95.952 E88.36275
G0 F4800 X120.975 Y96.302
G1 F2100 X102.027 Y96.302 E89.68911
G1 X102.027 Y94.82 E89.79285
G1 X120.975 Y94.82 E91.11921
G1 X120.975 Y96.302 E91.22295
G0 F4800 X121.3 Y96.627
;TYPE:WALL-OUTER
G1 F1800 X101.702 Y96.627 E92.59481
G1 X101.702 Y94.495 E92.74405
G1 X121.3 Y94.495 E94.11591
G1 X121.3 Y96.627 E94.26515
G0 F4800 X121.1 Y96.627
G0 X120.625 Y96.055
G10
G0 X104.985 Y96.282
G0 X104.985 Y97.498
G0 X104.985 Y100.912
;TIME_ELAPSED:43.552831
;LAYER:2
G0 F6000 X104.985 Y100.912 Z0.7
;TYPE:SUPPORT
G11
G1 F1800 X107.318 Y100.918 E94.42847
G1 X107.318 Y99.037 E94.56014
G1 X109.651 Y99.042 E94.72345
G1 X109.651 Y100.924 E94.85519
G1 X111.984 Y100.93 E95.0185
G1 X111.984 Y99.048 E95.15024
G1 X114.317 Y99.053 E95.31355
G1 X114.317 Y100.936 E95.44536
G1 X116.65 Y100.942 E95.60867
G1 X118.286 Y100.947 E95.72319
G1 X118.298 Y100.778 E95.73505
G1 X118.655 Y100.447 E95.76913
G1 X118.7 Y100.447 E95.77228
G1 X118.717 Y99.063 E95.86916
G1 X116.65 Y99.059 E96.01385
G1 X116.65 Y100.942 E96.14566
G10
G0 F6000 X116.65 Y100.62
G0 X104.985 Y100.593
G0 X104.985 Y100.912
G11
G1 F1800 X104.662 Y100.912 E96.16827
G1 X104.649 Y100.747 E96.17986
G1 X104.471 Y100.582 E96.19685
G1 X104.295 Y100.417 E96.21374
G1 X104.248 Y100.416 E96.21703
G1 X104.264 Y99.029 E96.31412
G1 X104.985 Y99.031 E96.36459
G1 X104.985 Y100.912 E96.49626
G10
G0 F6000 X104.985 Y100.593
G0 X104.985 Y100.629
G0 X104.985 Y100.673
G0 X104.985 Y103.27
G0 X104.985 Y103.314
G0 X104.985 Y105.077
G11
G1 F1800 X104.986 Y105.09 E96.49718
G1 X104.986 Y105.986 E96.5599
G1 X105.058 Y106.486 E96.59526
G1 X105.058 Y107.429 E96.66127
G1 X105.125 Y108.178 E96.71391
G1 X105.096 Y108.338 E96.72529
G1 X105.24 Y110.192 E96.85546
G1 X105.24 Y111.159 E96.92315
G1 X105.378 Y112.967 E97.05008
G1 X105.418 Y114.768 E97.17618
G1 X105.494 Y115.298 E97.21366
G1 X105.494 Y116.126 E97.27162
G1 X105.507 Y116.271 E97.28181
G1 X105.566 Y116.691 E97.3115
G1 X105.704 Y120.144 E97.5534
G1 X105.358 Y120.502 E97.58825
G1 X104.985 Y120.502 E97.61436
G1 X104.985 Y128.705 E98.18857
G1 X103.58 Y128.705 E98.28692
G1 X103.462 Y128.587 E98.2986
G1 X103.462 Y120.62 E98.85629
G1 X103.58 Y120.502 E98.86798
G1 X104.985 Y120.502 E98.96633
G0 F6000 X104.985 Y128.705
G1 F1800 X107.318 Y128.705 E99.12964
G1 X107.318 Y103.029 E100.92696
G1 X109.651 Y103.029 E101.09027
G1 X109.651 Y128.705 E102.88759
G1 X111.984 Y128.705 E103.0509
G1 X111.984 Y103.029 E104.84822
G1 X114.317 Y103.029 E105.01153
G1 X114.317 Y128.705 E106.80885
G1 X116.65 Y128.705 E106.97216
G1 X116.65 Y103.029 E108.76948
G1 X118.139 Y103.029 E108.87371
G1 X117.994 Y105.085 E109.01798
G1 X117.946 Y105.776 E109.06647
G1 X117.904 Y107.438 E109.18285
G1 X117.762 Y109.304 E109.31384
G1 X117.762 Y110.253 E109.38027
G1 X117.76 Y110.284 E109.38245
G1 X117.69 Y110.774 E109.4171
G1 X117.69 Y111.639 E109.47765
G1 X117.638 Y112.098 E109.50998
G1 X117.652 Y112.436 E109.53366
G1 X117.508 Y114.478 E109.67696
G1 X117.508 Y115.329 E109.73653
G1 X117.499 Y115.43 E109.74363
G1 X117.436 Y115.842 E109.7728
G1 X117.436 Y116.729 E109.83489
G1 X117.362 Y117.232 E109.87048
G1 X117.269 Y120.148 E110.0747
G1 X117.615 Y120.504 E110.10945
G1 X118.983 Y120.504 E110.20521
G1 X119.388 Y120.504 E110.23356
G1 X119.506 Y120.622 E110.24525
G1 X119.505 Y128.566 E110.80133
G1 X119.366 Y128.705 E110.81509
G1 X118.983 Y128.705 E110.8419
G1 X118.983 Y120.504 E111.41597
G0 F6000 X104.985 Y105.077
G1 F1800 X104.826 Y103.029 E111.55976
G1 X104.985 Y103.029 E111.57089
G1 X104.985 Y105.077 E111.71425
G10
G0 F6000 X104.985 Y103.35
G0 X104.985 Y102.134
G0 X102.829 Y101.812
G0 X102.877 Y97.623
G0 X119.419 Y96.464
;TYPE:WALL-INNER
G11
G1 F2400 X119.419 Y96.639 E111.7265
G1 X119.244 Y96.639 E111.73443
G1 X103.549 Y96.603 E112.83308
G1 X103.549 Y95.87 E112.88439
G1 X119.419 Y95.87 E113.99529
G1 X119.419 Y96.464 E114.03687
G0 F6000 X119.769 Y95.602
G1 F2400 X119.769 Y96.815 E114.12178
G1 X119.769 Y96.99 E114.13403
G1 X119.594 Y96.99 E114.14196
G1 X103.199 Y96.952 E115.28961
G1 X103.199 Y95.602 E115.38411
G1 X102.727 Y95.602 E115.41715
G1 X102.727 Y95.52 E115.42289
G1 X103.199 Y95.52 E115.43063
G1 X119.769 Y95.52 E116.59053
G1 X120.275 Y95.52 E116.62595
G1 X120.275 Y95.602 E116.63169
G1 X119.769 Y95.602 E116.63999
G0 F6000 X120.119 Y95.952
G1 F2400 X120.119 Y97.166 E116.72497
G1 X120.119 Y97.341 E116.73722
G1 X119.944 Y97.341 E116.74515
G1 X102.849 Y97.301 E117.9418
G1 X102.849 Y95.952 E118.03623
G1 X102.377 Y95.952 E118.06927
G1 X102.377 Y95.17 E118.12401
G1 X120.625 Y95.17 E119.40137
G1 X120.625 Y95.952 E119.45611
G1 X120.119 Y95.952 E119.49153
G0 F6000 X102.569 Y96.232
G0 X102.499 Y96.302
G1 F2400 X102.027 Y96.302 E119.52457
G1 X102.027 Y94.82 E119.62831
G1 X120.975 Y94.82 E120.95467
G1 X120.975 Y96.302 E121.05841
G1 X120.469 Y96.302 E121.09383
G1 X120.467 Y102.154 E121.50347
G1 X120.069 Y102.154 E121.53133
G1 X120.059 Y102.154 E121.53203
G1 X102.857 Y102.154 E122.73617
G1 X102.5 Y102.154 E122.76116
G1 X102.499 Y96.302 E123.1708
G0 F6000 X102.569 Y96.232
G0 X102.786 Y101.854
G0 X102.857 Y101.784
G1 F2400 X103.033 Y101.784 E123.18312
G1 X120.059 Y101.825 E124.37494
G1 X120.059 Y101.815 E124.37563
G1 X120.107 Y97.867 E124.65201
G1 X120.109 Y97.691 E124.66433
G1 X119.933 Y97.691 E124.67227
G1 X102.905 Y97.651 E125.86424
G1 X102.859 Y101.608 E126.14125
G1 X102.857 Y101.784 E126.14919
G0 F6000 X103.186 Y101.46
;TYPE:WALL-OUTER
G1 F1800 X103.362 Y101.46 E126.16151
G1 X119.738 Y101.499 E127.30784
G1 X119.778 Y98.191 E127.53941
G1 X119.78 Y98.015 E127.55173
G1 X119.604 Y98.015 E127.55968
G1 X103.226 Y97.977 E128.70614
G1 X103.188 Y101.284 E128.93765
G1 X103.186 Y101.46 E128.94559
G0 F6000 X103.362 Y101.46
G0 X103.386 Y101.46
G0 X103.385 Y101.885
G0 X102.829 Y101.812
G0 X102.527 Y96.274
G0 X102.174 Y96.202
G0 X102.174 Y96.627
G1 F1800 X101.702 Y96.627 E128.97863
G1 X101.702 Y94.495 E129.12787
G1 X121.3 Y94.495 E130.49973
G1 X121.3 Y96.627 E130.64897
G1 X120.794 Y96.627 E130.68439
G1 X120.792 Y102.479 E131.09403
G1 X102.175 Y102.479 E132.39722
G1 X102.174 Y96.627 E132.80686
G0 F6000 X101.974 Y96.627
G0 X102.097 Y96.232
G0 X103.889 Y96.263
;TYPE:SKIN
G1 F1200 X103.889 Y96.21 E132.81057
G1 X119.079 Y96.21 E133.87387
G1 X119.079 Y96.299 E133.8801
G1 X103.889 Y96.263 E134.9434
G10
G0 F6000 X104.992 Y97.636
G0 X104.99 Y98.853
G0 X104.985 Y100.416
;TIME_ELAPSED:65.361450
;LAYER:3
G0 X104.985 Y100.416 Z0.9
;TYPE:SUPPORT
G11
G1 F1800 X107.318 Y100.421 E135.10672
G1 X107.318 Y99.037 E135.2036
G1 X109.651 Y99.042 E135.36691
G1 X109.651 Y100.427 E135.46386
G1 X111.984 Y100.432 E135.62717
G1 X111.984 Y99.048 E135.72405
G1 X114.317 Y99.053 E135.88736
G1 X114.317 Y100.437 E135.98424
G1 X116.65 Y100.442 E136.14755
G1 X118.649 Y100.446 E136.28748
G1 X118.7 Y100.446 E136.29105
G1 X118.717 Y99.063 E136.38786
G1 X116.65 Y99.059 E136.53255
G1 X116.65 Y100.442 E136.62936
G0 F6000 X104.985 Y100.416
G1 F1800 X104.248 Y100.415 E136.68095
G1 X104.264 Y99.029 E136.77798
G1 X104.985 Y99.031 E136.82845
G1 X104.985 Y100.416 E136.9254
G10
G0 F6000 X104.985 Y100.631
G0 X104.985 Y100.675
G0 X104.985 Y103.27
G0 X104.985 Y103.314
G0 X104.985 Y105.077
G11
G1 F1800 X104.986 Y105.09 E136.92631
G1 X104.986 Y105.985 E136.98896
G1 X105.058 Y106.485 E137.02432
G1 X105.058 Y107.428 E137.09033
G1 X105.125 Y108.177 E137.14297
G1 X105.096 Y108.337 E137.15436
G1 X105.24 Y110.193 E137.28467
G1 X105.24 Y111.155 E137.35201
G1 X105.378 Y112.963 E137.47894
G1 X105.419 Y114.774 E137.60574
G1 X105.494 Y115.298 E137.64279
G1 X105.494 Y116.126 E137.70075
G1 X105.507 Y116.271 E137.71094
G1 X105.566 Y116.691 E137.74063
G1 X105.704 Y120.144 E137.98253
G1 X105.358 Y120.502 E138.01739
G1 X104.985 Y120.502 E138.0435
G1 X104.985 Y128.705 E138.61771
G1 X103.58 Y128.705 E138.71606
G1 X103.462 Y128.587 E138.72774
G1 X103.462 Y120.62 E139.28543
G1 X103.58 Y120.502 E139.29711
G1 X104.985 Y120.502 E139.39546
G0 F6000 X104.985 Y128.705
G1 F1800 X107.318 Y128.705 E139.55877
G1 X107.318 Y103.529 E141.32109
G1 X109.651 Y103.529 E141.4844
G1 X109.651 Y128.705 E143.24672
G1 X111.984 Y128.705 E143.41003
G1 X111.984 Y103.529 E145.17235
G1 X114.317 Y103.529 E145.33566
G1 X114.317 Y128.705 E147.09798
G1 X116.65 Y128.705 E147.26129
G1 X116.65 Y103.529 E149.02361
G1 X118.103 Y103.529 E149.12532
G1 X117.946 Y105.763 E149.28208
G1 X117.946 Y105.785 E149.28362
G1 X117.904 Y107.438 E149.39937
G1 X117.762 Y109.304 E149.53037
G1 X117.762 Y110.253 E149.5968
G1 X117.76 Y110.284 E149.59897
G1 X117.69 Y110.774 E149.63362
G1 X117.69 Y111.639 E149.69417
G1 X117.638 Y112.098 E149.72651
G1 X117.652 Y112.436 E149.75019
G1 X117.508 Y114.478 E149.89348
G1 X117.508 Y115.329 E149.95305
G1 X117.499 Y115.43 E149.96015
G1 X117.436 Y115.842 E149.98933
