;FLAVOR:UltiGCode
;TIME:4354
;MATERIAL:9048
;MATERIAL2:0
;NOZZLE_DIAMETER:0.4
;Generated with Cura_SteamEngine 3.4.0
M82 ;absolute extrusion mode

G92 E0
G10
;LAYER_COUNT:100
;LAYER:0
M107
G0 F3600 X75.978 Y97.677 Z0.3
;TYPE:SUPPORT
G11
G1 F1800 X94.993 Y97.677 E1.99657
G1 X94.992 Y102.562 E2.5095
G1 X94.873 Y102.679 E2.52702
G1 X92.499 Y102.679 E2.77629
G1 X92.143 Y103.011 E2.82741
G1 X91.946 Y105.781 E3.11899
G1 X91.904 Y107.438 E3.29303
G1 X91.762 Y109.304 E3.48953
G1 X91.76 Y110.284 E3.59243
G1 X91.69 Y110.774 E3.6444
G1 X91.69 Y111.639 E3.73522
G1 X91.638 Y112.098 E3.78373
G1 X91.652 Y112.436 E3.81925
G1 X91.508 Y114.478 E4.03419
G1 X91.508 Y115.329 E4.12355
G1 X91.499 Y115.43 E4.13419
G1 X91.436 Y115.842 E4.17796
G1 X91.436 Y116.729 E4.27109
G1 X91.362 Y117.232 E4.32447
G1 X91.269 Y120.148 E4.63081
G1 X91.615 Y120.504 E4.68294
G1 X93.388 Y120.504 E4.8691
G1 X93.506 Y120.622 E4.88662
G1 X93.505 Y128.566 E5.72074
G1 X93.366 Y128.705 E5.74138
G1 X77.58 Y128.705 E7.39891
G1 X77.462 Y128.587 E7.41644
G1 X77.462 Y120.62 E8.25297
G1 X77.58 Y120.502 E8.27049
G1 X79.358 Y120.502 E8.45718
G1 X79.704 Y120.144 E8.50946
G1 X79.566 Y116.691 E8.87231
G1 X79.507 Y116.271 E8.91685
G1 X79.494 Y116.126 E8.93213
G1 X79.494 Y115.3 E9.01886
G1 X79.418 Y114.772 E9.07487
G1 X79.377 Y112.958 E9.26539
G1 X79.24 Y111.165 E9.45421
G1 X79.24 Y110.194 E9.55616
G1 X79.096 Y108.34 E9.75142
G1 X79.125 Y108.18 E9.76849
G1 X79.058 Y107.431 E9.84745
G1 X79.058 Y106.488 E9.94647
G1 X78.986 Y105.988 E9.99951
G1 X78.986 Y105.091 E10.09369
G1 X78.824 Y103.009 E10.31296
G1 X78.468 Y102.679 E10.36393
G1 X76.09 Y102.679 E10.61362
G1 X75.975 Y102.563 E10.63077
G1 X75.978 Y97.677 E11.1438
G0 F3600 X76.118 Y97.986
G1 F1800 X94.852 Y97.986 E13.11087
G0 F3600 X93.32 Y97.817
G1 F1800 X93.32 Y102.539 E13.60668
G0 F3600 X92.322 Y102.652
G1 F1800 X78.644 Y102.652 E15.04287
G0 F3600 X76.989 Y102.539
G1 F1800 X76.989 Y97.817 E15.53868
G0 F3600 X79.322 Y97.817
G1 F1800 X79.322 Y109.441 E16.7592
G0 F3600 X79.338 Y109.651
G1 F1800 X91.621 Y109.651 E18.04892
G0 F3600 X91.51 Y111.984
G1 F1800 X79.442 Y111.984 E19.31606
G0 F3600 X79.547 Y114.317
G1 F1800 X91.379 Y114.317 E20.55842
G0 F3600 X91.296 Y116.65
G1 F1800 X79.701 Y116.65 E21.77589
G0 F3600 X79.796 Y118.983
G1 F1800 X91.164 Y118.983 E22.96953
G0 F3600 X93.32 Y120.644
G1 F1800 X93.32 Y128.552 E23.79987
G0 F3600 X93.364 Y128.315
G1 F1800 X77.601 Y128.315 E25.45499
G0 F3600 X79.322 Y128.565
G1 F1800 X79.322 Y120.642 E26.2869
G0 F3600 X77.601 Y121.316
G1 F1800 X93.364 Y121.316 E27.94202
G0 F3600 X93.364 Y123.649
G1 F1800 X77.601 Y123.649 E29.59713
G0 F3600 X77.601 Y125.982
G1 F1800 X93.364 Y125.982 E31.25225
G0 F3600 X90.987 Y128.565
G1 F1800 X90.987 Y97.817 E34.48079
G0 F3600 X88.654 Y97.817
G1 F1800 X88.654 Y128.565 E37.70933
G0 F3600 X86.321 Y128.565
G1 F1800 X86.321 Y97.817 E40.93787
G0 F3600 X83.988 Y97.817
G1 F1800 X83.988 Y128.565 E44.16641
G0 F3600 X81.655 Y128.565
G1 F1800 X81.655 Y97.817 E47.39495
G0 F3600 X76.117 Y100.319
G1 F1800 X94.852 Y100.319 E49.36212
G0 F3600 X91.862 Y104.985
G1 F1800 X79.118 Y104.985 E50.70024
G0 F3600 X79.198 Y107.318
G1 F1800 X91.766 Y107.318 E52.01988
G0 F3600 X101.975 Y102.562
G1 F1800 X101.974 Y97.677 E52.53281
G1 X120.993 Y97.677 E54.5298
G1 X120.992 Y102.562 E55.04273
G1 X120.873 Y102.679 E55.06025
G1 X118.499 Y102.679 E55.30952
G1 X118.143 Y103.011 E55.36063
G1 X117.946 Y105.781 E55.65222
G1 X117.904 Y107.438 E55.82626
G1 X117.762 Y109.304 E56.02276
G1 X117.76 Y110.284 E56.12566
G1 X117.69 Y110.774 E56.17763
G1 X117.69 Y111.639 E56.26845
G1 X117.638 Y112.098 E56.31696
G1 X117.652 Y112.436 E56.35248
G1 X117.508 Y114.478 E56.56742
G1 X117.508 Y115.329 E56.65678
G1 X117.499 Y115.43 E56.66742
G1 X117.436 Y115.842 E56.71118
G1 X117.436 Y116.729 E56.80432
G1 X117.362 Y117.232 E56.8577
G1 X117.269 Y120.148 E57.16404
G1 X117.615 Y120.504 E57.21617
G1 X119.388 Y120.504 E57.40233
G1 X119.506 Y120.622 E57.41985
G1 X119.505 Y128.566 E58.25397
G1 X119.366 Y128.705 E58.27461
G1 X103.58 Y128.705 E59.93214
G1 X103.462 Y128.587 E59.94966
G1 X103.462 Y120.62 E60.7862
G1 X103.58 Y120.502 E60.80372
G1 X105.358 Y120.502 E60.99041
G1 X105.704 Y120.144 E61.04269
G1 X105.566 Y116.691 E61.40554
G1 X105.507 Y116.271 E61.45008
G1 X105.494 Y116.126 E61.46536
G1 X105.494 Y115.3 E61.55209
G1 X105.418 Y114.772 E61.6081
G1 X105.377 Y112.958 E61.79862
G1 X105.24 Y111.165 E61.98744
G1 X105.24 Y110.194 E62.08939
G1 X105.096 Y108.34 E62.28465
G1 X105.125 Y108.18 E62.30172
G1 X105.058 Y107.431 E62.38068
G1 X105.058 Y106.488 E62.4797
G1 X104.986 Y105.988 E62.53274
G1 X104.986 Y105.091 E62.62692
G1 X104.824 Y103.009 E62.84619
G1 X104.468 Y102.679 E62.89716
G1 X102.094 Y102.679 E63.14643
G1 X101.975 Y102.562 E63.16395
G0 F3600 X102.652 Y102.539
G1 F1800 X102.652 Y97.817 E63.65976
G0 F3600 X102.114 Y97.986
G1 F1800 X120.852 Y97.986 E65.62725
G0 F3600 X118.983 Y97.817
G1 F1800 X118.983 Y102.539 E66.12306
G0 F3600 X118.322 Y102.652
G1 F1800 X104.644 Y102.652 E67.55925
G0 F3600 X104.985 Y103.277
G1 F1800 X104.985 Y97.817 E68.13255
G0 F3600 X107.318 Y97.817
G1 F1800 X107.318 Y128.565 E71.36109
G0 F3600 X104.985 Y128.565
G1 F1800 X104.985 Y120.642 E72.19301
G0 F3600 X103.601 Y121.316
G1 F1800 X119.364 Y121.316 E73.84812
G0 F3600 X118.983 Y120.644
G1 F1800 X118.983 Y128.565 E74.67983
G0 F3600 X119.364 Y128.315
G1 F1800 X103.601 Y128.315 E76.33494
G0 F3600 X103.601 Y125.982
G1 F1800 X119.364 Y125.982 E77.99006
G0 F3600 X119.364 Y123.649
G1 F1800 X103.601 Y123.649 E79.64517
G0 F3600 X105.796 Y118.983
G1 F1800 X117.164 Y118.983 E80.83881
G0 F3600 X117.296 Y116.65
G1 F1800 X105.701 Y116.65 E82.05629
G0 F3600 X105.547 Y114.317
G1 F1800 X117.379 Y114.317 E83.29865
G0 F3600 X117.51 Y111.984
G1 F1800 X105.442 Y111.984 E84.56579
G0 F3600 X105.338 Y109.651
G1 F1800 X117.621 Y109.651 E85.8555
G0 F3600 X117.766 Y107.318
G1 F1800 X105.198 Y107.318 E87.17514
G0 F3600 X105.118 Y104.985
G1 F1800 X117.862 Y104.985 E88.51326
G0 F3600 X120.852 Y100.319
G1 F1800 X102.114 Y100.319 E90.48075
G0 F3600 X109.651 Y97.817
G1 F1800 X109.651 Y128.565 E93.70929
G0 F3600 X111.984 Y128.565
G1 F1800 X111.984 Y97.817 E96.93783
G0 F3600 X114.317 Y97.817
G1 F1800 X114.317 Y128.565 E100.16637
G0 F3600 X116.65 Y128.565
G1 F1800 X116.65 Y97.817 E103.39491
G10
G0 F3600 X101.339 Y97.494
G0 X96.171 Y96.288
G0 X94.961 Y96.288
G0 X94.905 Y96.232
G0 X95.3 Y96.627
;TYPE:WALL-OUTER
G11
G1 F1800 X75.875 Y96.627 E105.43454
G1 X75.7 Y96.627 E105.45291
G1 X75.7 Y96.452 E105.46481
G1 X75.702 Y94.495 E105.67029
G1 X95.3 Y94.495 E107.72808
G1 X95.3 Y96.627 E107.95194
G0 F3600 X95.1 Y96.627
G0 X94.975 Y96.302
;TYPE:WALL-INNER
G1 F1800 X76.2 Y96.302 E109.92332
G1 X76.025 Y96.302 E109.94169
G1 X76.025 Y96.127 E109.95358
G1 X76.027 Y94.82 E110.09082
G1 X94.975 Y94.82 E112.08036
G1 X94.975 Y96.302 E112.23597
G0 F3600 X94.625 Y95.952
G1 F1800 X76.55 Y95.952 E114.13384
G1 X76.375 Y95.952 E114.15222
G1 X76.375 Y95.777 E114.16411
G1 X76.377 Y95.17 E114.22784
G1 X94.625 Y95.17 E116.14388
G1 X94.625 Y95.952 E116.22599
G0 F3600 X94.275 Y95.602
G1 F1800 X76.726 Y95.602 E118.06864
G1 X76.726 Y95.52 E118.07725
G1 X94.275 Y95.52 E118.50895
G1 X94.275 Y95.602 E118.51756
G10
G0 F3600 X94.955 Y96.232
G0 X96.171 Y96.232
G0 X100.83 Y96.237
G0 X102.046 Y96.237
G0 X120.905 Y96.232
G0 X121.3 Y96.627
;TYPE:WALL-OUTER
G11
G1 F1800 X101.876 Y96.627 E120.55708
G1 X101.701 Y96.627 E120.57546
G1 X101.701 Y96.452 E120.58735
G1 X101.702 Y94.495 E120.79284
G1 X121.3 Y94.495 E122.85063
G1 X121.3 Y96.627 E123.07449
G0 F3600 X121.1 Y96.627
G0 X120.975 Y96.302
;TYPE:WALL-INNER
G1 F1800 X102.201 Y96.302 E125.04576
G1 X102.026 Y96.302 E125.06413
G1 X102.026 Y96.127 E125.07602
G1 X102.027 Y94.82 E125.21326
G1 X120.975 Y94.82 E127.2028
G1 X120.975 Y96.302 E127.35841
G0 F3600 X120.625 Y95.952
G1 F1800 X102.551 Y95.952 E129.25618
G1 X102.376 Y95.952 E129.27455
G1 X102.376 Y95.777 E129.28644
G1 X102.377 Y95.17 E129.35018
G1 X120.625 Y95.17 E131.26622
G1 X120.625 Y95.952 E131.34833
G0 F3600 X120.275 Y95.602
G1 F1800 X102.726 Y95.602 E133.19097
G1 X102.727 Y95.52 E133.19958
G1 X120.275 Y95.52 E133.63123
G1 X120.275 Y95.602 E133.63984
G10
G0 F3600 X102.04 Y96.288
G0 X100.83 Y96.288
G0 X95.659 Y97.494
G0 X79.322 Y99.032
;TIME_ELAPSED:52.583032
;LAYER:1
M106 S255
G0 F4800 X79.322 Y99.032 Z0.5
;TYPE:SUPPORT
G11
G1 F1800 X81.655 Y99.037 E133.80315
G1 X81.655 Y101.12 E133.94896
G1 X83.988 Y101.125 E134.11227
G1 X83.988 Y99.043 E134.25801
G1 X86.321 Y99.048 E134.42132
G1 X86.321 Y101.131 E134.56713
G1 X88.654 Y101.137 E134.73044
G1 X88.654 Y99.054 E134.87625
G1 X90.987 Y99.059 E135.03956
G1 X92.717 Y99.063 E135.16066
G1 X92.7 Y100.448 E135.25762
G1 X92.656 Y100.448 E135.2607
G1 X92.299 Y100.779 E135.29477
G1 X92.273 Y101.146 E135.32053
G1 X90.987 Y101.142 E135.41055
G1 X90.987 Y99.059 E135.55636
G0 F4800 X79.322 Y99.032
G1 F1800 X78.264 Y99.029 E135.63042
G1 X78.248 Y100.416 E135.72752
G1 X78.295 Y100.417 E135.73081
G1 X78.649 Y100.749 E135.76478
G1 X78.677 Y101.113 E135.79033
G1 X79.322 Y101.114 E135.83548
G1 X79.322 Y99.032 E135.98122
G0 F4800 X79.322 Y102.829
G1 F1800 X78.81 Y102.829 E136.01706
G1 X78.986 Y105.091 E136.17588
G1 X78.986 Y105.987 E136.2386
G1 X79.058 Y106.487 E136.27396
G1 X79.058 Y107.43 E136.33997
G1 X79.125 Y108.179 E136.39261
G1 X79.096 Y108.339 E136.404
G1 X79.24 Y110.193 E136.53417
G1 X79.24 Y111.165 E136.60221
G1 X79.322 Y112.238 E136.67754
G1 X79.377 Y112.958 E136.72808
G1 X79.418 Y114.772 E136.85509
G1 X79.494 Y115.3 E136.89244
G1 X79.494 Y116.126 E136.95026
G1 X79.507 Y116.271 E136.96045
G1 X79.566 Y116.691 E136.99013
G1 X79.704 Y120.144 E137.23204
G1 X79.358 Y120.502 E137.26689
G1 X79.322 Y120.502 E137.26941
G1 X79.322 Y128.705 E137.84362
G1 X77.58 Y128.705 E137.96556
G1 X77.462 Y128.587 E137.97724
G1 X77.462 Y120.62 E138.53493
G1 X77.58 Y120.502 E138.54661
G1 X79.322 Y120.502 E138.66855
G0 F4800 X93.32 Y128.705
G1 F1800 X93.366 Y128.705 E138.67177
G1 X93.505 Y128.566 E138.68553
G1 X93.506 Y120.622 E139.24161
G1 X93.388 Y120.504 E139.25329
G1 X93.32 Y120.504 E139.25805
G1 X93.32 Y128.705 E139.83212
G1 X90.987 Y128.705 E139.99543
G1 X90.987 Y102.829 E141.80675
G1 X88.654 Y102.829 E141.97006
G1 X88.654 Y128.705 E143.78138
G1 X86.321 Y128.705 E143.94469
G1 X86.321 Y102.829 E145.75601
G1 X83.988 Y102.829 E145.91932
G1 X83.988 Y128.705 E147.73064
G1 X81.655 Y128.705 E147.89395
G1 X81.655 Y102.829 E149.70527
G1 X79.322 Y102.829 E149.86858
G1 X79.322 Y112.238 E150.52721
G0 F4800 X104.985 Y101.113
G1 F1800 X107.318 Y101.119 E150.69052
G1 X107.318 Y99.037 E150.83626
G1 X109.651 Y99.042 E150.99957
G1 X109.651 Y101.125 E151.14538
G1 X111.984 Y101.13 E151.3087
G1 X111.984 Y99.048 E151.45444
G1 X114.317 Y99.053 E151.61775
G1 X114.317 Y101.136 E151.76356
G1 X116.65 Y101.142 E151.92687
G1 X118.273 Y101.146 E152.04048
G1 X118.299 Y100.779 E152.06623
G1 X118.656 Y100.448 E152.10031
G1 X118.7 Y100.448 E152.10339
G1 X118.717 Y99.063 E152.20035
G1 X116.65 Y99.059 E152.34504
G1 X116.65 Y101.142 E152.49085
G0 F4800 X104.985 Y101.113
G1 F1800 X104.677 Y101.113 E152.51241
G1 X104.649 Y100.749 E152.53796
G1 X104.295 Y100.417 E152.57193
G1 X104.248 Y100.416 E152.57523
G1 X104.264 Y99.029 E152.67232
G1 X104.985 Y99.031 E152.72279
G1 X104.985 Y101.113 E152.86853
G0 F4800 X104.985 Y105.078
G1 F1800 X104.986 Y105.091 E152.86944
G1 X104.986 Y105.987 E152.93216
G1 X105.058 Y106.487 E152.96753
G1 X105.058 Y107.43 E153.03354
G1 X105.125 Y108.179 E153.08618
G1 X105.096 Y108.339 E153.09756
G1 X105.24 Y110.193 E153.22773
G1 X105.24 Y111.165 E153.29577
G1 X105.377 Y112.958 E153.42164
G1 X105.418 Y114.772 E153.54866
G1 X105.494 Y115.3 E153.586
G1 X105.494 Y116.126 E153.64382
G1 X105.507 Y116.271 E153.65401
G1 X105.566 Y116.691 E153.6837
G1 X105.704 Y120.144 E153.9256
G1 X105.358 Y120.502 E153.96045
G1 X104.985 Y120.502 E153.98656
G1 X104.985 Y128.705 E154.56077
G1 X103.58 Y128.705 E154.65912
G1 X103.462 Y128.587 E154.6708
G1 X103.462 Y120.62 E155.22849
G1 X103.58 Y120.502 E155.24017
G1 X104.985 Y120.502 E155.33852
G0 F4800 X104.985 Y128.705
G1 F1800 X107.318 Y128.705 E155.50183
G1 X107.318 Y102.829 E157.31315
G1 X109.651 Y102.829 E157.47646
G1 X109.651 Y128.705 E159.28778
G1 X111.984 Y128.705 E159.45109
G1 X111.984 Y102.829 E161.26241
G1 X114.317 Y102.829 E161.42572
G1 X114.317 Y128.705 E163.23704
G1 X116.65 Y128.705 E163.40035
G1 X116.65 Y102.829 E165.21167
G1 X118.154 Y102.829 E165.31695
G1 X117.946 Y105.776 E165.52376
G1 X117.904 Y107.438 E165.64013
G1 X117.762 Y109.304 E165.77113
G1 X117.762 Y110.253 E165.83756
G1 X117.76 Y110.284 E165.83974
G1 X117.69 Y110.774 E165.87438
G1 X117.69 Y111.639 E165.93493
G1 X117.638 Y112.098 E165.96727
G1 X117.652 Y112.436 E165.99095
G1 X117.508 Y114.478 E166.13425
G1 X117.508 Y115.329 E166.19382
G1 X117.499 Y115.43 E166.20091
G1 X117.436 Y115.842 E166.23009
G1 X117.436 Y116.729 E166.29218
G1 X117.362 Y117.232 E166.32777
G1 X117.269 Y120.148 E166.53199
G1 X117.615 Y120.504 E166.56674
G1 X118.983 Y120.504 E166.6625
G1 X119.388 Y120.504 E166.69085
G1 X119.506 Y120.622 E166.70253
G1 X119.505 Y128.566 E167.25861
G1 X119.366 Y128.705 E167.27237
G1 X118.983 Y128.705 E167.29918
G1 X118.983 Y120.504 E167.87325
G0 F4800 X104.985 Y105.078
G1 F1800 X104.81 Y102.829 E168.03116
G1 X104.985 Y102.829 E168.04341
G1 X104.985 Y105.078 E168.20084
G10
G0 F4800 X96.171 Y96.288
G0 X94.961 Y96.288
G0 X94.275 Y95.602
;TYPE:WALL-INNER
G11
G1 F2100 X76.726 Y95.602 E169.42927
G1 X76.726 Y95.52 E169.43501
G1 X94.275 Y95.52 E169.72281
G1 X94.275 Y95.602 E169.72855
G0 F4800 X94.625 Y95.952
G1 F2100 X76.55 Y95.952 E170.9938
G1 X76.375 Y95.952 E171.00605
G1 X76.375 Y95.777 E171.01398
G1 X76.377 Y95.17 E171.05647
G1 X94.625 Y95.17 E172.33383
G1 X94.625 Y95.952 E172.38857
G0 F4800 X94.975 Y96.302
G1 F2100 X76.2 Y96.302 E173.70282
G1 X76.025 Y96.302 E173.71507
G1 X76.025 Y96.127 E173.723
G1 X76.027 Y94.82 E173.81449
G1 X94.975 Y94.82 E175.14085
G1 X94.975 Y96.302 E175.24459
G0 F4800 X95.3 Y96.627
;TYPE:WALL-OUTER
G1 F1800 X75.875 Y96.627 E176.60434
G1 X75.7 Y96.627 E176.61659
G1 X75.7 Y96.452 E176.62452
G1 X75.702 Y94.495 E176.76151
G1 X95.3 Y94.495 E178.13337
G1 X95.3 Y96.627 E178.28261
G0 F4800 X95.1 Y96.627
G0 X94.625 Y96.055
G10
G0 X94.955 Y95.602
G0 X96.171 Y95.602
G0 X100.831 Y95.602
G0 X102.047 Y95.602
G0 X120.275 Y95.602
;TYPE:WALL-INNER
G11
G1 F2100 X102.727 Y95.602 E179.51097
G1 X102.727 Y95.52 E179.51671
G1 X120.275 Y95.52 E179.80449
G1 X120.275 Y95.602 E179.81023
G0 F4800 X120.625 Y95.952
G1 F2100 X102.377 Y95.952 E181.08759
G1 X102.377 Y95.17 E181.14233
G1 X120.625 Y95.17 E182.41969
G1 X120.625 Y95.952 E182.47443
G0 F4800 X120.975 Y96.302
G1 F2100 X102.027 Y96.302 E183.80079
G1 X102.027 Y94.82 E183.90453
G1 X120.975 Y94.82 E185.23089
G1 X120.975 Y96.302 E185.33463
G0 F4800 X121.3 Y96.627
;TYPE:WALL-OUTER
G1 F1800 X101.702 Y96.627 E186.70649
G1 X101.702 Y94.495 E186.85573
G1 X121.3 Y94.495 E188.22759
G1 X121.3 Y96.627 E188.37683
G0 F4800 X121.1 Y96.627
G0 X120.625 Y96.055
G10
G0 X102.041 Y96.288
G0 X100.831 Y96.288
G0 X95.659 Y97.494
G0 X79.322 Y99.032
;TIME_ELAPSED:82.564946
;LAYER:2
G0 F6000 X79.322 Y99.032 Z0.7
;TYPE:SUPPORT
G11
G1 F1800 X81.655 Y99.037 E188.54014
G1 X81.655 Y100.919 E188.67188
G1 X83.988 Y100.925 E188.8352
G1 X83.988 Y99.043 E188.96694
G1 X86.321 Y99.048 E189.13025
G1 X86.321 Y100.931 E189.26206
G1 X88.654 Y100.937 E189.42537
G1 X88.654 Y99.054 E189.55718
G1 X90.987 Y99.059 E189.72049
G1 X92.717 Y99.063 E189.84159
G1 X92.7 Y100.447 E189.93847
G1 X92.655 Y100.447 E189.94162
G1 X92.298 Y100.778 E189.9757
G1 X92.286 Y100.947 E189.98756
G1 X90.987 Y100.943 E190.07849
G1 X90.987 Y99.059 E190.21037
G0 F6000 X79.322 Y99.032
G1 F1800 X78.264 Y99.029 E190.28443
G1 X78.248 Y100.416 E190.38153
G1 X78.295 Y100.417 E190.38482
G1 X78.471 Y100.582 E190.40171
G1 X78.649 Y100.747 E190.4187
G1 X78.662 Y100.912 E190.43028
G1 X79.322 Y100.913 E190.47648
G1 X79.322 Y99.032 E190.60815
G10
G0 F6000 X79.322 Y100.63
G0 X79.322 Y100.674
G0 X79.322 Y103.27
G0 X79.322 Y103.35
G0 X79.322 Y103.029
G11
G1 F1800 X78.826 Y103.029 E190.64287
G1 X78.986 Y105.09 E190.78758
G1 X78.986 Y105.986 E190.8503
