;FLAVOR:UltiGCode
;TIME:4443
;MATERIAL:9123
;MATERIAL2:0
;NOZZLE_DIAMETER:0.4
;Generated with Cura_SteamEngine 3.4.0
M82 ;absolute extrusion mode

G92 E0
G10
;LAYER_COUNT:100
;LAYER:0
M107
G0 F3600 X76.001 Y92.084 Z0.3
;TYPE:SUPPORT
G11
G1 F1800 X95.041 Y92.084 E1.9992
G1 X95.041 Y96.935 E2.50855
G1 X94.923 Y97.053 E2.52608
G1 X93.387 Y97.053 E2.68736
G1 X93.037 Y97.403 E2.73933
G1 X93.037 Y99.417 E2.9508
G1 X92.569 Y99.886 E3.02037
G1 X89.852 Y116.325 E4.76988
G1 X89.985 Y116.737 E4.81534
G1 X90.964 Y117.714 E4.96056
G1 X90.964 Y118.814 E5.07606
G1 X89.789 Y119.987 E5.25039
G1 X89.729 Y120.45 E5.29942
G1 X91.909 Y124.209 E5.75568
G1 X91.865 Y124.37 E5.77321
G1 X88.489 Y126.249 E6.17889
G1 X88.37 Y126.735 E6.23143
G1 X89.506 Y128.473 E6.44945
G1 X89.506 Y128.591 E6.46184
G1 X85.903 Y134.102 E7.15318
G1 X85.688 Y134.102 E7.17576
G1 X79.473 Y124.787 E8.35155
G1 X79.466 Y124.678 E8.36302
G1 X79.894 Y123.821 E8.4636
G1 X81.769 Y120.579 E8.85684
G1 X81.709 Y120.116 E8.90587
G1 X80.4 Y118.809 E9.10009
G1 X80.4 Y117.713 E9.21517
G1 X81.483 Y116.63 E9.37599
G1 X81.615 Y116.218 E9.42142
G1 X78.962 Y100.44 E11.10136
G1 X77.964 Y99.441 E11.24963
G1 X77.964 Y97.403 E11.46362
G1 X77.614 Y97.053 E11.5156
G1 X76.119 Y97.053 E11.67257
G1 X76.001 Y96.935 E11.69009
G1 X76.001 Y92.084 E12.19945
G0 F3600 X76.989 Y92.224
G1 F1800 X76.989 Y96.913 E12.69179
G0 F3600 X76.141 Y95.653
G1 F1800 X94.901 Y95.653 E14.66159
G0 F3600 X93.32 Y96.923
G1 F1800 X93.32 Y92.224 E15.15499
G0 F3600 X94.901 Y93.32
G1 F1800 X76.141 Y93.32 E17.12479
G0 F3600 X79.322 Y92.224
G1 F1800 X79.322 Y101.74 E18.12397
G0 F3600 X79.475 Y102.652
G1 F1800 X91.969 Y102.652 E19.43584
G0 F3600 X91.584 Y104.985
G1 F1800 X79.867 Y104.985 E20.66612
G0 F3600 X80.26 Y107.318
G1 F1800 X91.198 Y107.318 E21.81461
G0 F3600 X90.987 Y108.599
G1 F1800 X90.987 Y92.224 E23.53399
G0 F3600 X88.654 Y92.224
G1 F1800 X88.654 Y125.998 E27.08026
G0 F3600 X88.68 Y125.982
G1 F1800 X80.437 Y125.982 E27.94577
G0 F3600 X81.655 Y127.804
G1 F1800 X81.655 Y121.055 E28.65442
G0 F3600 X81.504 Y121.316
G1 F1800 X90.069 Y121.316 E29.55374
G0 F3600 X90.987 Y122.898
G1 F1800 X90.987 Y124.699 E29.74285
G0 F3600 X91.422 Y123.649
G1 F1800 X80.154 Y123.649 E30.92599
G0 F3600 X81.655 Y119.864
G1 F1800 X81.655 Y116.554 E31.27354
G0 F3600 X81.625 Y116.65
G1 F1800 X89.81 Y116.65 E32.13296
G0 F3600 X90.041 Y114.317
G1 F1800 X81.437 Y114.317 E33.03638
G0 F3600 X81.655 Y115.611
G1 F1800 X81.655 Y92.224 E35.49202
G0 F3600 X83.988 Y92.224
G1 F1800 X83.988 Y131.301 E39.5951
G0 F3600 X83.55 Y130.648
G1 F1800 X87.993 Y130.648 E40.06162
G0 F3600 X88.654 Y129.639
G1 F1800 X88.654 Y127.427 E40.29388
G0 F3600 X89.235 Y128.315
G1 F1800 X81.994 Y128.315 E41.05418
G0 F3600 X85.107 Y132.981
G1 F1800 X86.468 Y132.981 E41.19709
G0 F3600 X86.321 Y133.208
G1 F1800 X86.321 Y92.224 E45.50041
G0 F3600 X92.897 Y97.986
G1 F1800 X78.104 Y97.986 E47.05367
G0 F3600 X79.038 Y100.319
G1 F1800 X92.355 Y100.319 E48.45196
G0 F3600 X90.813 Y109.651
G1 F1800 X80.652 Y109.651 E49.51886
G0 F3600 X81.044 Y111.984
G1 F1800 X90.427 Y111.984 E50.50408
G0 F3600 X90.595 Y118.983
G1 F1800 X80.771 Y118.983 E51.5356
G0 F3600 X105.466 Y124.678
G1 F1800 X105.894 Y123.821 E51.63618
G1 X107.769 Y120.579 E52.02942
G1 X107.709 Y120.116 E52.07844
G1 X106.4 Y118.809 E52.27267
G1 X106.4 Y117.713 E52.38775
G1 X107.483 Y116.63 E52.54857
G1 X107.615 Y116.218 E52.59399
G1 X104.962 Y100.44 E54.27394
G1 X103.964 Y99.441 E54.42221
G1 X103.964 Y97.403 E54.6362
G1 X103.614 Y97.053 E54.68817
G1 X102.119 Y97.053 E54.84515
G1 X102.001 Y96.935 E54.86267
G1 X102.001 Y92.084 E55.37203
G1 X121.041 Y92.084 E57.37123
G1 X121.041 Y96.935 E57.88058
G1 X120.923 Y97.053 E57.8981
G1 X119.387 Y97.053 E58.05938
G1 X119.037 Y97.403 E58.11135
G1 X119.037 Y99.417 E58.32282
G1 X118.569 Y99.886 E58.39239
G1 X115.852 Y116.325 E60.14191
G1 X115.985 Y116.737 E60.18736
G1 X116.964 Y117.714 E60.33259
G1 X116.964 Y118.814 E60.44809
G1 X115.789 Y119.987 E60.62242
G1 X115.729 Y120.45 E60.67144
G1 X117.909 Y124.209 E61.12771
G1 X117.865 Y124.37 E61.14523
G1 X114.489 Y126.249 E61.55092
G1 X114.37 Y126.735 E61.60346
G1 X115.506 Y128.473 E61.82147
G1 X115.506 Y128.591 E61.83386
G1 X111.903 Y134.102 E62.52521
G1 X111.688 Y134.102 E62.54778
G1 X105.473 Y124.787 E63.72358
G1 X105.466 Y124.678 E63.73504
G0 F3600 X106.154 Y123.649
G1 F1800 X117.422 Y123.649 E64.91818
G0 F3600 X116.65 Y124.887
G1 F1800 X116.65 Y122.317 E65.18803
G0 F3600 X116.069 Y121.316
G1 F1800 X107.504 Y121.316 E66.08736
G0 F3600 X107.318 Y121.638
G1 F1800 X107.318 Y127.299 E66.68176
G0 F3600 X107.994 Y128.315
G1 F1800 X115.235 Y128.315 E67.44207
G0 F3600 X114.317 Y126.911
G1 F1800 X114.317 Y130.154 E67.78258
G0 F3600 X113.993 Y130.648
G1 F1800 X109.55 Y130.648 E68.2491
G0 F3600 X109.651 Y130.796
G1 F1800 X109.651 Y92.224 E72.29916
G0 F3600 X107.318 Y92.224
G1 F1800 X107.318 Y113.607 E74.54437
G0 F3600 X107.437 Y114.317
G1 F1800 X116.041 Y114.317 E75.44779
G0 F3600 X115.81 Y116.65
G1 F1800 X107.625 Y116.65 E76.30722
G0 F3600 X107.318 Y116.993
G1 F1800 X107.318 Y119.527 E76.57329
G0 F3600 X106.771 Y118.983
G1 F1800 X116.595 Y118.983 E77.60481
G0 F3600 X116.65 Y118.93
G1 F1800 X116.65 Y117.599 E77.74456
G0 F3600 X116.427 Y111.984
G1 F1800 X107.044 Y111.984 E78.72978
G0 F3600 X106.652 Y109.651
G1 F1800 X116.813 Y109.651 E79.79668
G0 F3600 X116.65 Y110.638
G1 F1800 X116.65 Y92.224 E81.73015
G0 F3600 X114.317 Y92.224
G1 F1800 X114.317 Y126.362 E85.31464
G0 F3600 X114.68 Y125.982
G1 F1800 X106.437 Y125.982 E86.18016
G0 F3600 X111.107 Y132.981
G1 F1800 X112.468 Y132.981 E86.32306
G0 F3600 X111.984 Y133.724
G1 F1800 X111.984 Y92.224 E90.68056
G0 F3600 X118.983 Y92.224
G1 F1800 X118.983 Y97.26 E91.20934
G0 F3600 X118.897 Y97.986
G1 F1800 X104.104 Y97.986 E92.76261
G0 F3600 X102.652 Y96.913
G1 F1800 X102.652 Y92.224 E93.25495
G0 F3600 X102.141 Y93.32
G1 F1800 X120.901 Y93.32 E95.22475
G0 F3600 X120.901 Y95.653
G1 F1800 X102.141 Y95.653 E97.19455
G0 F3600 X104.985 Y92.224
G1 F1800 X104.985 Y100.265 E98.03886
G0 F3600 X105.038 Y100.319
G1 F1800 X118.355 Y100.319 E99.43714
G0 F3600 X117.969 Y102.652
G1 F1800 X105.475 Y102.652 E100.74901
G0 F3600 X105.867 Y104.985
G1 F1800 X117.584 Y104.985 E101.9793
G0 F3600 X117.198 Y107.318
G1 F1800 X106.26 Y107.318 E103.12779
G10
G0 F3600 X94.961 Y91.905
G0 X94.961 Y90.695
G0 X94.905 Y90.639
G0 X95.3 Y91.034
;TYPE:WALL-OUTER
G11
G1 F1800 X75.7 Y91.034 E105.18579
G1 X75.7 Y88.944 E105.40524
G1 X95.3 Y88.944 E107.46324
G1 X95.3 Y91.034 E107.68269
G0 F3600 X95.1 Y91.034
G0 X94.975 Y90.709
;TYPE:WALL-INNER
G1 F1800 X76.025 Y90.709 E109.67244
G1 X76.025 Y89.269 E109.82364
G1 X94.975 Y89.269 E111.81339
G1 X94.975 Y90.709 E111.96459
G0 F3600 X94.625 Y90.359
G1 F1800 X76.375 Y90.359 E113.88084
G1 X76.375 Y89.619 E113.95854
G1 X94.625 Y89.619 E115.87479
G1 X94.625 Y90.359 E115.95249
G0 F3600 X94.275 Y90.009
G1 F1800 X76.725 Y90.009 E117.79524
G1 X76.725 Y89.969 E117.79944
G1 X94.275 Y89.969 E118.01004
G1 X94.275 Y90.009 E118.01424
G10
G0 F3600 X94.955 Y90.639
G0 X96.171 Y90.639
G0 X100.829 Y90.639
G0 X102.045 Y90.639
G0 X120.905 Y90.639
G0 X121.3 Y91.034
;TYPE:WALL-OUTER
G11
G1 F1800 X101.7 Y91.034 E120.07224
G1 X101.7 Y88.944 E120.29169
G1 X121.3 Y88.944 E122.34969
G1 X121.3 Y91.034 E122.56914
G0 F3600 X121.1 Y91.034
G0 X120.975 Y90.709
;TYPE:WALL-INNER
G1 F1800 X102.025 Y90.709 E124.55889
G1 X102.025 Y89.269 E124.71009
G1 X120.975 Y89.269 E126.69984
G1 X120.975 Y90.709 E126.85104
G0 F3600 X120.625 Y90.359
G1 F1800 X102.375 Y90.359 E128.76729
G1 X102.375 Y89.619 E128.84499
G1 X120.625 Y89.619 E130.76124
G1 X120.625 Y90.359 E130.83894
G0 F3600 X120.275 Y90.009
G1 F1800 X102.725 Y90.009 E132.68169
G1 X102.725 Y89.969 E132.68589
G1 X120.275 Y89.969 E132.89649
G1 X120.275 Y90.009 E132.90069
G10
G0 F3600 X102.039 Y90.695
G0 X100.829 Y90.695
G0 X95.659 Y91.901
G0 X79.322 Y93.469
;TIME_ELAPSED:53.151635
;LAYER:1
M106 S255
G0 F4800 X79.322 Y93.469 Z0.5
;TYPE:SUPPORT
G11
G1 F1800 X78.21 Y93.469 E132.97853
G1 X78.21 Y95.526 E133.12252
G1 X79.322 Y95.528 E133.20036
G1 X79.322 Y93.469 E133.34449
G1 X81.655 Y93.469 E133.5078
G1 X81.655 Y95.533 E133.65228
G1 X83.988 Y95.538 E133.81559
G1 X83.988 Y93.469 E133.96042
G1 X86.321 Y93.469 E134.12373
G1 X86.321 Y95.543 E134.26891
G1 X88.654 Y95.548 E134.43222
G1 X88.654 Y93.469 E134.57775
G1 X90.987 Y93.469 E134.74106
G1 X92.789 Y93.469 E134.8672
G1 X92.786 Y95.558 E135.01343
G1 X90.987 Y95.554 E135.13936
G1 X90.987 Y93.469 E135.28531
G0 F4800 X90.987 Y97.203
G1 F1800 X88.654 Y97.203 E135.44862
G1 X88.654 Y126.158 E137.47547
G1 X88.489 Y126.249 E137.48866
G1 X88.37 Y126.735 E137.52369
G1 X88.654 Y127.17 E137.56005
G1 X89.506 Y128.473 E137.66903
G1 X89.506 Y128.591 E137.67729
G1 X88.654 Y129.895 E137.78633
G1 X88.654 Y127.17 E137.97708
G0 F4800 X88.654 Y129.895
G1 F1800 X86.321 Y133.463 E138.27549
G1 X86.321 Y97.203 E140.81369
G1 X83.988 Y97.203 E140.977
G1 X83.988 Y131.554 E143.38157
G1 X81.655 Y128.057 E143.67583
G1 X81.655 Y120.777 E144.18543
G1 X80.176 Y123.333 E144.39215
G1 X79.894 Y123.821 E144.4316
G1 X79.466 Y124.678 E144.49866
G1 X79.473 Y124.787 E144.5063
G1 X81.655 Y128.057 E144.78148
G0 F4800 X81.655 Y120.777
G1 F1800 X81.769 Y120.58 E144.79742
G1 X81.718 Y120.184 E144.82537
G1 X81.718 Y120.125 E144.8295
G1 X81.655 Y120.062 E144.83573
G1 X81.655 Y97.203 E146.43586
G1 X79.322 Y97.203 E146.59917
G1 X79.322 Y102.581 E146.97563
G1 X78.962 Y100.44 E147.12761
G1 X77.964 Y99.441 E147.22645
G1 X77.964 Y97.8 E147.34132
G1 X78.21 Y97.552 E147.36577
G1 X78.21 Y97.203 E147.3902
G1 X79.322 Y97.203 E147.46804
G0 F4800 X90.987 Y97.203
G1 F1800 X92.784 Y97.203 E147.59383
G1 X92.783 Y97.553 E147.61833
G1 X93.037 Y97.807 E147.64348
G1 X93.037 Y99.417 E147.75618
G1 X92.569 Y99.886 E147.80256
G1 X90.987 Y109.458 E148.48169
G1 X90.987 Y97.203 E149.33954
G0 F4800 X90.987 Y109.458
G1 F1800 X89.852 Y116.325 E149.82675
G1 X89.985 Y116.737 E149.85706
G1 X90.964 Y117.714 E149.95387
G1 X90.964 Y118.814 E150.03087
G1 X89.789 Y119.987 E150.14709
G1 X89.729 Y120.45 E150.17977
G1 X90.987 Y122.62 E150.35535
G1 X91.909 Y124.209 E150.48395
G1 X91.865 Y124.37 E150.49563
G1 X90.987 Y124.859 E150.56598
G1 X90.987 Y122.62 E150.72271
G0 F4800 X107.318 Y121.359
G1 F1800 X106.176 Y123.333 E150.88235
G1 X105.894 Y123.821 E150.9218
G1 X105.466 Y124.678 E150.98886
G1 X105.473 Y124.787 E150.99651
G1 X107.318 Y127.552 E151.22919
G1 X107.318 Y121.359 E151.6627
G1 X107.769 Y120.58 E151.72571
G1 X107.718 Y120.184 E151.75366
G1 X107.718 Y120.125 E151.75779
G1 X107.318 Y119.725 E151.79738
G1 X107.318 Y116.795 E152.00248
G1 X106.4 Y117.713 E152.09336
G1 X106.4 Y118.809 E152.17008
G1 X107.318 Y119.725 E152.26086
G0 F4800 X107.318 Y116.795
G1 F1800 X107.483 Y116.63 E152.27719
G1 X107.615 Y116.218 E152.30748
G1 X107.318 Y114.451 E152.4329
G1 X107.318 Y97.203 E153.64026
G1 X109.651 Y97.203 E153.80357
G1 X109.651 Y131.048 E156.17272
G1 X111.688 Y134.102 E156.42969
G1 X111.903 Y134.102 E156.44474
G1 X111.984 Y133.979 E156.45505
G1 X111.984 Y97.203 E159.02937
G1 X114.317 Y97.203 E159.19268
G1 X114.317 Y130.41 E161.51717
G1 X115.506 Y128.591 E161.66929
G1 X115.506 Y128.473 E161.67755
G1 X114.37 Y126.735 E161.8229
G1 X114.489 Y126.249 E161.85792
G1 X116.65 Y125.047 E162.03102
G1 X117.865 Y124.37 E162.12838
G1 X117.909 Y124.209 E162.14006
G1 X116.65 Y122.039 E162.31568
G1 X116.65 Y125.047 E162.52624
G0 F4800 X116.65 Y122.039
G1 F1800 X115.729 Y120.45 E162.6548
G1 X115.789 Y119.987 E162.68748
G1 X116.65 Y119.128 E162.77262
G1 X116.964 Y118.814 E162.8037
G1 X116.964 Y117.714 E162.8807
G1 X116.65 Y117.401 E162.91174
G1 X116.65 Y119.128 E163.03263
G0 F4800 X116.65 Y117.401
G1 F1800 X115.985 Y116.737 E163.09841
G1 X115.852 Y116.325 E163.12871
G1 X116.65 Y111.497 E163.47126
G1 X116.65 Y97.203 E164.47184
G1 X118.784 Y97.203 E164.62122
G1 X118.783 Y97.553 E164.64572
G1 X118.983 Y97.753 E164.66552
G1 X119.037 Y97.807 E164.67086
G1 X119.037 Y99.417 E164.78356
G1 X118.983 Y99.472 E164.78896
G1 X118.983 Y97.753 E164.90929
G0 F4800 X104.985 Y100.576
G1 F1800 X104.962 Y100.44 E164.91894
G1 X103.964 Y99.441 E165.01779
G1 X103.964 Y97.8 E165.13266
G1 X104.21 Y97.552 E165.15711
G1 X104.21 Y97.203 E165.18154
G1 X104.985 Y97.203 E165.23579
G1 X104.985 Y100.576 E165.4719
G1 X107.318 Y114.451 E166.45679
G0 F4800 X104.985 Y95.528
G1 F1800 X107.318 Y95.534 E166.6201
G1 X107.318 Y93.469 E166.76465
G1 X109.651 Y93.469 E166.92796
G1 X109.651 Y95.54 E167.07293
G1 X111.984 Y95.546 E167.23624
G1 X111.984 Y93.469 E167.38163
G1 X114.317 Y93.469 E167.54494
G1 X114.317 Y95.553 E167.69082
G1 X116.65 Y95.559 E167.85413
G1 X118.785 Y95.565 E168.00358
G1 X118.789 Y93.469 E168.1503
G1 X116.65 Y93.469 E168.30003
G1 X116.65 Y95.559 E168.44633
G0 F4800 X104.985 Y95.528
G1 F1800 X104.21 Y95.526 E168.50058
G1 X104.21 Y93.469 E168.64457
G1 X104.985 Y93.469 E168.69882
G1 X104.985 Y95.528 E168.84295
G10
G0 F4800 X96.171 Y90.695
G0 X94.961 Y90.695
G0 X94.275 Y90.009
;TYPE:WALL-INNER
G11
G1 F2100 X76.725 Y90.009 E170.07145
G1 X76.725 Y89.969 E170.07425
G1 X94.275 Y89.969 E170.21465
G1 X94.275 Y90.009 E170.21745
G0 F4800 X94.625 Y90.359
G1 F2100 X76.375 Y90.359 E171.49495
G1 X76.375 Y89.619 E171.54675
G1 X94.625 Y89.619 E172.82425
G1 X94.625 Y90.359 E172.87605
G0 F4800 X94.975 Y90.709
G1 F2100 X76.025 Y90.709 E174.20255
G1 X76.025 Y89.269 E174.30335
G1 X94.975 Y89.269 E175.62985
G1 X94.975 Y90.709 E175.73065
G0 F4800 X95.3 Y91.034
;TYPE:WALL-OUTER
G1 F1800 X75.7 Y91.034 E177.10265
G1 X75.7 Y88.944 E177.24895
G1 X95.3 Y88.944 E178.62095
G1 X95.3 Y91.034 E178.76725
G0 F4800 X95.1 Y91.034
G0 X94.625 Y90.462
G10
G0 X94.955 Y90.009
G0 X96.171 Y90.009
G0 X100.829 Y90.009
G0 X102.045 Y90.009
G0 X120.275 Y90.009
;TYPE:WALL-INNER
G11
G1 F2100 X102.725 Y90.009 E179.99575
G1 X102.725 Y89.969 E179.99855
G1 X120.275 Y89.969 E180.13895
G1 X120.275 Y90.009 E180.14175
G0 F4800 X120.625 Y90.359
G1 F2100 X102.375 Y90.359 E181.41925
G1 X102.375 Y89.619 E181.47105
G1 X120.625 Y89.619 E182.74855
G1 X120.625 Y90.359 E182.80035
G0 F4800 X120.975 Y90.709
G1 F2100 X102.025 Y90.709 E184.12685
G1 X102.025 Y89.269 E184.22765
G1 X120.975 Y89.269 E185.55415
G1 X120.975 Y90.709 E185.65495
G0 F4800 X121.3 Y91.034
;TYPE:WALL-OUTER
G1 F1800 X101.7 Y91.034 E187.02695
G1 X101.7 Y88.944 E187.17325
G1 X121.3 Y88.944 E188.54525
G1 X121.3 Y91.034 E188.69155
G0 F4800 X121.1 Y91.034
G0 X120.625 Y90.462
G10
G0 X102.039 Y90.695
G0 X100.829 Y90.695
G0 X95.659 Y91.901
G0 X79.322 Y93.469
;TIME_ELAPSED:83.895072
;LAYER:2
G0 F6000 X79.322 Y93.469 Z0.7
;TYPE:SUPPORT
G11
G1 F1800 X78.21 Y93.469 E188.76939
G1 X78.21 Y95.325 E188.89931
G1 X79.322 Y95.327 E188.97715
G1 X79.322 Y93.469 E189.10721
G1 X81.655 Y93.469 E189.27052
G1 X81.655 Y95.332 E189.40093
G1 X83.988 Y95.338 E189.56424
G1 X83.988 Y93.469 E189.69507
G1 X86.321 Y93.469 E189.85838
G1 X86.321 Y95.343 E189.98956
G1 X88.654 Y95.348 E190.15287
G1 X88.654 Y93.469 E190.2844
G1 X90.987 Y93.469 E190.44771
G1 X92.789 Y93.469 E190.57385
G1 X92.786 Y95.358 E190.70608
G1 X90.987 Y95.353 E190.83201
G1 X90.987 Y93.469 E190.96389
G10
G0 F6000 X90.987 Y95.068
G0 X90.987 Y95.112
G0 X90.987 Y97.644
G0 X90.987 Y97.724
G0 X90.987 Y97.403
G11
G1 F1800 X88.654 Y97.403 E191.1272
G1 X88.654 Y126.158 E193.14005
G1 X88.489 Y126.249 E193.15324
G1 X88.37 Y126.735 E193.18827
G1 X88.654 Y127.17 E193.22463
G1 X89.506 Y128.473 E193.33361
G1 X89.506 Y128.591 E193.34187
G1 X88.654 Y129.895 E193.45091
G1 X88.654 Y127.17 E193.64166
G0 F6000 X88.654 Y129.895
G1 F1800 X86.321 Y133.463 E193.94007
G1 X86.321 Y97.403 E196.46427
G1 X83.988 Y97.403 E196.62758
G1 X83.988 Y131.554 E199.01815
G1 X81.655 Y128.057 E199.31241
G1 X81.655 Y120.777 E199.82201
G1 X80.176 Y123.333 E200.02873
G1 X79.894 Y123.821 E200.06818
G1 X79.466 Y124.678 E200.13524
G1 X79.473 Y124.787 E200.14288
G1 X81.655 Y128.057 E200.41806
G0 F6000 X81.655 Y120.777
G1 F1800 X81.769 Y120.58 E200.434
G1 X81.718 Y120.184 E200.46195
G1 X81.718 Y120.125 E200.46608
G1 X81.655 Y120.062 E200.47231
G1 X81.655 Y97.403 E202.05844
G1 X79.322 Y97.403 E202.22175
G1 X79.322 Y102.581 E202.58421
G1 X78.962 Y100.44 E202.73619
G1 X77.964 Y99.441 E202.83503
