;FLAVOR:UltiGCode
;TIME:2202
;MATERIAL:4567
;MATERIAL2:0
;NOZZLE_DIAMETER:0.4
;Generated with Cura_SteamEngine 3.4.0
M82 ;absolute extrusion mode

G92 E0
G10
;LAYER_COUNT:100
;LAYER:0
M107
G0 F3600 X102.001 Y92.084 Z0.3
;TYPE:SUPPORT
G11
G1 F1800 X121.041 Y92.084 E1.9992
G1 X121.041 Y96.935 E2.50855
G1 X120.923 Y97.053 E2.52608
G1 X119.387 Y97.053 E2.68736
G1 X119.037 Y97.403 E2.73933
G1 X119.037 Y99.417 E2.9508
G1 X118.569 Y99.886 E3.02037
G1 X115.852 Y116.325 E4.76988
G1 X115.985 Y116.737 E4.81534
G1 X116.964 Y117.714 E4.96056
G1 X116.964 Y118.814 E5.07606
G1 X115.789 Y119.987 E5.25039
G1 X115.729 Y120.45 E5.29942
G1 X117.909 Y124.209 E5.75568
G1 X117.865 Y124.37 E5.77321
G1 X114.489 Y126.249 E6.17889
G1 X114.37 Y126.735 E6.23143
G1 X115.506 Y128.473 E6.44945
G1 X115.506 Y128.591 E6.46184
G1 X111.903 Y134.102 E7.15318
G1 X111.688 Y134.102 E7.17576
G1 X105.473 Y124.787 E8.35155
G1 X105.466 Y124.678 E8.36302
G1 X105.894 Y123.821 E8.4636
G1 X107.769 Y120.579 E8.85684
G1 X107.709 Y120.116 E8.90587
G1 X106.4 Y118.809 E9.10009
G1 X106.4 Y117.713 E9.21517
G1 X107.483 Y116.63 E9.37599
G1 X107.615 Y116.218 E9.42142
G1 X104.962 Y100.44 E11.10136
G1 X103.964 Y99.441 E11.24963
G1 X103.964 Y97.403 E11.46362
G1 X103.614 Y97.053 E11.5156
G1 X102.119 Y97.053 E11.67257
G1 X102.001 Y96.935 E11.69009
G1 X102.001 Y92.084 E12.19945
G0 F3600 X102.652 Y92.224
G1 F1800 X102.652 Y96.913 E12.69179
G0 F3600 X102.141 Y95.653
G1 F1800 X120.901 Y95.653 E14.66159
G0 F3600 X120.901 Y93.32
G1 F1800 X102.141 Y93.32 E16.63139
G0 F3600 X104.985 Y92.224
G1 F1800 X104.985 Y100.265 E17.4757
G0 F3600 X105.038 Y100.319
G1 F1800 X118.355 Y100.319 E18.87398
G0 F3600 X117.969 Y102.652
G1 F1800 X105.475 Y102.652 E20.18585
G0 F3600 X105.867 Y104.985
G1 F1800 X117.584 Y104.985 E21.41614
G0 F3600 X117.198 Y107.318
G1 F1800 X106.26 Y107.318 E22.56463
G0 F3600 X106.652 Y109.651
G1 F1800 X116.813 Y109.651 E23.63153
G0 F3600 X116.65 Y110.638
G1 F1800 X116.65 Y92.224 E25.565
G0 F3600 X114.317 Y92.224
G1 F1800 X114.317 Y126.362 E29.14949
G0 F3600 X114.68 Y125.982
G1 F1800 X106.437 Y125.982 E30.01501
G0 F3600 X107.318 Y127.299
G1 F1800 X107.318 Y121.638 E30.60941
G0 F3600 X107.504 Y121.316
G1 F1800 X116.069 Y121.316 E31.50874
G0 F3600 X116.65 Y122.317
G1 F1800 X116.65 Y124.887 E31.77859
G0 F3600 X117.422 Y123.649
G1 F1800 X106.154 Y123.649 E32.96173
G0 F3600 X107.318 Y119.527
G1 F1800 X107.318 Y116.993 E33.2278
G0 F3600 X107.625 Y116.65
G1 F1800 X115.81 Y116.65 E34.08722
G0 F3600 X116.65 Y117.599
G1 F1800 X116.65 Y118.93 E34.22698
G0 F3600 X116.595 Y118.983
G1 F1800 X106.771 Y118.983 E35.2585
G0 F3600 X107.437 Y114.317
G1 F1800 X116.041 Y114.317 E36.16192
G0 F3600 X116.427 Y111.984
G1 F1800 X107.044 Y111.984 E37.14713
G0 F3600 X107.318 Y113.607
G1 F1800 X107.318 Y92.224 E39.39235
G0 F3600 X109.651 Y92.224
G1 F1800 X109.651 Y130.796 E43.44241
G0 F3600 X109.55 Y130.648
G1 F1800 X113.993 Y130.648 E43.90892
G0 F3600 X114.317 Y130.154
G1 F1800 X114.317 Y126.911 E44.24944
G0 F3600 X115.235 Y128.315
G1 F1800 X107.994 Y128.315 E45.00974
G0 F3600 X111.107 Y132.981
G1 F1800 X112.468 Y132.981 E45.15265
G0 F3600 X111.984 Y133.724
G1 F1800 X111.984 Y92.224 E49.51015
G0 F3600 X118.983 Y92.224
G1 F1800 X118.983 Y97.26 E50.03893
G0 F3600 X118.897 Y97.986
G1 F1800 X104.104 Y97.986 E51.59219
G10
G0 F3600 X104.104 Y91.905
G0 X104.104 Y90.689
G0 X120.905 Y90.639
G0 X121.3 Y91.034
;TYPE:WALL-OUTER
G11
G1 F1800 X101.7 Y91.034 E53.65019
G1 X101.7 Y88.944 E53.86964
G1 X121.3 Y88.944 E55.92764
G1 X121.3 Y91.034 E56.14709
G0 F3600 X121.1 Y91.034
G0 X120.975 Y90.709
;TYPE:WALL-INNER
G1 F1800 X102.025 Y90.709 E58.13684
G1 X102.025 Y89.269 E58.28804
G1 X120.975 Y89.269 E60.27779
G1 X120.975 Y90.709 E60.42899
G0 F3600 X120.625 Y90.359
G1 F1800 X102.375 Y90.359 E62.34524
G1 X102.375 Y89.619 E62.42294
G1 X120.625 Y89.619 E64.33919
G1 X120.625 Y90.359 E64.41689
G0 F3600 X120.275 Y90.009
G1 F1800 X102.725 Y90.009 E66.25964
G1 X102.725 Y89.969 E66.26384
G1 X120.275 Y89.969 E66.47444
G1 X120.275 Y90.009 E66.47864
G10
G0 F3600 X104.985 Y90.689
G0 X104.985 Y91.905
G0 X104.985 Y95.528
;TIME_ELAPSED:28.489037
;LAYER:1
M106 S255
G0 F4800 X104.985 Y95.528 Z0.5
;TYPE:SUPPORT
G11
G1 F1800 X107.318 Y95.534 E66.64195
G1 X107.318 Y93.469 E66.7865
G1 X109.651 Y93.469 E66.94981
G1 X109.651 Y95.54 E67.09478
G1 X111.984 Y95.546 E67.25809
G1 X111.984 Y93.469 E67.40348
G1 X114.317 Y93.469 E67.56679
G1 X114.317 Y95.553 E67.71267
G1 X116.65 Y95.559 E67.87598
G1 X118.785 Y95.565 E68.02543
G1 X118.789 Y93.469 E68.17215
G1 X116.65 Y93.469 E68.32188
G1 X116.65 Y95.559 E68.46818
G0 F4800 X104.985 Y95.528
G1 F1800 X104.21 Y95.526 E68.52243
G1 X104.21 Y93.469 E68.66642
G1 X104.985 Y93.469 E68.72067
G1 X104.985 Y95.528 E68.8648
G0 F4800 X104.985 Y100.576
G1 F1800 X104.962 Y100.44 E68.87446
G1 X103.964 Y99.441 E68.97331
G1 X103.964 Y97.8 E69.08818
G1 X104.21 Y97.552 E69.11263
G1 X104.21 Y97.203 E69.13706
G1 X104.985 Y97.203 E69.19131
G1 X104.985 Y100.576 E69.42742
G1 X107.318 Y114.451 E70.4123
G1 X107.615 Y116.218 E70.53773
G1 X107.483 Y116.63 E70.56801
G1 X107.318 Y116.795 E70.58435
G1 X107.318 Y119.725 E70.78945
G1 X107.718 Y120.125 E70.82904
G1 X107.718 Y120.184 E70.83317
G1 X107.769 Y120.58 E70.86112
G1 X107.318 Y121.359 E70.92413
G1 X107.318 Y127.552 E71.35764
G1 X105.473 Y124.787 E71.59033
G1 X105.466 Y124.678 E71.59797
G1 X105.894 Y123.821 E71.66503
G1 X106.176 Y123.333 E71.70448
G1 X107.318 Y121.359 E71.86412
G0 F4800 X107.318 Y119.725
G1 F1800 X106.4 Y118.809 E71.9549
G1 X106.4 Y117.713 E72.03162
G1 X107.318 Y116.795 E72.12249
G0 F4800 X107.318 Y114.451
G1 F1800 X107.318 Y97.203 E73.32985
G1 X109.651 Y97.203 E73.49316
G1 X109.651 Y131.048 E75.86231
G1 X111.688 Y134.102 E76.11928
G1 X111.903 Y134.102 E76.13433
G1 X111.984 Y133.979 E76.14464
G1 X111.984 Y97.203 E78.71896
G1 X114.317 Y97.203 E78.88227
G1 X114.317 Y130.41 E81.20676
G1 X115.506 Y128.591 E81.35888
G1 X115.506 Y128.473 E81.36714
G1 X114.37 Y126.735 E81.51248
G1 X114.489 Y126.249 E81.54751
G1 X116.65 Y125.047 E81.72061
G1 X117.865 Y124.37 E81.81797
G1 X117.909 Y124.209 E81.82965
G1 X116.65 Y122.039 E82.00526
G1 X116.65 Y125.047 E82.21582
G0 F4800 X116.65 Y122.039
G1 F1800 X115.729 Y120.45 E82.34439
G1 X115.789 Y119.987 E82.37707
G1 X116.65 Y119.128 E82.4622
G1 X116.964 Y118.814 E82.49329
G1 X116.964 Y117.714 E82.57029
G1 X116.65 Y117.401 E82.60132
G1 X116.65 Y119.128 E82.72221
G0 F4800 X116.65 Y117.401
G1 F1800 X115.985 Y116.737 E82.788
G1 X115.852 Y116.325 E82.8183
G1 X116.65 Y111.497 E83.16085
G1 X116.65 Y97.203 E84.16143
G1 X118.784 Y97.203 E84.31081
G1 X118.783 Y97.553 E84.33531
G1 X118.983 Y97.753 E84.35511
G1 X119.037 Y97.807 E84.36045
G1 X119.037 Y99.417 E84.47315
G1 X118.983 Y99.472 E84.47855
G1 X118.983 Y97.753 E84.59888
G10
G0 F4800 X118.983 Y91.905
G0 X118.983 Y90.689
G0 X120.275 Y90.009
;TYPE:WALL-INNER
G11
G1 F2100 X102.725 Y90.009 E85.82738
G1 X102.725 Y89.969 E85.83018
G1 X120.275 Y89.969 E85.97058
G1 X120.275 Y90.009 E85.97338
G0 F4800 X120.625 Y90.359
G1 F2100 X102.375 Y90.359 E87.25088
G1 X102.375 Y89.619 E87.30268
G1 X120.625 Y89.619 E88.58018
G1 X120.625 Y90.359 E88.63198
G0 F4800 X120.975 Y90.709
G1 F2100 X102.025 Y90.709 E89.95848
G1 X102.025 Y89.269 E90.05928
G1 X120.975 Y89.269 E91.38578
G1 X120.975 Y90.709 E91.48658
G0 F4800 X121.3 Y91.034
;TYPE:WALL-OUTER
G1 F1800 X101.7 Y91.034 E92.85858
G1 X101.7 Y88.944 E93.00488
G1 X121.3 Y88.944 E94.37688
G1 X121.3 Y91.034 E94.52318
G0 F4800 X121.1 Y91.034
G0 X120.625 Y90.462
G10
G0 X104.985 Y90.689
G0 X104.985 Y91.905
G0 X104.985 Y95.328
;TIME_ELAPSED:43.632095
;LAYER:2
G0 F6000 X104.985 Y95.328 Z0.7
;TYPE:SUPPORT
G11
G1 F1800 X107.318 Y95.334 E94.68649
G1 X107.318 Y93.469 E94.81704
G1 X109.651 Y93.469 E94.98035
G1 X109.651 Y95.34 E95.11132
G1 X111.984 Y95.347 E95.27463
G1 X111.984 Y93.469 E95.40609
G1 X114.317 Y93.469 E95.5694
G1 X114.317 Y95.353 E95.70128
G1 X116.65 Y95.36 E95.86459
G1 X118.786 Y95.366 E96.01411
G1 X118.789 Y93.469 E96.1469
G1 X116.65 Y93.469 E96.29663
G1 X116.65 Y95.36 E96.429
G10
G0 F6000 X116.65 Y95.037
G0 X104.985 Y95.007
G0 X104.985 Y95.328
G11
G1 F1800 X104.21 Y95.326 E96.48325
G1 X104.21 Y93.469 E96.61324
G1 X104.985 Y93.469 E96.66749
G1 X104.985 Y95.328 E96.79762
G10
G0 F6000 X104.985 Y95.007
G0 X104.985 Y95.043
G0 X104.985 Y95.087
G0 X104.985 Y97.644
G0 X104.985 Y97.688
G0 X104.985 Y100.576
G11
G1 F1800 X104.962 Y100.44 E96.80728
G1 X103.964 Y99.441 E96.90612
G1 X103.964 Y97.8 E97.02099
G1 X104.21 Y97.552 E97.04544
G1 X104.21 Y97.403 E97.05587
G1 X104.985 Y97.403 E97.11012
G1 X104.985 Y100.576 E97.33223
G1 X107.318 Y114.451 E98.31712
G1 X107.615 Y116.218 E98.44254
G1 X107.483 Y116.63 E98.47283
G1 X107.318 Y116.795 E98.48916
G1 X107.318 Y119.725 E98.69426
G1 X107.718 Y120.125 E98.73386
G1 X107.718 Y120.184 E98.73799
G1 X107.769 Y120.58 E98.76594
G1 X107.318 Y121.359 E98.82895
G1 X107.318 Y127.552 E99.26246
G1 X105.473 Y124.787 E99.49514
G1 X105.466 Y124.678 E99.50279
G1 X105.894 Y123.821 E99.56984
G1 X106.176 Y123.333 E99.60929
G1 X107.318 Y121.359 E99.76893
G0 F6000 X107.318 Y119.725
G1 F1800 X106.4 Y118.809 E99.85971
G1 X106.4 Y117.713 E99.93643
G1 X107.318 Y116.795 E100.02731
G0 F6000 X107.318 Y114.451
G1 F1800 X107.318 Y97.403 E101.22067
G1 X109.651 Y97.403 E101.38398
G1 X109.651 Y131.048 E103.73913
G1 X111.688 Y134.102 E103.9961
G1 X111.903 Y134.102 E104.01115
G1 X111.984 Y133.979 E104.02146
G1 X111.984 Y97.403 E106.58178
G1 X114.317 Y97.403 E106.74509
G1 X114.317 Y130.41 E109.05558
G1 X115.506 Y128.591 E109.2077
G1 X115.506 Y128.473 E109.21596
G1 X114.37 Y126.735 E109.3613
G1 X114.489 Y126.249 E109.39632
G1 X116.65 Y125.047 E109.56942
G1 X117.865 Y124.37 E109.66678
G1 X117.909 Y124.209 E109.67847
G1 X116.65 Y122.039 E109.85408
G1 X116.65 Y125.047 E110.06464
G0 F6000 X116.65 Y122.039
G1 F1800 X115.729 Y120.45 E110.1932
G1 X115.789 Y119.987 E110.22588
G1 X116.65 Y119.128 E110.31102
G1 X116.964 Y118.814 E110.3421
G1 X116.964 Y117.714 E110.4191
G1 X116.65 Y117.401 E110.45014
G1 X116.65 Y119.128 E110.57103
G0 F6000 X116.65 Y117.401
G1 F1800 X115.985 Y116.737 E110.63681
G1 X115.852 Y116.325 E110.66712
G1 X116.65 Y111.497 E111.00966
G1 X116.65 Y97.403 E111.99624
G1 X118.783 Y97.403 E112.14555
G1 X118.783 Y97.553 E112.15605
G1 X118.983 Y97.753 E112.17585
G1 X119.037 Y97.807 E112.1812
G1 X119.037 Y99.417 E112.2939
G1 X118.983 Y99.472 E112.29929
G1 X118.983 Y97.753 E112.41962
G10
G0 F6000 X121.2 Y97.72
G0 X121.708 Y97.212
G0 X122.079 Y92.499
G0 X122.171 Y90.709
G0 X120.947 Y90.681
G0 X120.275 Y90.009
;TYPE:WALL-INNER
G11
G1 F2400 X102.725 Y90.009 E113.64812
G1 X102.725 Y89.969 E113.65092
G1 X120.275 Y89.969 E113.79132
G1 X120.275 Y90.009 E113.79412
G0 F6000 X120.625 Y90.359
G1 F2400 X102.375 Y90.359 E115.07162
G1 X102.375 Y89.619 E115.12342
G1 X120.625 Y89.619 E116.40092
G1 X120.625 Y90.359 E116.45272
G0 F6000 X120.975 Y90.709
G1 F2400 X102.025 Y90.709 E117.77922
G1 X102.025 Y89.269 E117.88002
G1 X120.975 Y89.269 E119.20652
G1 X120.975 Y90.709 E119.30732
G0 F6000 X121.3 Y91.034
;TYPE:WALL-OUTER
G1 F1800 X101.7 Y91.034 E120.67932
G1 X101.7 Y88.944 E120.82562
G1 X121.3 Y88.944 E122.19762
G1 X121.3 Y91.034 E122.34392
G0 F6000 X121.1 Y91.034
G0 X120.625 Y90.462
G10
G0 X120.416 Y90.689
G0 X120.416 Y91.795
G0 X120.416 Y92.179
G0 X120.516 Y92.179
;TYPE:WALL-INNER
G11
G1 F2400 X120.516 Y92.192 E122.34483
G1 X120.516 Y94.104 E122.47867
G1 X120.516 Y95.741 E122.59326
G1 X120.516 Y96.528 E122.64835
G1 X120.048 Y96.528 E122.68111
G1 X120.004 Y96.528 E122.68419
G1 X102.804 Y96.528 E123.88819
G1 X102.526 Y96.528 E123.90765
G1 X102.526 Y96.198 E123.93075
G1 X102.526 Y93.985 E124.08566
G1 X102.526 Y92.094 E124.21803
G1 X102.526 Y91.775 E124.24036
G1 X102.835 Y91.775 E124.26199
G1 X120.165 Y91.775 E125.47509
G1 X120.516 Y91.775 E125.49966
G1 X120.516 Y92.179 E125.52794
G0 F6000 X120.416 Y92.179
G0 X120.204 Y95.747
G0 X120.027 Y96.275
G0 X102.733 Y96.268
G0 X102.804 Y96.198
G1 F2400 X120.004 Y96.243 E126.58575
G1 X120.017 Y96.202 E126.58853
G1 X120.165 Y95.741 E126.62242
G1 X120.168 Y94.104 E126.73668
G1 X120.191 Y92.192 E126.86537
G1 X120.178 Y92.191 E126.86626
G1 X120.165 Y92.19 E126.86717
G1 X120.165 Y92.094 E126.87389
G1 X102.835 Y92.094 E127.97955
G1 X102.835 Y93.985 E128.09641
G1 X102.804 Y96.198 E128.22633
G0 F6000 X103.134 Y95.874
;TYPE:WALL-OUTER
G1 F1800 X103.31 Y95.874 E128.23865
G1 X119.711 Y95.917 E129.38672
G1 X119.767 Y95.917 E129.39064
G1 X119.84 Y95.69 E129.40733
G1 X119.84 Y95.634 E129.41125
G1 X119.843 Y94.1 E129.51863
G1 X119.861 Y92.628 E129.62168
G1 X119.862 Y92.488 E129.63148
G1 X119.84 Y92.486 E129.63303
G1 X119.84 Y92.419 E129.63772
G1 X119.7 Y92.419 E129.64752
G1 X103.16 Y92.419 E130.80532
G1 X103.16 Y93.989 E130.91522
G1 X103.136 Y95.698 E131.03486
G1 X103.134 Y95.874 E131.0428
G0 F6000 X103.31 Y95.874
G0 X103.334 Y95.874
G0 X103.333 Y96.299
G0 X120.446 Y96.458
G0 X120.841 Y96.853
G1 F1800 X102.201 Y96.853 E132.3476
G1 X102.201 Y91.45 E132.72581
G1 X120.841 Y91.45 E134.03061
G1 X120.841 Y96.853 E134.40882
G0 F6000 X120.641 Y96.853
G0 X120.271 Y96.265
G1 F1200 X120.301 Y96.047 E134.41437
G0 F6000 X120.166 Y96.061
G10
G0 X120.166 Y96.062
G0 X120.041 Y96.253
G0 X104.981 Y96.223
G0 X104.984 Y95.007
G0 X104.985 Y94.827
;TIME_ELAPSED:65.549102
;LAYER:3
G0 X104.985 Y94.827 Z0.9
;TYPE:SUPPORT
G11
G1 F1800 X107.318 Y94.833 E134.57768
G1 X107.318 Y93.469 E134.67316
G1 X109.651 Y93.469 E134.83647
G1 X109.651 Y94.839 E134.93237
G1 X111.984 Y94.845 E135.09568
G1 X111.984 Y93.469 E135.192
G1 X114.317 Y93.469 E135.35531
G1 X114.317 Y94.85 E135.45198
G1 X116.65 Y94.856 E135.61529
G1 X118.787 Y94.862 E135.76488
G1 X118.789 Y93.469 E135.86239
G1 X116.65 Y93.469 E136.01212
G1 X116.65 Y94.856 E136.10921
G0 F6000 X104.985 Y94.827
G1 F1800 X104.21 Y94.826 E136.16346
G1 X104.21 Y93.469 E136.25845
G1 X104.985 Y93.469 E136.3127
G1 X104.985 Y94.827 E136.40776
G10
G0 F6000 X104.985 Y95.043
G0 X104.985 Y95.087
G0 X104.985 Y97.644
G0 X104.985 Y97.688
G0 X104.985 Y100.576
G11
G1 F1800 X104.962 Y100.44 E136.41742
G1 X103.964 Y99.441 E136.51626
G1 X103.964 Y97.903 E136.62392
G1 X104.985 Y97.903 E136.69539
G1 X104.985 Y100.576 E136.8825
G1 X107.318 Y114.451 E137.86739
G1 X107.615 Y116.218 E137.99281
G1 X107.483 Y116.63 E138.0231
G1 X107.318 Y116.795 E138.03943
G1 X107.318 Y119.725 E138.24453
G1 X107.718 Y120.125 E138.28413
G1 X107.718 Y120.184 E138.28826
G1 X107.769 Y120.58 E138.31621
G1 X107.318 Y121.359 E138.37922
G1 X107.318 Y127.552 E138.81273
G1 X105.473 Y124.787 E139.04541
G1 X105.466 Y124.678 E139.05306
G1 X105.894 Y123.821 E139.12011
G1 X106.176 Y123.333 E139.15956
G1 X107.318 Y121.359 E139.3192
G0 F6000 X107.318 Y119.725
G1 F1800 X106.4 Y118.809 E139.40998
G1 X106.4 Y117.713 E139.4867
G1 X107.318 Y116.795 E139.57758
G0 F6000 X107.318 Y114.451
G1 F1800 X107.318 Y97.903 E140.73594
G1 X109.651 Y97.903 E140.89925
G1 X109.651 Y131.048 E143.2194
G1 X111.688 Y134.102 E143.47637
G1 X111.903 Y134.102 E143.49142
G1 X111.984 Y133.979 E143.50173
G1 X111.984 Y97.903 E146.02705
G1 X114.317 Y97.903 E146.19036
G1 X114.317 Y130.41 E148.46585
G1 X115.506 Y128.591 E148.61797
G1 X115.506 Y128.473 E148.62623
G1 X114.37 Y126.735 E148.77157
G1 X114.489 Y126.249 E148.80659
G1 X116.65 Y125.047 E148.97969
G1 X117.865 Y124.37 E149.07705
G1 X117.909 Y124.209 E149.08874
G1 X116.65 Y122.039 E149.26435
G1 X116.65 Y125.047 E149.47491
G0 F6000 X116.65 Y122.039
G1 F1800 X115.729 Y120.45 E149.60347
G1 X115.789 Y119.987 E149.63615
G1 X116.65 Y119.128 E149.72129
G1 X116.964 Y118.814 E149.75237
G1 X116.964 Y117.714 E149.82937
G1 X116.65 Y117.401 E149.86041
G1 X116.65 Y119.128 E149.9813
G0 F6000 X116.65 Y117.401
G1 F1800 X115.985 Y116.737 E150.04708
G1 X115.852 Y116.325 E150.07739
G1 X116.65 Y111.497 E150.41993
G1 X116.65 Y97.903 E151.37151
G1 X118.983 Y97.903 E151.53482
G1 X119.037 Y97.903 E151.5386
G1 X119.037 Y99.417 E151.64458
G1 X118.983 Y99.472 E151.64998
G1 X118.983 Y97.903 E151.75981
G10
G0 F6000 X121.2 Y97.72
G0 X121.708 Y97.212
G0 X122.079 Y92.499
G0 X122.171 Y90.709
G0 X120.947 Y90.681
G0 X120.275 Y90.009
;TYPE:WALL-INNER
G11
G1 F2400 X102.725 Y90.009 E152.98831
G1 X102.725 Y89.969 E152.99111
