;FLAVOR:UltiGCode
;TIME:3329
;MATERIAL:6513
;MATERIAL2:0
;NOZZLE_DIAMETER:0.4
;Generated with Cura_SteamEngine 3.4.0
M82 ;absolute extrusion mode

G92 E0
G10
;LAYER_COUNT:100
;LAYER:0
M107
G0 F3600 X102.156 Y83.574 Z0.3
;TYPE:SUPPORT
G11
G1 F1800 X121.049 Y83.574 E1.98377
G1 X121.094 Y89.644 E2.62113
G1 X120.976 Y89.762 E2.63865
G1 X119.272 Y89.762 E2.81757
G1 X118.922 Y90.112 E2.86955
G1 X118.922 Y92.653 E3.13635
G1 X118.345 Y93.231 E3.22211
G1 X117.604 Y100.814 E4.02211
G1 X117.506 Y101.15 E4.05886
G1 X117.355 Y103.298 E4.28496
G1 X117.157 Y104.652 E4.42864
G1 X117.043 Y106.331 E4.60534
G1 X116.948 Y106.621 E4.63739
G1 X116.764 Y109.084 E4.89672
G1 X116.741 Y109.228 E4.91203
G1 X116.642 Y109.56 E4.94841
G1 X116.445 Y112.197 E5.22607
G1 X116.349 Y112.552 E5.26468
G1 X116.196 Y114.621 E5.48252
G1 X116.099 Y114.961 E5.51964
G1 X115.829 Y118.31 E5.87243
G1 X115.977 Y118.708 E5.91701
G1 X116.751 Y119.48 E6.0318
G1 X116.751 Y120.906 E6.18153
G1 X115.803 Y121.854 E6.3223
G1 X115.676 Y122.271 E6.36807
G1 X118.236 Y135.171 E7.74898
G1 X118.117 Y135.316 E7.76868
G1 X116.477 Y135.316 E7.94088
G1 X116.098 Y135.567 E7.98861
G1 X115.187 Y137.725 E8.23456
G1 X115.272 Y138.171 E8.28224
G1 X115.59 Y138.497 E8.33006
G1 X115.59 Y139.935 E8.48105
G1 X115.472 Y140.053 E8.49857
G1 X112.853 Y140.053 E8.77356
G1 X112.503 Y140.399 E8.82524
G1 X112.46 Y143.073 E9.10605
G1 X112.345 Y143.186 E9.12297
G1 X110.91 Y143.186 E9.27365
G1 X110.792 Y143.068 E9.29117
G1 X110.792 Y140.451 E9.56596
G1 X110.447 Y140.1 E9.61763
G1 X107.726 Y140.055 E9.90338
G1 X107.61 Y139.938 E9.92068
G1 X107.61 Y138.505 E10.07114
G1 X107.92 Y138.194 E10.11725
G1 X108.009 Y137.748 E10.165
G1 X107.105 Y135.569 E10.41271
G1 X106.727 Y135.316 E10.46047
G1 X105.084 Y135.316 E10.63298
G1 X104.964 Y135.17 E10.65282
G1 X107.543 Y122.293 E12.03176
G1 X107.416 Y121.875 E12.07763
G1 X106.447 Y120.906 E12.22152
G1 X106.447 Y119.476 E12.37167
G1 X107.329 Y118.595 E12.50257
G1 X107.471 Y118.193 E12.54733
G1 X104.841 Y93.187 E15.18744
G1 X104.328 Y92.674 E15.26362
G1 X104.328 Y90.112 E15.53263
G1 X103.978 Y89.762 E15.5846
G1 X102.276 Y89.762 E15.76331
G1 X102.157 Y89.645 E15.78084
G1 X102.156 Y83.574 E16.41829
G0 F3600 X102.296 Y83.988
G1 F1800 X120.913 Y83.988 E18.37308
G0 F3600 X118.983 Y83.714
G1 F1800 X118.983 Y89.854 E19.01778
G0 F3600 X118.782 Y90.987
G1 F1800 X104.468 Y90.987 E20.52075
G0 F3600 X102.652 Y89.622
G1 F1800 X102.652 Y83.714 E21.14109
G0 F3600 X104.985 Y83.714
G1 F1800 X104.985 Y93.218 E22.13901
G0 F3600 X104.995 Y93.32
G1 F1800 X118.196 Y93.32 E23.52511
G0 F3600 X117.968 Y95.653
G1 F1800 X105.241 Y95.653 E24.86145
G0 F3600 X105.486 Y97.986
G1 F1800 X117.74 Y97.986 E26.14812
G0 F3600 X117.512 Y100.319
G1 F1800 X105.731 Y100.319 E27.38512
G0 F3600 X105.977 Y102.652
G1 F1800 X117.259 Y102.652 E28.56973
G0 F3600 X116.994 Y104.985
G1 F1800 X106.222 Y104.985 E29.70079
G0 F3600 X106.467 Y107.318
G1 F1800 X116.755 Y107.318 E30.78103
G0 F3600 X116.65 Y108.724
G1 F1800 X116.65 Y83.714 E33.40708
G0 F3600 X114.317 Y83.714
G1 F1800 X114.317 Y139.913 E39.30798
G0 F3600 X112.727 Y139.98
G1 F1800 X110.524 Y139.98 E39.53929
G0 F3600 X109.651 Y139.946
G1 F1800 X109.651 Y83.714 E45.44365
G0 F3600 X107.318 Y83.714
G1 F1800 X107.318 Y115.404 E48.7711
G0 F3600 X107.203 Y114.317
G1 F1800 X116.078 Y114.317 E49.70298
G0 F3600 X116.32 Y111.984
G1 F1800 X106.958 Y111.984 E50.68599
G0 F3600 X106.712 Y109.651
G1 F1800 X116.494 Y109.651 E51.7131
G0 F3600 X115.822 Y116.65
G1 F1800 X107.448 Y116.65 E52.59237
G0 F3600 X107.318 Y118.803
G1 F1800 X107.318 Y121.578 E52.88374
G0 F3600 X107.054 Y121.316
G1 F1800 X116.141 Y121.316 E53.83788
G0 F3600 X116.054 Y118.983
G1 F1800 X107.138 Y118.983 E54.77406
G0 F3600 X107.413 Y123.649
G1 F1800 X115.807 Y123.649 E55.65543
G0 F3600 X116.269 Y125.982
G1 F1800 X106.946 Y125.982 E56.63434
G0 F3600 X107.318 Y124.127
G1 F1800 X107.318 Y135.716 E57.85119
G0 F3600 X106.975 Y135.314
G1 F1800 X116.224 Y135.314 E58.82233
G0 F3600 X116.65 Y135.176
G1 F1800 X116.65 Y127.898 E59.58652
G0 F3600 X116.732 Y128.315
G1 F1800 X106.479 Y128.315 E60.66309
G0 F3600 X106.012 Y130.648
G1 F1800 X117.195 Y130.648 E61.8373
G0 F3600 X117.658 Y132.981
G1 F1800 X105.544 Y132.981 E63.10927
G0 F3600 X108.118 Y137.647
G1 F1800 X115.066 Y137.647 E63.83881
G0 F3600 X112.331 Y142.313
G1 F1800 X110.931 Y142.313 E63.98581
G0 F3600 X111.984 Y143.046
G1 F1800 X111.984 Y83.714 E70.21567
G0 F3600 X120.93 Y86.321
G1 F1800 X102.296 Y86.321 E72.17224
G0 F3600 X102.296 Y88.654
G1 F1800 X120.947 Y88.654 E74.1306
G10
G0 F3600 X120.947 Y83.395
G0 X120.947 Y82.179
G0 X120.905 Y82.129
G0 X121.3 Y82.524
;TYPE:WALL-OUTER
G11
G1 F1800 X101.7 Y82.524 E76.1886
G1 X101.7 Y80.014 E76.45215
G1 X121.3 Y80.014 E78.51015
G1 X121.3 Y82.524 E78.7737
G0 F3600 X121.1 Y82.524
G0 X120.975 Y82.199
;TYPE:WALL-INNER
G1 F1800 X102.025 Y82.199 E80.76345
G1 X102.025 Y80.339 E80.95875
G1 X120.975 Y80.339 E82.9485
G1 X120.975 Y82.199 E83.1438
G0 F3600 X120.625 Y81.849
G1 F1800 X102.375 Y81.849 E85.06005
G1 X102.375 Y80.689 E85.18185
G1 X120.625 Y80.689 E87.0981
G1 X120.625 Y81.849 E87.2199
G0 F3600 X120.275 Y81.499
G1 F1800 X102.725 Y81.499 E89.06265
G1 X102.725 Y81.039 E89.11095
G1 X120.275 Y81.039 E90.9537
G1 X120.275 Y81.499 E91.002
G0 F3600 X120.084 Y81.228
G1 F1800 X119.876 Y81.268 E91.00746
G1 X119.629 Y81.268 E91.01598
G1 X119.381 Y81.268 E91.02454
G1 X119.134 Y81.268 E91.03306
G1 X118.887 Y81.268 E91.04158
G1 X118.639 Y81.268 E91.05014
G1 X118.392 Y81.268 E91.05866
G1 X118.144 Y81.268 E91.06721
G1 X117.897 Y81.268 E91.07574
G1 X117.649 Y81.268 E91.08429
G1 X117.402 Y81.268 E91.09281
G1 X117.154 Y81.268 E91.10137
G1 X116.907 Y81.268 E91.10989
G1 X116.659 Y81.268 E91.11845
G1 X116.412 Y81.268 E91.12697
G1 X116.164 Y81.268 E91.13552
G1 X115.917 Y81.268 E91.14405
G1 X115.669 Y81.268 E91.1526
G1 X115.422 Y81.268 E91.16112
G1 X115.174 Y81.268 E91.16968
G1 X114.927 Y81.268 E91.1782
G1 X114.679 Y81.268 E91.18676
G1 X114.432 Y81.268 E91.19528
G1 X114.184 Y81.268 E91.20383
G1 X113.937 Y81.268 E91.21236
G1 X113.689 Y81.268 E91.22091
G1 X113.442 Y81.268 E91.22943
G1 X113.194 Y81.268 E91.23799
G1 X112.947 Y81.268 E91.24651
G1 X112.699 Y81.268 E91.25507
G1 X112.452 Y81.268 E91.26359
G1 X112.204 Y81.268 E91.27214
G1 X111.957 Y81.268 E91.28067
G1 X111.709 Y81.268 E91.28922
G1 X111.462 Y81.268 E91.29774
G1 X111.214 Y81.268 E91.3063
G1 X110.967 Y81.268 E91.31482
G1 X110.719 Y81.268 E91.32338
G1 X110.472 Y81.268 E91.3319
G1 X110.224 Y81.268 E91.34045
G1 X109.977 Y81.268 E91.34898
G1 X109.729 Y81.268 E91.35753
G1 X109.482 Y81.268 E91.36605
G1 X109.234 Y81.268 E91.37461
G1 X108.987 Y81.268 E91.38313
G1 X108.74 Y81.268 E91.39165
G1 X108.492 Y81.268 E91.40021
G1 X108.245 Y81.268 E91.40873
G1 X107.997 Y81.268 E91.41729
G1 X107.75 Y81.268 E91.42581
G1 X107.502 Y81.268 E91.43436
G1 X107.255 Y81.268 E91.44289
G1 X107.007 Y81.268 E91.45144
G1 X106.76 Y81.268 E91.45996
G1 X106.512 Y81.268 E91.46852
G1 X106.265 Y81.268 E91.47704
G1 X106.017 Y81.268 E91.4856
G1 X105.77 Y81.268 E91.49412
G1 X105.522 Y81.268 E91.50267
G1 X105.275 Y81.268 E91.5112
G1 X105.027 Y81.268 E91.51975
G1 X104.78 Y81.268 E91.52827
G1 X104.532 Y81.268 E91.53683
G1 X104.285 Y81.268 E91.54535
G1 X104.037 Y81.268 E91.55391
G1 X103.79 Y81.268 E91.56243
G1 X103.542 Y81.268 E91.57098
G1 X103.295 Y81.268 E91.57951
G1 X103.047 Y81.268 E91.58806
G0 F3600 X102.99 Y81.211
G10
G0 X104.985 Y82.179
G0 X104.985 Y83.395
G0 X104.985 Y87.897
;TIME_ELAPSED:36.450830
;LAYER:1
M106 S255
G0 F4800 X104.985 Y87.897 Z0.5
;TYPE:SUPPORT
G11
G1 F1800 X107.318 Y87.904 E91.75137
G1 X107.318 Y85.32 E91.93225
G1 X109.651 Y85.327 E92.09556
G1 X109.651 Y87.912 E92.27651
G1 X111.984 Y87.92 E92.43982
G1 X111.984 Y85.335 E92.62077
G1 X114.317 Y85.342 E92.78408
G1 X114.317 Y87.928 E92.9651
G1 X116.65 Y87.936 E93.12842
G1 X118.529 Y87.943 E93.25995
G1 X118.566 Y85.355 E93.44112
G1 X116.65 Y85.349 E93.57525
G1 X116.65 Y87.936 E93.75634
G0 F4800 X104.985 Y87.897
G1 F1800 X104.673 Y87.896 E93.77818
G1 X104.71 Y85.311 E93.95914
G1 X104.985 Y85.312 E93.97839
G1 X104.985 Y87.897 E94.15934
G0 F4800 X104.985 Y94.556
G1 F1800 X104.841 Y93.187 E94.2557
G1 X104.328 Y92.674 E94.30649
G1 X104.328 Y90.572 E94.45363
G1 X104.638 Y90.266 E94.48412
G1 X104.643 Y89.912 E94.5089
G1 X104.985 Y89.912 E94.53284
G1 X104.985 Y94.556 E94.85792
G1 X107.318 Y116.738 E96.41923
G1 X107.471 Y118.193 E96.52164
G1 X107.329 Y118.595 E96.55148
G1 X107.318 Y118.605 E96.55252
G1 X107.318 Y121.777 E96.77456
G1 X106.447 Y120.906 E96.86079
G1 X106.447 Y119.476 E96.96089
G1 X107.318 Y118.605 E97.04711
G0 F4800 X107.318 Y116.738
G1 F1800 X107.318 Y89.912 E98.92493
G1 X109.651 Y89.912 E99.08824
G1 X109.651 Y140.086 E102.60042
G1 X110.447 Y140.1 E102.65615
G1 X110.792 Y140.451 E102.6906
G1 X110.792 Y143.068 E102.87379
G1 X110.91 Y143.186 E102.88547
G1 X111.984 Y143.186 E102.96065
G1 X111.984 Y89.912 E106.68983
G1 X114.317 Y89.912 E106.85314
G1 X114.317 Y140.053 E110.36301
G1 X115.472 Y140.053 E110.44386
G1 X115.59 Y139.935 E110.45554
G1 X115.59 Y138.497 E110.5562
G1 X115.272 Y138.171 E110.58808
G1 X115.187 Y137.725 E110.61986
G1 X116.098 Y135.567 E110.78383
G1 X116.477 Y135.316 E110.81565
G1 X116.65 Y135.316 E110.82776
G1 X118.117 Y135.316 E110.93045
G1 X118.236 Y135.171 E110.94358
G1 X116.65 Y127.18 E111.51386
G1 X116.65 Y135.316 E112.08338
G0 F4800 X116.65 Y127.18
G1 F1800 X115.676 Y122.271 E112.43371
G1 X115.803 Y121.854 E112.46423
G1 X116.65 Y121.007 E112.54808
G1 X116.751 Y120.906 E112.55807
G1 X116.751 Y119.48 E112.65789
G1 X116.65 Y119.38 E112.66784
G1 X116.65 Y121.007 E112.78173
G0 F4800 X116.65 Y119.38
G1 F1800 X115.977 Y118.708 E112.84831
G1 X115.829 Y118.31 E112.87803
G1 X115.985 Y116.378 E113.01371
G1 X116.098 Y114.965 E113.11294
G1 X116.196 Y114.619 E113.13811
G1 X116.347 Y112.571 E113.28186
G1 X116.347 Y112.559 E113.2827
G1 X116.446 Y112.191 E113.30938
G1 X116.641 Y109.563 E113.49384
G1 X116.65 Y109.533 E113.49603
G1 X116.741 Y109.229 E113.51825
G1 X116.763 Y109.089 E113.52817
G1 X116.948 Y106.616 E113.70176
G1 X117.043 Y106.327 E113.72306
G1 X117.157 Y104.652 E113.84058
G1 X117.355 Y103.298 E113.93636
G1 X117.355 Y103.281 E113.93755
G1 X117.506 Y101.15 E114.0871
G1 X117.604 Y100.814 E114.1116
G1 X118.345 Y93.231 E114.64494
G1 X118.922 Y92.653 E114.70211
G1 X118.922 Y90.612 E114.84498
G1 X118.844 Y90.612 E114.85044
G1 X118.495 Y90.259 E114.88518
G1 X118.501 Y89.934 E114.90794
G1 X118.501 Y89.912 E114.90948
G1 X116.65 Y89.912 E115.03905
G1 X116.65 Y109.533 E116.41252
G0 F4800 X107.318 Y121.777
G1 F1800 X107.416 Y121.875 E116.42222
G1 X107.543 Y122.293 E116.4528
G1 X107.318 Y123.416 E116.53297
G1 X107.318 Y136.082 E117.41959
G1 X107.105 Y135.569 E117.45848
G1 X106.727 Y135.316 E117.49031
G1 X105.084 Y135.316 E117.60532
G1 X104.985 Y135.195 E117.61627
G1 X104.985 Y135.065 E117.62537
G1 X104.964 Y135.17 E117.63286
G1 X104.985 Y135.195 E117.63515
G10
G0 F4800 X104.985 Y83.395
G0 X104.985 Y82.179
G0 X120.275 Y81.499
;TYPE:WALL-INNER
G11
G1 F2100 X102.725 Y81.499 E118.86365
G1 X102.725 Y81.039 E118.89585
G1 X120.275 Y81.039 E120.12435
G1 X120.275 Y81.499 E120.15655
G0 F4800 X120.625 Y81.849
G1 F2100 X102.375 Y81.849 E121.43405
G1 X102.375 Y80.689 E121.51525
G1 X120.625 Y80.689 E122.79275
G1 X120.625 Y81.849 E122.87395
G0 F4800 X120.975 Y82.199
G1 F2100 X102.025 Y82.199 E124.20045
G1 X102.025 Y80.339 E124.33065
G1 X120.975 Y80.339 E125.65715
G1 X120.975 Y82.199 E125.78735
G0 F4800 X121.3 Y82.524
;TYPE:WALL-OUTER
G1 F1800 X101.7 Y82.524 E127.15935
G1 X101.7 Y80.014 E127.33505
G1 X121.3 Y80.014 E128.70705
G1 X121.3 Y82.524 E128.88275
G0 F4800 X121.1 Y82.524
G0 X120.905 Y82.129
G0 X119.88 Y81.326
G0 X119.937 Y81.268
G1 F1500 X119.69 Y81.268 E128.88843
G1 X119.442 Y81.268 E128.89413
G1 X119.195 Y81.268 E128.89982
G1 X118.947 Y81.268 E128.90552
G1 X118.7 Y81.268 E128.9112
G1 X118.452 Y81.268 E128.9169
G1 X118.205 Y81.268 E128.92259
G1 X117.957 Y81.268 E128.92829
G1 X117.71 Y81.268 E128.93397
G1 X117.462 Y81.268 E128.93967
G1 X117.215 Y81.268 E128.94536
G1 X116.967 Y81.268 E128.95106
G1 X116.72 Y81.268 E128.95674
G1 X116.472 Y81.268 E128.96244
G1 X116.225 Y81.268 E128.96813
G1 X115.977 Y81.268 E128.97383
G1 X115.73 Y81.268 E128.97951
G1 X115.482 Y81.268 E128.98521
G1 X115.235 Y81.268 E128.9909
G1 X114.988 Y81.268 E128.99658
G1 X114.74 Y81.268 E129.00228
G1 X114.493 Y81.268 E129.00796
G1 X114.245 Y81.268 E129.01367
G1 X113.998 Y81.268 E129.01935
G1 X113.75 Y81.268 E129.02505
G1 X113.503 Y81.268 E129.03073
G1 X113.255 Y81.268 E129.03644
G1 X113.008 Y81.268 E129.04212
G1 X112.76 Y81.268 E129.04782
G1 X112.513 Y81.268 E129.0535
G1 X112.265 Y81.268 E129.05921
G1 X112.018 Y81.268 E129.06489
G1 X111.77 Y81.268 E129.07059
G1 X111.523 Y81.268 E129.07627
G1 X111.275 Y81.268 E129.08198
G1 X111.028 Y81.268 E129.08766
G1 X110.78 Y81.268 E129.09336
G1 X110.533 Y81.268 E129.09904
G1 X110.285 Y81.268 E129.10475
G1 X110.038 Y81.268 E129.11043
G1 X109.79 Y81.268 E129.11613
G1 X109.543 Y81.268 E129.12181
G1 X109.295 Y81.268 E129.12752
G1 X109.048 Y81.268 E129.1332
G1 X108.8 Y81.268 E129.1389
G1 X108.553 Y81.268 E129.14458
G1 X108.305 Y81.268 E129.15029
G1 X108.058 Y81.268 E129.15597
G1 X107.81 Y81.268 E129.16167
G1 X107.563 Y81.268 E129.16735
G1 X107.315 Y81.268 E129.17306
G1 X107.068 Y81.268 E129.17874
G1 X106.82 Y81.268 E129.18444
G1 X106.573 Y81.268 E129.19012
G1 X106.325 Y81.268 E129.19583
G1 X106.078 Y81.268 E129.20151
G1 X105.83 Y81.268 E129.20721
G1 X105.583 Y81.268 E129.21289
G1 X105.336 Y81.268 E129.21857
G1 X105.088 Y81.268 E129.22428
G1 X104.841 Y81.268 E129.22996
G1 X104.593 Y81.268 E129.23566
G1 X104.346 Y81.268 E129.24134
G1 X104.098 Y81.268 E129.24705
G1 X103.851 Y81.268 E129.25273
G1 X103.603 Y81.268 E129.25843
G1 X103.356 Y81.268 E129.26411
G1 X103.108 Y81.268 E129.26982
G0 F4800 X103.051 Y81.326
G10
G0 X104.985 Y82.179
G0 X104.985 Y83.395
G0 X104.985 Y87.698
;TIME_ELAPSED:57.055047
;LAYER:2
G0 F6000 X104.985 Y87.698 Z0.7
;TYPE:SUPPORT
G11
G1 F1800 X107.318 Y87.705 E129.43313
G1 X107.318 Y85.32 E129.60008
G1 X109.651 Y85.327 E129.76339
G1 X109.651 Y87.713 E129.93041
G1 X111.984 Y87.72 E130.09372
G1 X111.984 Y85.335 E130.26067
G1 X114.317 Y85.342 E130.42398
G1 X114.317 Y87.728 E130.591
G1 X116.65 Y87.735 E130.75431
G1 X118.532 Y87.742 E130.88605
G1 X118.566 Y85.355 E131.05316
G1 X116.65 Y85.349 E131.18728
G1 X116.65 Y87.735 E131.3543
G10
G0 F6000 X116.651 Y87.415
G0 X104.985 Y87.375
G0 X104.985 Y87.698
G11
G1 F1800 X104.676 Y87.697 E131.37593
G1 X104.71 Y85.311 E131.54297
G1 X104.985 Y85.312 E131.56222
G1 X104.985 Y87.698 E131.72924
G10
G0 F6000 X104.985 Y87.375
G0 X104.985 Y87.411
G0 X104.985 Y87.455
G0 X104.985 Y90.353
G0 X104.985 Y90.397
G0 X104.985 Y94.556
G11
G1 F1800 X104.841 Y93.187 E131.82559
G1 X104.328 Y92.674 E131.87638
G1 X104.328 Y90.572 E132.02352
G1 X104.638 Y90.266 E132.05401
G1 X104.64 Y90.112 E132.06479
G1 X104.985 Y90.112 E132.08894
G1 X104.985 Y94.556 E132.40002
G1 X107.318 Y116.738 E133.96133
G1 X107.471 Y118.193 E134.06374
G1 X107.329 Y118.595 E134.09358
G1 X107.318 Y118.605 E134.09462
G1 X107.318 Y121.777 E134.31666
G1 X106.447 Y120.906 E134.40289
G1 X106.447 Y119.476 E134.50299
G1 X107.318 Y118.605 E134.58921
G0 F6000 X107.318 Y116.738
G1 F1800 X107.318 Y90.112 E136.45303
G1 X109.651 Y90.112 E136.61634
G1 X109.651 Y140.086 E140.11452
G1 X110.447 Y140.1 E140.17025
G1 X110.792 Y140.451 E140.2047
G1 X110.792 Y143.068 E140.38789
G1 X110.91 Y143.186 E140.39957
G1 X111.984 Y143.186 E140.47475
G1 X111.984 Y90.112 E144.18993
G1 X114.317 Y90.112 E144.35324
G1 X114.317 Y140.053 E147.84911
G1 X115.472 Y140.053 E147.92996
G1 X115.59 Y139.935 E147.94164
G1 X115.59 Y138.497 E148.0423
G1 X115.272 Y138.171 E148.07418
G1 X115.187 Y137.725 E148.10596
G1 X116.098 Y135.567 E148.26993
G1 X116.477 Y135.316 E148.30175
G1 X116.65 Y135.316 E148.31386
G1 X118.117 Y135.316 E148.41655
G1 X118.236 Y135.171 E148.42968
G1 X116.65 Y127.18 E148.99997
G1 X116.65 Y135.316 E149.56949
G0 F6000 X116.65 Y127.18
G1 F1800 X115.676 Y122.271 E149.91981
G1 X115.803 Y121.854 E149.95033
G1 X116.65 Y121.007 E150.03418
G1 X116.751 Y120.906 E150.04417
