;FLAVOR:UltiGCode
;TIME:3810
;MATERIAL:6768
;MATERIAL2:0
;NOZZLE_DIAMETER:0.4
;Generated with Cura_SteamEngine 3.4.0
M82 ;absolute extrusion mode

G92 E0
G10
;LAYER_COUNT:100
;LAYER:0
M107
G0 F3600 X102.156 Y83.574 Z0.3
;TYPE:SUPPORT
G11
G1 F1800 X121.049 Y83.574 E1.98377
G1 X121.094 Y89.644 E2.62113
G1 X120.976 Y89.762 E2.63865
G1 X119.274 Y89.762 E2.81736
G1 X118.924 Y90.112 E2.86934
G1 X118.927 Y92.67 E3.13793
G1 X118.346 Y93.259 E3.2248
G1 X117.607 Y100.838 E4.02437
G1 X117.506 Y101.174 E4.06121
G1 X117.355 Y103.317 E4.28678
G1 X117.16 Y104.653 E4.42855
G1 X117.054 Y106.27 E4.59869
G1 X116.951 Y106.545 E4.62953
G1 X116.751 Y109.172 E4.90616
G1 X116.524 Y111.153 E5.11553
G1 X116.439 Y112.219 E5.22781
G1 X116.371 Y112.469 E5.25502
G1 X116.24 Y114.233 E5.44075
G1 X116.224 Y114.278 E5.44576
G1 X116.196 Y114.608 E5.48054
G1 X116.091 Y114.97 E5.52011
G1 X115.831 Y118.321 E5.87303
G1 X115.986 Y118.719 E5.91787
G1 X116.751 Y119.447 E6.02876
G1 X116.751 Y120.906 E6.18195
G1 X116.087 Y121.571 E6.28062
G1 X116.087 Y124.337 E6.57105
G1 X118.236 Y135.171 E7.73079
G1 X118.117 Y135.316 E7.75048
G1 X116.477 Y135.316 E7.92268
G1 X116.098 Y135.567 E7.97041
G1 X115.187 Y137.725 E8.21637
G1 X115.272 Y138.171 E8.26404
G1 X115.59 Y138.497 E8.31186
G1 X115.59 Y139.935 E8.46285
G1 X115.472 Y140.053 E8.48037
G1 X112.853 Y140.053 E8.75537
G1 X112.503 Y140.399 E8.80704
G1 X112.46 Y143.073 E9.08785
G1 X112.345 Y143.186 E9.10478
G1 X110.91 Y143.186 E9.25545
G1 X110.792 Y143.068 E9.27297
G1 X110.792 Y140.451 E9.54776
G1 X110.447 Y140.1 E9.59944
G1 X107.726 Y140.055 E9.88518
G1 X107.61 Y139.938 E9.90248
G1 X107.61 Y138.505 E10.05294
G1 X107.92 Y138.194 E10.09905
G1 X108.009 Y137.748 E10.14681
G1 X107.105 Y135.569 E10.39451
G1 X106.727 Y135.316 E10.44227
G1 X105.082 Y135.316 E10.61499
G1 X104.963 Y135.171 E10.63469
G1 X106.108 Y129.343 E11.25833
G1 X106.296 Y128.488 E11.35025
G1 X107.541 Y122.296 E12.01342
G1 X107.413 Y121.878 E12.05932
G1 X106.447 Y120.925 E12.2018
G1 X106.447 Y119.472 E12.35437
G1 X107.328 Y118.597 E12.48474
G1 X107.471 Y118.194 E12.52964
G1 X104.931 Y94.048 E15.07896
G1 X104.389 Y92.736 E15.22802
G1 X104.328 Y92.674 E15.23715
G1 X104.328 Y92.16 E15.29112
G1 X103.685 Y90.038 E15.52393
G1 X103.313 Y89.762 E15.57257
G1 X102.277 Y89.762 E15.68135
G1 X102.156 Y89.641 E15.69932
G1 X102.156 Y83.574 E16.33635
G0 F3600 X102.296 Y83.988
G1 F1800 X120.913 Y83.988 E18.29114
G0 F3600 X118.983 Y83.714
G1 F1800 X118.983 Y89.856 E18.93605
G0 F3600 X118.786 Y90.987
G1 F1800 X104.119 Y90.987 E20.47608
G0 F3600 X102.652 Y89.622
G1 F1800 X102.652 Y83.714 E21.09642
G0 F3600 X104.985 Y83.714
G1 F1800 X104.985 Y93.812 E22.15671
G0 F3600 X104.782 Y93.32
G1 F1800 X118.199 Y93.32 E23.5655
G0 F3600 X117.972 Y95.653
G1 F1800 X105.239 Y95.653 E24.90246
G0 F3600 X105.485 Y97.986
G1 F1800 X117.745 Y97.986 E26.18976
G0 F3600 X117.517 Y100.319
G1 F1800 X105.73 Y100.319 E27.4274
G0 F3600 X105.976 Y102.652
G1 F1800 X117.261 Y102.652 E28.61232
G0 F3600 X116.998 Y104.985
G1 F1800 X106.221 Y104.985 E29.74391
G0 F3600 X106.466 Y107.318
G1 F1800 X116.752 Y107.318 E30.82394
G0 F3600 X116.65 Y108.667
G1 F1800 X116.65 Y83.714 E33.444
G0 F3600 X114.317 Y83.714
G1 F1800 X114.317 Y139.913 E39.3449
G0 F3600 X112.727 Y139.98
G1 F1800 X110.524 Y139.98 E39.57621
G0 F3600 X109.651 Y139.946
G1 F1800 X109.651 Y83.714 E45.48057
G0 F3600 X107.318 Y83.714
G1 F1800 X107.318 Y115.406 E48.80823
G0 F3600 X107.203 Y114.317
G1 F1800 X116.081 Y114.317 E49.74042
G0 F3600 X116.318 Y111.984
G1 F1800 X106.957 Y111.984 E50.72333
G0 F3600 X106.712 Y109.651
G1 F1800 X116.556 Y109.651 E51.75695
G0 F3600 X115.82 Y116.65
G1 F1800 X107.448 Y116.65 E52.63601
G0 F3600 X107.318 Y118.803
G1 F1800 X107.318 Y121.587 E52.92833
G0 F3600 X107.041 Y121.316
G1 F1800 X116.143 Y121.316 E53.88404
G0 F3600 X116.059 Y118.983
G1 F1800 X107.137 Y118.983 E54.82085
G0 F3600 X107.411 Y123.649
G1 F1800 X115.946 Y123.649 E55.71702
G0 F3600 X116.27 Y125.982
G1 F1800 X106.942 Y125.982 E56.69646
G0 F3600 X107.318 Y124.113
G1 F1800 X107.318 Y135.716 E57.91478
G0 F3600 X106.975 Y135.314
G1 F1800 X116.224 Y135.314 E58.88592
G0 F3600 X116.65 Y135.176
G1 F1800 X116.65 Y127.897 E59.65022
G0 F3600 X116.732 Y128.315
G1 F1800 X106.473 Y128.315 E60.72741
G0 F3600 X105.994 Y130.648
G1 F1800 X117.195 Y130.648 E61.90352
G0 F3600 X117.658 Y132.981
G1 F1800 X105.536 Y132.981 E63.17633
G0 F3600 X108.118 Y137.647
G1 F1800 X115.066 Y137.647 E63.90587
G0 F3600 X112.331 Y142.313
G1 F1800 X110.931 Y142.313 E64.05287
G0 F3600 X111.984 Y143.046
G1 F1800 X111.984 Y83.714 E70.28273
G0 F3600 X120.93 Y86.321
G1 F1800 X102.296 Y86.321 E72.2393
G0 F3600 X102.296 Y88.654
G1 F1800 X120.947 Y88.654 E74.19765
G10
G0 F3600 X120.947 Y83.395
G0 X120.947 Y82.179
G0 X120.905 Y82.129
G0 X121.3 Y82.524
;TYPE:WALL-OUTER
G11
G1 F1800 X101.7 Y82.524 E76.25565
G1 X101.7 Y80.014 E76.5192
G1 X121.3 Y80.014 E78.5772
G1 X121.3 Y82.524 E78.84075
G0 F3600 X121.1 Y82.524
G0 X120.975 Y82.199
;TYPE:WALL-INNER
G1 F1800 X102.025 Y82.199 E80.8305
G1 X102.025 Y80.339 E81.0258
G1 X120.975 Y80.339 E83.01555
G1 X120.975 Y82.199 E83.21085
G0 F3600 X120.625 Y81.849
G1 F1800 X102.375 Y81.849 E85.1271
G1 X102.375 Y80.689 E85.2489
G1 X120.625 Y80.689 E87.16515
G1 X120.625 Y81.849 E87.28695
G0 F3600 X120.275 Y81.499
G1 F1800 X102.725 Y81.499 E89.1297
G1 X102.725 Y81.039 E89.178
G1 X120.275 Y81.039 E91.02075
G1 X120.275 Y81.499 E91.06905
G0 F3600 X120.084 Y81.228
G1 F1800 X119.876 Y81.268 E91.07452
G1 X119.629 Y81.268 E91.08304
G1 X119.381 Y81.268 E91.09159
G1 X119.134 Y81.268 E91.10012
G1 X118.887 Y81.268 E91.10864
G1 X118.639 Y81.268 E91.11719
G1 X118.392 Y81.268 E91.12571
G1 X118.144 Y81.268 E91.13427
G1 X117.897 Y81.268 E91.14279
G1 X117.649 Y81.268 E91.15135
G1 X117.402 Y81.268 E91.15987
G1 X117.154 Y81.268 E91.16843
G1 X116.907 Y81.268 E91.17695
G1 X116.659 Y81.268 E91.1855
G1 X116.412 Y81.268 E91.19402
G1 X116.164 Y81.268 E91.20258
G1 X115.917 Y81.268 E91.2111
G1 X115.669 Y81.268 E91.21966
G1 X115.422 Y81.268 E91.22818
G1 X115.174 Y81.268 E91.23674
G1 X114.927 Y81.268 E91.24526
G1 X114.679 Y81.268 E91.25381
G1 X114.432 Y81.268 E91.26233
G1 X114.184 Y81.268 E91.27089
G1 X113.937 Y81.268 E91.27941
G1 X113.689 Y81.268 E91.28797
G1 X113.442 Y81.268 E91.29649
G1 X113.194 Y81.268 E91.30505
G1 X112.947 Y81.268 E91.31357
G1 X112.699 Y81.268 E91.32212
G1 X112.452 Y81.268 E91.33064
G1 X112.204 Y81.268 E91.3392
G1 X111.957 Y81.268 E91.34772
G1 X111.709 Y81.268 E91.35628
G1 X111.462 Y81.268 E91.3648
G1 X111.214 Y81.268 E91.37336
G1 X110.967 Y81.268 E91.38188
G1 X110.719 Y81.268 E91.39043
G1 X110.472 Y81.268 E91.39895
G1 X110.224 Y81.268 E91.40751
G1 X109.977 Y81.268 E91.41603
G1 X109.729 Y81.268 E91.42459
G1 X109.482 Y81.268 E91.43311
G1 X109.234 Y81.268 E91.44167
G1 X108.987 Y81.268 E91.45019
G1 X108.74 Y81.268 E91.45871
G1 X108.492 Y81.268 E91.46726
G1 X108.245 Y81.268 E91.47579
G1 X107.997 Y81.268 E91.48434
G1 X107.75 Y81.268 E91.49286
G1 X107.502 Y81.268 E91.50142
G1 X107.255 Y81.268 E91.50994
G1 X107.007 Y81.268 E91.5185
G1 X106.76 Y81.268 E91.52702
G1 X106.512 Y81.268 E91.53557
G1 X106.265 Y81.268 E91.5441
G1 X106.017 Y81.268 E91.55265
G1 X105.77 Y81.268 E91.56117
G1 X105.522 Y81.268 E91.56973
G1 X105.275 Y81.268 E91.57825
G1 X105.027 Y81.268 E91.58681
G1 X104.78 Y81.268 E91.59533
G1 X104.532 Y81.268 E91.60388
G1 X104.285 Y81.268 E91.61241
G1 X104.037 Y81.268 E91.62096
G1 X103.79 Y81.268 E91.62948
G1 X103.542 Y81.268 E91.63804
G1 X103.295 Y81.268 E91.64656
G1 X103.047 Y81.268 E91.65512
G0 F3600 X102.99 Y81.211
G10
G0 X104.985 Y82.179
G0 X104.985 Y83.395
G0 X104.985 Y94.561
;TIME_ELAPSED:36.594804
;LAYER:1
M106 S255
G0 F4800 X104.985 Y94.561 Z0.5
;TYPE:SUPPORT
G11
G1 F1800 X106.518 Y109.134 E92.68086
G1 X106.895 Y112.718 E92.93312
G1 X107.318 Y116.739 E93.21614
G1 X107.471 Y118.194 E93.31855
G1 X107.328 Y118.597 E93.34849
G1 X107.318 Y118.606 E93.34943
G1 X107.318 Y121.785 E93.57196
G1 X106.447 Y120.926 E93.65759
G1 X106.447 Y119.472 E93.75937
G1 X106.624 Y119.296 E93.77685
G1 X107.318 Y118.606 E93.84535
G0 F4800 X107.318 Y116.739
G1 F1800 X107.318 Y89.912 E95.72324
G1 X109.651 Y89.912 E95.88655
G1 X109.651 Y140.086 E99.39873
G1 X110.447 Y140.1 E99.45446
G1 X110.792 Y140.451 E99.48891
G1 X110.792 Y143.068 E99.6721
G1 X110.91 Y143.186 E99.68378
G1 X111.984 Y143.186 E99.75896
G1 X111.984 Y89.912 E103.48814
G1 X114.317 Y89.912 E103.65145
G1 X114.317 Y140.053 E107.16132
G1 X115.472 Y140.053 E107.24217
G1 X115.59 Y139.935 E107.25385
G1 X115.59 Y138.497 E107.35451
G1 X115.272 Y138.171 E107.38639
G1 X115.187 Y137.725 E107.41817
G1 X116.098 Y135.567 E107.58214
G1 X116.477 Y135.316 E107.61396
G1 X116.65 Y135.316 E107.62607
G1 X118.117 Y135.316 E107.72876
G1 X118.236 Y135.171 E107.74189
G1 X117.056 Y129.223 E108.16637
G1 X116.65 Y127.176 E108.31245
G1 X116.65 Y135.316 E108.88225
G0 F4800 X116.65 Y127.176
G1 F1800 X116.087 Y124.337 E109.08485
G1 X116.087 Y121.571 E109.27847
G1 X116.65 Y121.008 E109.3342
G1 X116.751 Y120.906 E109.34425
G1 X116.751 Y119.446 E109.44645
G1 X116.65 Y119.351 E109.45616
G1 X116.65 Y121.008 E109.57215
G0 F4800 X116.65 Y119.351
G1 F1800 X115.985 Y118.719 E109.63637
G1 X115.831 Y118.32 E109.6663
G1 X116.091 Y114.971 E109.90144
G1 X116.197 Y114.605 E109.92811
G1 X116.225 Y114.28 E109.95095
G1 X116.24 Y114.237 E109.95413
G1 X116.372 Y112.467 E110.07838
G1 X116.439 Y112.219 E110.09636
G1 X116.523 Y111.164 E110.17044
G1 X116.65 Y110.057 E110.24844
G1 X116.65 Y89.912 E111.65859
G1 X118.983 Y89.912 E111.8219
G1 X119.124 Y89.912 E111.83177
G1 X118.983 Y90.053 E111.84573
G1 X118.983 Y89.912 E111.8556
G0 F4800 X104.985 Y94.561
G1 F1800 X104.931 Y94.048 E111.89171
G1 X104.389 Y92.736 E111.99108
G1 X104.328 Y92.674 E111.99717
G1 X104.328 Y92.16 E112.03315
G1 X103.685 Y90.038 E112.18836
G1 X103.515 Y89.912 E112.20317
G1 X104.985 Y89.912 E112.30607
G1 X104.985 Y94.561 E112.6315
G0 F4800 X107.318 Y121.785
G1 F1800 X107.413 Y121.879 E112.64085
G1 X107.541 Y122.297 E112.67145
G1 X107.318 Y123.406 E112.75064
G1 X107.318 Y136.082 E113.63796
G1 X107.105 Y135.569 E113.67684
G1 X106.727 Y135.316 E113.70868
G1 X105.082 Y135.316 E113.82383
G1 X104.985 Y135.197 E113.83458
G1 X104.985 Y135.059 E113.84424
G1 X104.963 Y135.171 E113.85223
G1 X104.985 Y135.197 E113.85461
G10
G0 F4800 X102.006 Y83.395
G0 X102.006 Y83.113
G11
G1 F1800 X102.006 Y83.074 E113.85734
G1 X101.967 Y83.074 E113.86007
G1 X102.006 Y83.113 E113.86393
G10
G0 F4800 X102.006 Y83.395
G0 X104.985 Y87.897
G11
G1 F1800 X107.318 Y87.905 E114.02724
G1 X107.318 Y84.62 E114.25719
G1 X109.651 Y84.627 E114.4205
G1 X109.651 Y87.912 E114.65045
G1 X111.984 Y87.92 E114.81376
G1 X111.984 Y84.635 E115.04371
G1 X114.317 Y84.642 E115.20703
G1 X114.317 Y87.928 E115.43705
G1 X116.65 Y87.936 E115.60036
G1 X116.65 Y84.649 E115.83045
G1 X118.983 Y84.657 E115.99376
G1 X119.276 Y84.657 E116.01427
G1 X119.229 Y87.945 E116.24445
G1 X118.983 Y87.944 E116.26167
G1 X118.983 Y84.657 E116.49176
G0 F4800 X104.985 Y87.897
G1 F1800 X103.973 Y87.894 E116.5626
G1 X104.02 Y84.609 E116.79257
G1 X104.985 Y84.613 E116.86013
G1 X104.985 Y87.897 E117.09001
G10
G0 F4800 X104.985 Y83.395
G0 X104.985 Y82.179
G0 X120.275 Y81.499
;TYPE:WALL-INNER
G11
G1 F2100 X102.725 Y81.499 E118.31851
G1 X102.725 Y81.039 E118.35071
G1 X120.275 Y81.039 E119.57921
G1 X120.275 Y81.499 E119.61141
G0 F4800 X120.625 Y81.849
G1 F2100 X102.375 Y81.849 E120.88891
G1 X102.375 Y80.689 E120.97011
G1 X120.625 Y80.689 E122.24761
G1 X120.625 Y81.849 E122.32881
G0 F4800 X120.975 Y82.199
G1 F2100 X102.025 Y82.199 E123.65531
G1 X102.025 Y80.339 E123.78551
G1 X120.975 Y80.339 E125.11201
G1 X120.975 Y82.199 E125.24221
G0 F4800 X121.3 Y82.524
;TYPE:WALL-OUTER
G1 F1800 X101.7 Y82.524 E126.61421
G1 X101.7 Y80.014 E126.78991
G1 X121.3 Y80.014 E128.16191
G1 X121.3 Y82.524 E128.33761
G0 F4800 X121.1 Y82.524
G0 X120.905 Y82.129
G0 X119.88 Y81.326
G0 X119.937 Y81.268
G1 F1500 X119.69 Y81.268 E128.34329
G1 X119.442 Y81.268 E128.34899
G1 X119.195 Y81.268 E128.35467
G1 X118.947 Y81.268 E128.36038
G1 X118.7 Y81.268 E128.36606
G1 X118.452 Y81.268 E128.37176
G1 X118.205 Y81.268 E128.37744
G1 X117.957 Y81.268 E128.38315
G1 X117.71 Y81.268 E128.38883
G1 X117.462 Y81.268 E128.39453
G1 X117.215 Y81.268 E128.40021
G1 X116.967 Y81.268 E128.40592
G1 X116.72 Y81.268 E128.4116
G1 X116.472 Y81.268 E128.4173
G1 X116.225 Y81.268 E128.42298
G1 X115.977 Y81.268 E128.42869
G1 X115.73 Y81.268 E128.43437
G1 X115.482 Y81.268 E128.44007
G1 X115.235 Y81.268 E128.44575
G1 X114.988 Y81.268 E128.45143
G1 X114.74 Y81.268 E128.45714
G1 X114.493 Y81.268 E128.46282
G1 X114.245 Y81.268 E128.46852
G1 X113.998 Y81.268 E128.4742
G1 X113.75 Y81.268 E128.47991
G1 X113.503 Y81.268 E128.48559
G1 X113.255 Y81.268 E128.49129
G1 X113.008 Y81.268 E128.49697
G1 X112.76 Y81.268 E128.50268
G1 X112.513 Y81.268 E128.50836
G1 X112.265 Y81.268 E128.51406
G1 X112.018 Y81.268 E128.51974
G1 X111.77 Y81.268 E128.52545
G1 X111.523 Y81.268 E128.53113
G1 X111.275 Y81.268 E128.53683
G1 X111.028 Y81.268 E128.54251
G1 X110.78 Y81.268 E128.54822
G1 X110.533 Y81.268 E128.5539
G1 X110.285 Y81.268 E128.5596
G1 X110.038 Y81.268 E128.56528
G1 X109.79 Y81.268 E128.57099
G1 X109.543 Y81.268 E128.57667
G1 X109.295 Y81.268 E128.58237
G1 X109.048 Y81.268 E128.58805
G1 X108.8 Y81.268 E128.59376
G1 X108.553 Y81.268 E128.59944
G1 X108.305 Y81.268 E128.60514
G1 X108.058 Y81.268 E128.61082
G1 X107.81 Y81.268 E128.61653
G1 X107.563 Y81.268 E128.62221
G1 X107.315 Y81.268 E128.62791
G1 X107.068 Y81.268 E128.63359
G1 X106.82 Y81.268 E128.6393
G1 X106.573 Y81.268 E128.64498
G1 X106.325 Y81.268 E128.65068
G1 X106.078 Y81.268 E128.65636
G1 X105.83 Y81.268 E128.66207
G1 X105.583 Y81.268 E128.66775
G1 X105.336 Y81.268 E128.67343
G1 X105.088 Y81.268 E128.67913
G1 X104.841 Y81.268 E128.68481
G1 X104.593 Y81.268 E128.69052
G1 X104.346 Y81.268 E128.6962
G1 X104.098 Y81.268 E128.7019
G1 X103.851 Y81.268 E128.70758
G1 X103.603 Y81.268 E128.71329
G1 X103.356 Y81.268 E128.71897
G1 X103.108 Y81.268 E128.72467
G0 F4800 X103.051 Y81.326
G10
G0 X104.985 Y82.179
G0 X104.985 Y83.395
G0 X104.985 Y87.697
;TIME_ELAPSED:58.152307
;LAYER:2
G0 F6000 X104.985 Y87.697 Z0.7
;TYPE:SUPPORT
G11
G1 F1800 X107.318 Y87.705 E128.88798
G1 X107.318 Y84.82 E129.08993
G1 X109.651 Y84.827 E129.25324
G1 X109.651 Y87.713 E129.45526
G1 X111.984 Y87.72 E129.61857
G1 X111.984 Y84.835 E129.82052
G1 X114.317 Y84.842 E129.98384
G1 X114.317 Y87.728 E130.18586
G1 X116.65 Y87.736 E130.34917
G1 X116.65 Y84.849 E130.55126
G1 X118.983 Y84.856 E130.71457
G1 X119.073 Y84.856 E130.72087
G1 X119.032 Y87.744 E130.92305
G1 X118.983 Y87.743 E130.92648
G1 X118.983 Y84.856 E131.12857
G10
G0 F6000 X118.761 Y85.165
G0 X104.985 Y87.375
G0 X104.985 Y87.697
G11
G1 F1800 X104.176 Y87.695 E131.1852
G1 X104.217 Y84.81 E131.38717
G1 X104.985 Y84.813 E131.44093
G1 X104.985 Y87.697 E131.64281
G10
G0 F6000 X104.985 Y87.375
G0 X104.985 Y87.411
G0 X104.985 Y87.455
G0 X104.985 Y90.353
G0 X104.985 Y90.397
G0 X104.985 Y94.561
G11
G1 F1800 X106.518 Y109.134 E132.66855
G1 X106.895 Y112.718 E132.92081
G1 X107.318 Y116.739 E133.20384
G1 X107.471 Y118.194 E133.30625
G1 X107.328 Y118.597 E133.33618
G1 X107.318 Y118.606 E133.33712
G1 X107.318 Y121.786 E133.55972
G1 X106.447 Y120.927 E133.64535
G1 X106.447 Y119.472 E133.7472
G1 X106.623 Y119.297 E133.76458
G1 X107.318 Y118.606 E133.83318
G0 F6000 X107.318 Y116.739
G1 F1800 X107.318 Y90.112 E135.69707
G1 X109.651 Y90.112 E135.86038
G1 X109.651 Y140.086 E139.35856
G1 X110.447 Y140.1 E139.41429
G1 X110.792 Y140.451 E139.44874
G1 X110.792 Y143.068 E139.63193
G1 X110.91 Y143.186 E139.64361
G1 X111.984 Y143.186 E139.71879
G1 X111.984 Y90.112 E143.43397
G1 X114.317 Y90.112 E143.59728
G1 X114.317 Y140.053 E147.09315
G1 X115.472 Y140.053 E147.174
G1 X115.59 Y139.935 E147.18569
G1 X115.59 Y138.497 E147.28635
G1 X115.272 Y138.171 E147.31822
G1 X115.187 Y137.725 E147.35001
G1 X116.098 Y135.567 E147.51397
G1 X116.477 Y135.316 E147.5458
G1 X116.65 Y135.316 E147.55791
G1 X118.117 Y135.316 E147.6606
G1 X118.236 Y135.171 E147.67373
G1 X117.056 Y129.223 E148.0982
G1 X116.65 Y127.176 E148.24428
G1 X116.65 Y135.316 E148.81408
