;FLAVOR:UltiGCode
;TIME:2680
;MATERIAL:5277
;MATERIAL2:0
;NOZZLE_DIAMETER:0.4
;Generated with Cura_SteamEngine 3.4.0
M82 ;absolute extrusion mode

G92 E0
G10
;LAYER_COUNT:100
;LAYER:0
M107
G0 F3600 X101.951 Y88.619 Z0.3
;TYPE:SUPPORT
G11
G1 F1800 X121.049 Y88.619 E2.00529
G1 X121.049 Y93.809 E2.55024
G1 X120.931 Y93.927 E2.56776
G1 X119.376 Y93.927 E2.73104
G1 X119.026 Y94.277 E2.78301
G1 X119.026 Y96.459 E3.01212
G1 X118.271 Y97.215 E3.12431
G1 X117.721 Y102.925 E3.72663
G1 X117.63 Y103.246 E3.76166
G1 X117.46 Y105.536 E4.00278
G1 X117.449 Y105.6 E4.00959
G1 X117.369 Y105.842 E4.03636
G1 X117.186 Y108.115 E4.27579
G1 X117.086 Y108.451 E4.3126
G1 X116.916 Y110.716 E4.5511
G1 X116.771 Y111.53 E4.63791
G1 X116.603 Y113.782 E4.87503
G1 X116.509 Y114.117 E4.91156
G1 X116.329 Y116.412 E5.15328
G1 X116.239 Y116.72 E5.18697
G1 X116.061 Y118.998 E5.42689
G1 X115.976 Y119.305 E5.46034
G1 X115.737 Y122.002 E5.74463
G1 X115.884 Y122.404 E5.78958
G1 X116.78 Y123.293 E5.92211
G1 X116.781 Y124.548 E6.05388
G1 X115.732 Y125.606 E6.21032
G1 X115.63 Y126.042 E6.25734
G1 X118.558 Y134.718 E7.21879
G1 X118.356 Y134.897 E7.24713
G1 X115.502 Y133.481 E7.58166
G1 X115.033 Y133.69 E7.63557
G1 X114.412 Y135.894 E7.876
G1 X114.115 Y136.501 E7.94696
G1 X113.878 Y136.823 E7.98894
G1 X113.058 Y137.517 E8.10174
G1 X112.444 Y137.781 E8.17191
G1 X112.018 Y137.881 E8.21786
G1 X111.022 Y137.881 E8.32244
G1 X110.915 Y137.87 E8.33373
G1 X110.567 Y137.789 E8.37125
G1 X109.964 Y137.526 E8.44033
G1 X109.563 Y137.254 E8.4912
G1 X109.501 Y137.197 E8.50005
G1 X108.888 Y136.51 E8.59672
G1 X107.68 Y133.795 E8.90874
G1 X107.212 Y133.625 E8.96102
G1 X104.644 Y134.899 E9.26202
G1 X104.442 Y134.72 E9.29036
G1 X107.347 Y126.025 E10.25294
G1 X107.245 Y125.59 E10.29986
G1 X106.219 Y124.55 E10.45325
G1 X106.222 Y123.31 E10.58345
G1 X107.203 Y122.341 E10.72824
G1 X107.348 Y121.938 E10.77321
G1 X107.027 Y118.866 E11.09752
G1 X106.935 Y118.583 E11.12877
G1 X106.754 Y116.33 E11.3661
G1 X106.665 Y116.022 E11.39976
G1 X106.486 Y113.808 E11.63299
G1 X106.391 Y113.476 E11.66925
G1 X105.914 Y108.309 E12.21409
G1 X105.808 Y107.936 E12.25481
G1 X105.629 Y105.702 E12.49013
G1 X105.528 Y105.382 E12.52536
G1 X104.73 Y97.229 E13.38552
G1 X103.971 Y96.462 E13.49882
G1 X103.977 Y94.277 E13.72824
G1 X103.627 Y93.927 E13.78022
G1 X102.069 Y93.927 E13.94381
G1 X101.951 Y93.809 E13.96133
G1 X101.951 Y88.619 E14.50628
G0 F3600 X102.652 Y88.759
G1 F1800 X102.652 Y93.787 E15.03422
G0 F3600 X102.091 Y93.32
G1 F1800 X120.909 Y93.32 E17.01011
G0 F3600 X118.983 Y94.123
G1 F1800 X118.983 Y88.759 E17.57333
G0 F3600 X116.65 Y88.759
G1 F1800 X116.65 Y111.411 E19.95179
G0 F3600 X116.596 Y111.984
G1 F1800 X106.393 Y111.984 E21.0231
G0 F3600 X106.178 Y109.651
G1 F1800 X116.855 Y109.651 E22.14419
G0 F3600 X117.11 Y107.318
G1 F1800 X105.898 Y107.318 E23.32145
G0 F3600 X105.63 Y104.985
G1 F1800 X117.357 Y104.985 E24.55278
G0 F3600 X117.606 Y102.652
G1 F1800 X105.401 Y102.652 E25.83431
G0 F3600 X105.172 Y100.319
G1 F1800 X117.831 Y100.319 E27.1635
G0 F3600 X118.056 Y97.986
G1 F1800 X104.944 Y97.986 E28.54026
G0 F3600 X104.985 Y98.401
G1 F1800 X104.985 Y88.759 E29.55267
G0 F3600 X107.318 Y88.759
G1 F1800 X107.318 Y120.308 E32.86532
G0 F3600 X107.422 Y121.316
G1 F1800 X115.656 Y121.316 E33.72989
G0 F3600 X115.919 Y118.983
G1 F1800 X107.178 Y118.983 E34.64769
G0 F3600 X106.92 Y116.65
G1 F1800 X116.114 Y116.65 E35.61306
G0 F3600 X116.352 Y114.317
G1 F1800 X106.667 Y114.317 E36.62999
G0 F3600 X107.318 Y122.423
G1 F1800 X107.318 Y125.465 E36.9494
G0 F3600 X107.48 Y125.982
G1 F1800 X115.499 Y125.982 E37.79139
G0 F3600 X116.248 Y128.315
G1 F1800 X106.73 Y128.315 E38.79078
G0 F3600 X107.318 Y126.555
G1 F1800 X107.318 Y133.514 E39.52148
G0 F3600 X108.508 Y135.314
G1 F1800 X114.429 Y135.314 E40.14318
G0 F3600 X114.317 Y135.718
G1 F1800 X114.317 Y88.759 E45.07388
G0 F3600 X111.984 Y88.759
G1 F1800 X111.984 Y137.741 E50.21699
G0 F3600 X112.398 Y137.647
G1 F1800 X110.589 Y137.647 E50.40693
G0 F3600 X109.651 Y137.144
G1 F1800 X109.651 Y88.759 E55.48736
G0 F3600 X102.091 Y90.987
G1 F1800 X120.909 Y90.987 E57.46325
G0 F3600 X118.886 Y95.653
G1 F1800 X104.114 Y95.653 E59.01431
G0 F3600 X106.361 Y123.649
G1 F1800 X116.64 Y123.649 E60.0936
G0 F3600 X116.65 Y129.504
G1 F1800 X116.65 Y133.894 E60.55455
G0 F3600 X117.824 Y132.981
G1 F1800 X105.17 Y132.981 E61.88322
G0 F3600 X104.985 Y133.536
G1 F1800 X104.985 Y134.574 E61.99221
G0 F3600 X105.95 Y130.648
G1 F1800 X117.036 Y130.648 E63.15624
G10
G0 F3600 X117.036 Y88.44
G0 X117.036 Y87.224
G0 X120.904 Y87.174
G0 X121.299 Y87.569
;TYPE:WALL-OUTER
G11
G1 F1800 X101.701 Y87.569 E65.21403
G1 X101.701 Y85.319 E65.45028
G1 X121.299 Y85.319 E67.50807
G1 X121.299 Y87.569 E67.74432
G0 F3600 X121.099 Y87.569
G0 X120.974 Y87.244
;TYPE:WALL-INNER
G1 F1800 X102.026 Y87.244 E69.73386
G1 X102.026 Y85.644 E69.90186
G1 X120.974 Y85.644 E71.8914
G1 X120.974 Y87.244 E72.0594
G0 F3600 X120.624 Y86.894
G1 F1800 X102.376 Y86.894 E73.97544
G1 X102.376 Y85.994 E74.06994
G1 X120.624 Y85.994 E75.98598
G1 X120.624 Y86.894 E76.08048
G0 F3600 X120.274 Y86.544
G1 F1800 X102.726 Y86.544 E77.92302
G1 X102.726 Y86.344 E77.94402
G1 X120.274 Y86.344 E78.9969
G1 X120.274 Y86.544 E79.0179
G10
G0 F3600 X104.985 Y87.224
G0 X104.985 Y88.44
G0 X104.985 Y92.246
;TIME_ELAPSED:33.299197
;LAYER:1
M106 S255
G0 F4800 X104.985 Y92.246 Z0.5
;TYPE:SUPPORT
G11
G1 F1800 X107.318 Y92.253 E79.18121
G1 X107.318 Y90.064 E79.33444
G1 X109.651 Y90.071 E79.49775
G1 X109.651 Y92.26 E79.65098
G1 X111.984 Y92.267 E79.8143
G1 X111.984 Y90.077 E79.9676
G1 X114.317 Y90.084 E80.13091
G1 X114.317 Y92.274 E80.28421
G1 X116.65 Y92.281 E80.44752
G1 X118.718 Y92.288 E80.59228
G1 X118.75 Y90.096 E80.74573
G1 X116.65 Y90.091 E80.89273
G1 X116.65 Y92.281 E81.04603
G0 F4800 X104.985 Y92.246
G1 F1800 X104.242 Y92.244 E81.09804
G1 X104.274 Y90.055 E81.25129
G1 X104.985 Y90.058 E81.30106
G1 X104.985 Y92.246 E81.45422
G0 F4800 X104.985 Y99.834
G1 F1800 X105.528 Y105.382 E81.84444
G1 X105.631 Y105.709 E81.86844
G1 X105.631 Y105.741 E81.87068
G1 X105.808 Y107.935 E82.02475
G1 X105.914 Y108.309 E82.05197
G1 X106.394 Y113.486 E82.41591
G1 X106.401 Y113.521 E82.41841
G1 X106.466 Y113.743 E82.4346
G1 X106.487 Y113.81 E82.43952
G1 X106.666 Y116.031 E82.59549
G1 X106.755 Y116.329 E82.61726
G1 X106.937 Y118.595 E82.77639
G1 X106.939 Y118.606 E82.77717
G1 X107.027 Y118.866 E82.79639
G1 X107.318 Y121.65 E82.99233
G1 X107.348 Y121.938 E83.0126
G1 X107.318 Y122.021 E83.01878
G1 X107.318 Y125.901 E83.29038
G1 X107.245 Y125.59 E83.31274
G1 X106.219 Y124.55 E83.415
G1 X106.222 Y123.31 E83.5018
G1 X107.203 Y122.341 E83.59833
G1 X107.318 Y122.021 E83.62213
G0 F4800 X107.318 Y121.65
G1 F1800 X107.318 Y94.077 E85.55224
G1 X109.651 Y94.077 E85.71555
G1 X109.651 Y137.314 E88.74214
G1 X109.914 Y137.497 E88.76457
G1 X109.961 Y137.524 E88.76836
G1 X110.567 Y137.789 E88.81466
G1 X110.915 Y137.87 E88.83967
G1 X111.022 Y137.881 E88.8472
G1 X111.984 Y137.881 E88.91454
G1 X111.984 Y94.077 E91.98082
G1 X114.317 Y94.077 E92.14413
G1 X114.317 Y136.09 E95.08504
G1 X114.412 Y135.895 E95.10022
G1 X115.03 Y133.69 E95.26052
G1 X115.459 Y133.498 E95.29342
G1 X115.498 Y133.478 E95.29649
G1 X116.65 Y134.049 E95.38649
G1 X118.356 Y134.897 E95.51985
G1 X118.558 Y134.718 E95.53874
G1 X116.65 Y129.066 E95.95632
G1 X116.65 Y134.049 E96.30513
G0 F4800 X116.65 Y129.066
G1 F1800 X115.63 Y126.043 E96.52846
G1 X115.716 Y125.676 E96.55485
G1 X115.716 Y125.622 E96.55863
G1 X116.65 Y124.681 E96.65143
G1 X116.781 Y124.548 E96.6645
G1 X116.78 Y123.293 E96.75235
G1 X116.65 Y123.165 E96.76512
G1 X116.65 Y124.681 E96.87124
G0 F4800 X116.65 Y123.165
G1 F1800 X115.884 Y122.404 E96.94683
G1 X115.737 Y122.002 E96.97679
G1 X115.976 Y119.305 E97.16632
G1 X116.061 Y118.998 E97.18862
G1 X116.237 Y116.752 E97.34632
G1 X116.237 Y116.725 E97.34821
G1 X116.329 Y116.412 E97.37105
G1 X116.336 Y116.363 E97.37451
G1 X116.509 Y114.116 E97.53227
G1 X116.6 Y113.794 E97.55569
G1 X116.605 Y113.772 E97.55727
G1 X116.62 Y113.563 E97.57194
G1 X116.65 Y113.16 E97.60022
G1 X116.65 Y94.077 E98.93603
G1 X118.693 Y94.077 E99.07904
G1 X118.693 Y94.099 E99.08058
G1 X118.687 Y94.424 E99.10334
G1 X118.983 Y94.724 E99.13284
G1 X119.026 Y94.767 E99.1371
G1 X119.026 Y96.459 E99.25554
G1 X118.983 Y96.503 E99.25984
G1 X118.983 Y94.724 E99.38437
G0 F4800 X104.985 Y99.834
G1 F1800 X104.73 Y97.229 E99.56759
G1 X103.971 Y96.462 E99.64313
G1 X103.976 Y94.669 E99.76864
G1 X104.209 Y94.41 E99.79303
G1 X104.214 Y94.077 E99.81634
G1 X104.985 Y94.077 E99.87031
G1 X104.985 Y99.834 E100.2733
G0 F4800 X107.318 Y125.901
G1 F1800 X107.347 Y126.025 E100.28221
G1 X107.318 Y126.111 E100.28856
G1 X107.318 Y133.663 E100.8172
G1 X107.212 Y133.625 E100.82509
G1 X104.985 Y134.73 E100.99911
G1 X104.985 Y133.094 E101.11363
G1 X104.442 Y134.72 E101.23363
G1 X104.644 Y134.899 E101.25252
G1 X104.985 Y134.73 E101.27916
G10
G0 F4800 X104.985 Y88.44
G0 X104.985 Y87.224
G0 X120.274 Y86.544
;TYPE:WALL-INNER
G11
G1 F2100 X102.726 Y86.544 E102.50752
G1 X102.726 Y86.344 E102.52152
G1 X120.274 Y86.344 E103.22344
G1 X120.274 Y86.544 E103.23744
G0 F4800 X120.624 Y86.894
G1 F2100 X102.376 Y86.894 E104.5148
G1 X102.376 Y85.994 E104.5778
G1 X120.624 Y85.994 E105.85516
G1 X120.624 Y86.894 E105.91816
G0 F4800 X120.974 Y87.244
G1 F2100 X102.026 Y87.244 E107.24452
G1 X102.026 Y85.644 E107.35652
G1 X120.974 Y85.644 E108.68288
G1 X120.974 Y87.244 E108.79488
G0 F4800 X121.299 Y87.569
;TYPE:WALL-OUTER
G1 F1800 X101.701 Y87.569 E110.16674
G1 X101.701 Y85.319 E110.32424
G1 X121.299 Y85.319 E111.6961
G1 X121.299 Y87.569 E111.8536
G0 F4800 X121.099 Y87.569
G0 X120.624 Y86.997
G10
G0 X104.985 Y87.224
G0 X104.985 Y88.44
G0 X104.985 Y92.047
;TIME_ELAPSED:51.616129
;LAYER:2
G0 F6000 X104.985 Y92.047 Z0.7
;TYPE:SUPPORT
G11
G1 F1800 X107.318 Y92.053 E112.01692
G1 X107.318 Y90.064 E112.15615
G1 X109.651 Y90.071 E112.31946
G1 X109.651 Y92.06 E112.45869
G1 X111.984 Y92.067 E112.622
G1 X111.984 Y90.077 E112.7613
G1 X114.317 Y90.084 E112.92461
G1 X114.317 Y92.074 E113.06391
G1 X116.65 Y92.08 E113.22722
G1 X118.721 Y92.087 E113.37219
G1 X118.75 Y90.096 E113.51157
G1 X116.65 Y90.091 E113.65857
G1 X116.65 Y92.08 E113.7978
G10
G0 F6000 X116.65 Y91.76
G0 X104.985 Y91.724
G0 X104.985 Y92.047
G11
G1 F1800 X104.245 Y92.045 E113.8496
G1 X104.274 Y90.055 E113.98892
G1 X104.985 Y90.058 E114.03869
G1 X104.985 Y92.047 E114.17792
G10
G0 F6000 X104.985 Y91.724
G0 X104.985 Y91.76
G0 X104.985 Y91.804
G0 X104.985 Y94.518
G0 X104.985 Y94.562
G0 X104.985 Y99.834
G11
G1 F1800 X105.528 Y105.382 E114.56814
G1 X105.631 Y105.709 E114.59213
G1 X105.631 Y105.741 E114.59437
G1 X105.715 Y106.783 E114.66755
G1 X105.809 Y107.937 E114.7486
G1 X105.859 Y108.117 E114.76168
G1 X105.914 Y108.309 E114.77566
G1 X106.394 Y113.486 E115.1396
G1 X106.401 Y113.521 E115.1421
G1 X106.466 Y113.743 E115.15829
G1 X106.487 Y113.81 E115.16321
G1 X106.667 Y116.035 E115.31946
G1 X106.757 Y116.336 E115.34146
G1 X106.757 Y116.366 E115.34356
G1 X106.938 Y118.598 E115.50031
G1 X107.027 Y118.861 E115.51974
G1 X107.318 Y121.65 E115.71603
G1 X107.348 Y121.938 E115.7363
G1 X107.318 Y122.021 E115.74248
G1 X107.318 Y125.901 E116.01408
G1 X107.245 Y125.59 E116.03644
G1 X106.219 Y124.55 E116.13871
G1 X106.222 Y123.31 E116.22551
G1 X107.203 Y122.341 E116.32203
G1 X107.318 Y122.021 E116.34583
G0 F6000 X107.318 Y121.65
G1 F1800 X107.318 Y94.277 E118.26194
G1 X109.651 Y94.277 E118.42525
G1 X109.651 Y137.314 E121.43784
G1 X109.914 Y137.497 E121.46027
G1 X109.961 Y137.524 E121.46406
G1 X110.135 Y137.6 E121.47736
G1 X110.566 Y137.788 E121.51027
G1 X110.925 Y137.87 E121.53605
G1 X110.95 Y137.873 E121.53781
G1 X111.022 Y137.881 E121.54288
G1 X111.984 Y137.881 E121.61022
G1 X111.984 Y94.277 E124.6625
G1 X114.317 Y94.277 E124.82581
G1 X114.317 Y136.09 E127.75272
G1 X114.41 Y135.899 E127.76759
G1 X115.026 Y133.691 E127.92805
G1 X115.44 Y133.505 E127.95983
G1 X115.499 Y133.478 E127.96437
G1 X115.529 Y133.465 E127.96666
G1 X115.587 Y133.522 E127.97235
G1 X116.65 Y134.049 E128.0554
G1 X118.356 Y134.897 E128.18876
G1 X118.558 Y134.718 E128.20765
G1 X116.65 Y129.065 E128.62529
G1 X116.65 Y134.049 E128.97417
G0 F6000 X116.65 Y129.065
G1 F1800 X115.63 Y126.042 E129.19751
G1 X115.732 Y125.606 E129.22885
G1 X116.65 Y124.681 E129.32007
G1 X116.781 Y124.548 E129.33314
G1 X116.78 Y123.293 E129.42099
G1 X116.65 Y123.165 E129.43376
G1 X116.65 Y124.681 E129.53988
G0 F6000 X116.65 Y123.165
G1 F1800 X115.884 Y122.404 E129.61547
G1 X115.737 Y122.002 E129.64543
G1 X115.976 Y119.306 E129.83489
G1 X116.061 Y118.999 E129.85719
G1 X116.239 Y116.717 E130.01741
G1 X116.328 Y116.414 E130.03952
G1 X116.336 Y116.359 E130.04341
G1 X116.509 Y114.116 E130.20089
G1 X116.602 Y113.787 E130.22482
G1 X116.605 Y113.773 E130.22582
G1 X116.62 Y113.563 E130.24056
G1 X116.65 Y113.16 E130.26885
G1 X116.65 Y94.277 E131.59066
G1 X118.69 Y94.277 E131.73346
G1 X118.687 Y94.423 E131.74368
G1 X118.983 Y94.724 E131.77323
G1 X119.026 Y94.767 E131.77749
G1 X119.026 Y96.459 E131.89593
G1 X118.983 Y96.503 E131.90023
G1 X118.983 Y94.724 E132.02476
G0 F6000 X104.985 Y99.834
G1 F1800 X104.73 Y97.229 E132.20798
G1 X103.971 Y96.462 E132.28352
G1 X103.976 Y94.669 E132.40903
G1 X104.209 Y94.41 E132.43341
G1 X104.211 Y94.277 E132.44273
G1 X104.985 Y94.277 E132.49691
G1 X104.985 Y99.834 E132.8859
G0 F6000 X107.318 Y125.901
G1 F1800 X107.347 Y126.025 E132.89481
G1 X107.318 Y126.111 E132.90116
G1 X107.318 Y133.663 E133.4298
G1 X107.212 Y133.625 E133.43769
G1 X104.985 Y134.73 E133.61171
G1 X104.985 Y133.094 E133.72623
G1 X104.442 Y134.72 E133.84623
G1 X104.644 Y134.899 E133.86512
G1 X104.985 Y134.73 E133.89176
G10
G0 F6000 X104.985 Y94.598
G0 X104.985 Y93.382
G0 X102.828 Y92.942
G0 X102.89 Y88.648
G0 X119.474 Y87.499
;TYPE:WALL-INNER
G11
G1 F2400 X119.474 Y87.674 E133.90401
G1 X119.299 Y87.674 E133.91194
G1 X103.526 Y87.628 E135.01606
G1 X103.526 Y86.694 E135.08144
G1 X119.474 Y86.694 E136.1978
G1 X119.474 Y87.499 E136.25415
G0 F6000 X119.824 Y86.544
G1 F2400 X119.824 Y87.85 E136.34557
G1 X119.824 Y88.025 E136.35782
G1 X119.649 Y88.025 E136.36574
G1 X103.176 Y87.977 E137.51886
G1 X103.176 Y86.544 E137.61917
G1 X102.726 Y86.544 E137.65067
G1 X102.726 Y86.344 E137.66467
G1 X103.176 Y86.344 E137.68267
G1 X119.824 Y86.344 E138.84803
G1 X120.274 Y86.344 E138.87953
G1 X120.274 Y86.544 E138.89353
G1 X119.824 Y86.544 E138.91153
G0 F6000 X120.174 Y86.894
G1 F2400 X120.174 Y88.201 E139.00302
G1 X120.174 Y88.376 E139.01527
G1 X119.999 Y88.376 E139.0232
G1 X102.826 Y88.326 E140.22531
G1 X102.826 Y86.894 E140.32555
G1 X102.376 Y86.894 E140.35705
G1 X102.376 Y85.994 E140.42005
G1 X120.624 Y85.994 E141.69741
G1 X120.624 Y86.894 E141.76041
G1 X120.174 Y86.894 E141.79191
G0 F6000 X120.524 Y87.244
G1 F2400 X120.524 Y93.402 E142.22297
G1 X102.476 Y93.402 E143.48633
G1 X102.476 Y87.244 E143.91739
G1 X102.026 Y87.244 E143.94889
G1 X102.026 Y85.644 E144.06089
G1 X120.974 Y85.644 E145.38725
G1 X120.974 Y87.244 E145.49925
G1 X120.524 Y87.244 E145.53075
G0 F6000 X120.454 Y87.174
G0 X120.215 Y88.656
G0 X120.144 Y88.726
G1 F2400 X119.968 Y88.726 E145.54307
G1 X102.918 Y88.676 E146.73658
G1 X102.858 Y92.737 E147.02088
G1 X102.857 Y92.738 E147.02098
G1 X102.856 Y92.914 E147.0333
G1 X103.032 Y92.914 E147.04126
G1 X103.033 Y92.914 E147.04133
G1 X120.084 Y92.968 E148.2349
G1 X120.142 Y88.902 E148.51955
G1 X120.144 Y88.726 E148.5275
G0 F6000 X120.215 Y88.656
G0 X120.424 Y87.569
G0 X120.849 Y87.569
;TYPE:WALL-OUTER
G1 F1800 X120.849 Y93.727 E148.95856
G1 X102.151 Y93.727 E150.26742
G1 X102.151 Y87.569 E150.69848
G1 X101.701 Y87.569 E150.72998
G1 X101.701 Y85.319 E150.88748
G1 X121.299 Y85.319 E152.25934
G1 X121.299 Y87.569 E152.41684
G1 X120.849 Y87.569 E152.44834
G0 F6000 X120.849 Y87.769
G0 X120.424 Y87.769
G0 X120.112 Y92.996
G0 X103.184 Y93.015
G0 X103.186 Y92.59
G1 F1800 X103.362 Y92.59 E152.46066
G1 X119.764 Y92.642 E153.6088
G1 X119.812 Y89.226 E153.84795
G1 X119.814 Y89.05 E153.86027
G1 X119.638 Y89.05 E153.86821
G1 X103.238 Y89.002 E155.01622
G1 X103.188 Y92.414 E155.25508
G1 X103.186 Y92.59 E155.26303
G0 F6000 X103.362 Y92.59
G0 X103.386 Y92.59
