;FLAVOR:UltiGCode
;TIME:2205
;MATERIAL:4133
;MATERIAL2:0
;NOZZLE_DIAMETER:0.4
;Generated with Cura_SteamEngine 3.4.0
M82 ;absolute extrusion mode

G92 E0
G10
;LAYER_COUNT:100
;LAYER:0
M107
G0 F3600 X104.121 Y95.383 Z0.3
;TYPE:SUPPORT
G11
G1 F1800 X118.899 Y95.417 E1.55169
G1 X118.879 Y97.58 E1.77882
G1 X104.101 Y97.547 E3.33051
G1 X104.121 Y95.383 E3.55774
G0 F3600 X104.258 Y95.653
G1 F1800 X118.756 Y95.653 E5.08003
G0 F3600 X116.65 Y95.553
G1 F1800 X116.65 Y97.435 E5.27764
G0 F3600 X114.317 Y97.429
G1 F1800 X114.317 Y95.547 E5.47525
G0 F3600 X111.984 Y95.542
G1 F1800 X111.984 Y97.424 E5.67286
G0 F3600 X109.651 Y97.419
G1 F1800 X109.651 Y95.536 E5.87058
G0 F3600 X107.318 Y95.531
G1 F1800 X107.318 Y97.413 E6.06819
G0 F3600 X104.985 Y97.408
G1 F1800 X104.985 Y95.525 E6.2659
G10
G0 F3600 X104.521 Y97.761
G0 X104.513 Y97.805
G0 X103.894 Y100.804
G0 X103.886 Y100.848
G0 X103.841 Y101.063
G11
G1 F1800 X118.973 Y101.063 E7.85476
G1 X117.937 Y103.902 E8.17209
G1 X117.769 Y104.998 E8.28851
G1 X117.529 Y105.983 E8.39496
G1 X117.383 Y106.327 E8.4342
G1 X117.264 Y107.094 E8.5157
G1 X117.181 Y107.413 E8.55031
G1 X117.181 Y107.602 E8.57015
G1 X117.08 Y108.255 E8.63953
G1 X116.594 Y110.228 E8.85289
G1 X116.573 Y110.579 E8.88981
G1 X116.159 Y112.157 E9.06111
G1 X116.157 Y112.712 E9.11938
G1 X115.783 Y113.937 E9.25387
G1 X115.548 Y115.201 E9.38886
G1 X115.401 Y115.685 E9.44198
G1 X115.401 Y115.89 E9.4635
G1 X115.24 Y116.766 E9.55702
G1 X115.191 Y116.914 E9.57339
G1 X115.027 Y117.591 E9.64653
G1 X115.02 Y117.654 E9.65319
G1 X114.899 Y118.14 E9.70578
G1 X114.484 Y119.952 E9.90096
G1 X114.184 Y121.206 E10.03635
G1 X114.641 Y123.136 E10.2446
G1 X114.7 Y123.557 E10.28924
G1 X115.6 Y127.741 E10.73861
G1 X115.643 Y127.909 E10.75682
G1 X115.806 Y128.652 E10.83669
G1 X115.931 Y129.327 E10.90877
G1 X116.056 Y130.065 E10.98736
G1 X115.934 Y130.212 E11.00742
G1 X106.878 Y130.212 E11.9583
G1 X106.719 Y129.998 E11.98629
G1 X106.89 Y129.31 E12.06073
G1 X106.957 Y129.192 E12.07498
G1 X107.086 Y128.466 E12.1524
G1 X107.275 Y127.705 E12.23473
G1 X107.448 Y126.672 E12.34471
G1 X107.646 Y126.029 E12.41535
G1 X107.646 Y125.809 E12.43845
G1 X107.688 Y125.433 E12.47818
G1 X107.857 Y124.74 E12.55308
G1 X107.869 Y124.652 E12.5624
G1 X108.013 Y124.101 E12.6222
G1 X108.09 Y123.555 E12.6801
G1 X108.191 Y122.962 E12.74326
G1 X108.607 Y121.119 E12.94164
G1 X108.144 Y119.153 E13.15372
G1 X107.97 Y118.367 E13.23825
G1 X107.96 Y118.279 E13.24755
G1 X107.541 Y116.515 E13.43792
G1 X107.432 Y115.775 E13.51646
G1 X107.335 Y115.445 E13.55257
G1 X107.214 Y114.644 E13.63763
G1 X107.082 Y114.264 E13.67987
G1 X106.849 Y113.021 E13.81266
G1 X106.296 Y110.661 E14.06717
G1 X106.202 Y110.305 E14.10583
G1 X106.159 Y109.841 E14.15476
G1 X105.981 Y109.16 E14.22867
G1 X105.644 Y107.809 E14.37487
G1 X105.471 Y106.747 E14.48785
G1 X105.188 Y105.609 E14.61098
G1 X105.1 Y105.285 E14.64623
G1 X105.043 Y105.043 E14.67234
G1 X104.872 Y104.037 E14.77948
G1 X103.841 Y101.063 E15.10999
G0 F3600 X104.985 Y101.203
G1 F1800 X104.985 Y103.935 E15.39685
G0 F3600 X105.175 Y104.985
G1 F1800 X117.628 Y104.985 E16.70441
G0 F3600 X117.061 Y107.318
G1 F1800 X105.706 Y107.318 E17.89669
G0 F3600 X106.253 Y109.651
G1 F1800 X116.591 Y109.651 E18.98218
G0 F3600 X116.65 Y109.413
G1 F1800 X116.65 Y101.203 E19.84423
G0 F3600 X118.244 Y102.652
G1 F1800 X104.539 Y102.652 E21.28325
G0 F3600 X107.318 Y101.203
G1 F1800 X107.318 Y114.515 E22.68101
G0 F3600 X107.248 Y114.317
G1 F1800 X115.569 Y114.317 E23.55472
G0 F3600 X115.119 Y116.65
G1 F1800 X107.716 Y116.65 E24.33203
G0 F3600 X108.248 Y118.983
G1 F1800 X114.561 Y118.983 E24.9949
G0 F3600 X114.317 Y120.047
G1 F1800 X114.317 Y101.203 E26.97352
G0 F3600 X111.984 Y101.203
G1 F1800 X111.984 Y130.072 E30.00476
G0 F3600 X109.651 Y130.072
G1 F1800 X109.651 Y101.203 E33.03601
G0 F3600 X106.75 Y111.984
G1 F1800 X116.059 Y111.984 E34.01345
G0 F3600 X114.066 Y121.316
G1 F1800 X108.706 Y121.316 E34.57625
G0 F3600 X108.218 Y123.649
G1 F1800 X114.576 Y123.649 E35.24384
G0 F3600 X114.317 Y122.377
G1 F1800 X114.317 Y130.072 E36.05182
G0 F3600 X115.588 Y128.315
G1 F1800 X107.267 Y128.315 E36.92552
G0 F3600 X107.318 Y128.111
G1 F1800 X107.318 Y130.072 E37.13143
G0 F3600 X107.785 Y125.982
G1 F1800 X115.078 Y125.982 E37.89719
G10
G0 F3600 X115.078 Y100.884
G0 X115.078 Y99.668
G0 X120.905 Y99.618
G0 X121.3 Y100.013
;TYPE:WALL-OUTER
G11
G1 F1800 X101.7 Y100.013 E39.95519
G1 X101.7 Y92.988 E40.69282
G1 X121.3 Y92.988 E42.75082
G1 X121.3 Y100.013 E43.48844
G0 F3600 X121.1 Y100.013
G0 X120.905 Y99.618
G0 X103.039 Y99.019
G0 X103.04 Y98.595
G1 F1800 X103.215 Y98.595 E43.50682
G1 X103.216 Y98.595 E43.50692
G1 X119.918 Y98.632 E45.26063
G1 X119.959 Y94.545 E45.68979
G1 X119.96 Y94.544 E45.68994
G1 X119.96 Y94.369 E45.70831
G1 X119.785 Y94.369 E45.72021
G1 X119.784 Y94.369 E45.72031
G1 X103.082 Y94.331 E47.47403
G1 X103.041 Y98.419 E47.90329
G1 X103.04 Y98.42 E47.90344
G1 X103.04 Y98.595 E47.91533
G0 F3600 X103.215 Y98.595
G0 X103.216 Y98.595
G0 X103.24 Y98.595
G0 X102.712 Y98.919
;TYPE:WALL-INNER
G1 F1800 X102.887 Y98.919 E47.9337
G1 X102.888 Y98.919 E47.93381
G1 X120.24 Y98.958 E49.75577
G1 X120.287 Y94.221 E50.25318
G1 X120.288 Y94.22 E50.25333
G1 X120.288 Y94.045 E50.2717
G1 X120.113 Y94.045 E50.2836
G1 X120.112 Y94.045 E50.2837
G1 X102.76 Y94.005 E52.10567
G1 X102.713 Y98.743 E52.60318
G1 X102.712 Y98.744 E52.60333
G1 X102.712 Y98.919 E52.61522
G0 F3600 X102.641 Y98.989
G0 X120.905 Y99.618
G0 X120.975 Y99.688
G1 F1800 X102.025 Y99.688 E54.60497
G1 X102.025 Y93.313 E55.27435
G1 X120.975 Y93.313 E57.2641
G1 X120.975 Y99.688 E57.93347
G0 F3600 X120.625 Y99.338
G1 F1800 X120.587 Y99.338 E57.93746
G1 X102.375 Y99.338 E59.84972
G1 X102.375 Y99.268 E59.85707
G1 X120.587 Y99.309 E60.12752
G1 X120.625 Y99.338 E60.12839
G0 F3600 X120.599 Y99.068
G1 F1800 X120.608 Y98.829 E60.15666
G1 X120.609 Y98.583 E60.18515
G1 X120.61 Y98.336 E60.2136
G1 X120.611 Y98.09 E60.24172
G1 X120.612 Y97.843 E60.26981
G1 X120.614 Y97.598 E60.29759
G1 X120.615 Y97.351 E60.3253
G1 X120.616 Y97.105 E60.35276
G1 X120.617 Y96.858 E60.3801
G1 X120.618 Y96.612 E60.40719
G1 X120.62 Y96.366 E60.43412
G1 X120.621 Y96.12 E60.46084
G1 X120.622 Y95.873 E60.48752
G1 X120.623 Y95.627 E60.51386
G1 X120.624 Y95.38 E60.54017
G1 X120.625 Y95.134 E60.56622
G1 X120.627 Y94.888 E60.59212
G1 X120.628 Y94.642 E60.61781
G1 X120.629 Y94.395 E60.64337
G1 X120.63 Y94.149 E60.66869
G0 F3600 X120.159 Y93.678
G1 F1800 X120.507 Y93.778 E60.70475
G0 F3600 X120.631 Y93.655
G1 F1800 X120.755 Y93.531 E60.72079
G0 F3600 X120.801 Y93.577
G0 X120.104 Y93.87
G0 X119.911 Y93.677
G1 F1800 X119.664 Y93.677 E60.74932
G1 X119.416 Y93.677 E60.77789
G1 X119.168 Y93.677 E60.80646
G1 X118.92 Y93.676 E60.83481
G1 X118.672 Y93.676 E60.86323
G1 X118.425 Y93.676 E60.89154
G1 X118.177 Y93.676 E60.91996
G1 X117.929 Y93.675 E60.94815
G1 X117.681 Y93.675 E60.97643
G1 X117.433 Y93.674 E61.00448
G1 X117.186 Y93.674 E61.03256
G1 X116.938 Y93.674 E61.06076
G1 X116.69 Y93.674 E61.08888
G1 X116.442 Y93.673 E61.11678
G1 X116.195 Y93.673 E61.14472
G1 X115.947 Y93.673 E61.17277
G1 X115.699 Y93.673 E61.20074
G1 X115.451 Y93.672 E61.22849
G1 X115.204 Y93.672 E61.2562
G1 X114.956 Y93.672 E61.28403
G1 X114.708 Y93.672 E61.31186
G1 X114.46 Y93.671 E61.33946
G1 X114.213 Y93.671 E61.36702
G1 X113.965 Y93.671 E61.3947
G1 X113.717 Y93.671 E61.42238
G1 X113.469 Y93.67 E61.44983
G1 X113.222 Y93.67 E61.47725
G1 X112.974 Y93.669 E61.50455
G1 X112.726 Y93.669 E61.53201
G1 X112.478 Y93.669 E61.55946
G1 X112.231 Y93.669 E61.58673
G1 X111.982 Y93.668 E61.61399
G1 X111.735 Y93.668 E61.64119
G1 X111.487 Y93.668 E61.66842
G1 X111.24 Y93.668 E61.69554
G1 X110.991 Y93.667 E61.72266
G1 X110.744 Y93.667 E61.7497
G1 X110.496 Y93.667 E61.77678
G1 X110.248 Y93.667 E61.80387
G1 X110.001 Y93.666 E61.83062
G1 X109.753 Y93.666 E61.85755
G1 X109.505 Y93.666 E61.88448
G1 X109.257 Y93.665 E61.91119
G1 X109.01 Y93.665 E61.93794
G1 X108.762 Y93.665 E61.96473
G1 X108.514 Y93.665 E61.99151
G1 X108.266 Y93.664 E62.01807
G1 X108.018 Y93.664 E62.04471
G1 X107.771 Y93.664 E62.07123
G1 X107.523 Y93.663 E62.09765
G1 X107.275 Y93.663 E62.12421
G1 X107.027 Y93.663 E62.15069
G1 X106.779 Y93.662 E62.17696
G1 X106.532 Y93.662 E62.20326
G1 X106.284 Y93.662 E62.22967
G1 X106.036 Y93.662 E62.25601
G1 X105.788 Y93.661 E62.28213
G1 X105.541 Y93.661 E62.30828
G1 X105.293 Y93.661 E62.33455
G1 X105.045 Y93.661 E62.36074
G1 X104.797 Y93.66 E62.3867
G1 X104.55 Y93.66 E62.41264
G1 X104.302 Y93.66 E62.43868
G1 X104.054 Y93.66 E62.46472
G1 X103.806 Y93.659 E62.49053
G1 X103.559 Y93.659 E62.51632
G1 X103.311 Y93.659 E62.54221
G1 X103.063 Y93.659 E62.5681
G1 X102.815 Y93.658 E62.59377
G1 X102.568 Y93.658 E62.61941
G1 X102.392 Y93.73 E62.64679
G1 X102.391 Y93.976 E62.67557
G1 X102.389 Y94.222 E62.70428
G1 X102.388 Y94.469 E62.73281
G1 X102.387 Y94.715 E62.761
G1 X102.386 Y94.961 E62.78905
G1 X102.385 Y95.208 E62.81706
G1 X102.383 Y95.454 E62.84488
G1 X102.382 Y95.7 E62.87241
G1 X102.381 Y95.946 E62.89972
G1 X102.38 Y96.193 E62.92699
G1 X102.378 Y96.439 E62.954
G1 X102.377 Y96.685 E62.98079
G1 X102.376 Y96.931 E63.00743
G1 X102.375 Y97.178 E63.03396
G1 X102.374 Y97.424 E63.06023
G1 X102.372 Y97.67 E63.08636
G1 X102.371 Y97.916 E63.11226
G1 X102.37 Y98.163 E63.13805
G1 X102.369 Y98.409 E63.16358
G1 X102.367 Y98.655 E63.18897
G1 X102.366 Y98.902 E63.21424
G1 X102.262 Y99.045 E63.23164
G0 F3600 X102.375 Y99.11
G10
G0 X104.983 Y98.944
G0 X104.985 Y98.048
;TIME_ELAPSED:28.795628
;LAYER:1
M106 S255
G0 F4800 X104.985 Y98.048 Z0.5
;TYPE:SUPPORT
G11
G1 F1800 X107.318 Y98.053 E63.39495
G1 X107.318 Y94.89 E63.61636
G1 X109.651 Y94.896 E63.77967
G1 X109.651 Y98.059 E64.00108
G1 X111.984 Y98.064 E64.16439
G1 X111.984 Y94.902 E64.38573
G1 X114.317 Y94.907 E64.54904
G1 X114.317 Y98.07 E64.77045
G1 X116.65 Y98.075 E64.93376
G1 X116.65 Y94.913 E65.1551
G1 X118.983 Y94.918 E65.31841
G1 X119.404 Y94.919 E65.34788
G1 X119.374 Y98.082 E65.5693
G1 X118.983 Y98.081 E65.59667
G1 X118.983 Y94.918 E65.81808
G10
G0 F4800 X118.983 Y95.238
G0 X104.985 Y97.727
G0 X104.985 Y98.048
G11
G1 F1800 X103.596 Y98.045 E65.91531
G1 X103.626 Y94.881 E66.1368
G1 X104.985 Y94.885 E66.23193
G1 X104.985 Y98.048 E66.45334
G10
G0 F4800 X104.985 Y97.727
G0 X104.985 Y97.763
G0 X104.985 Y97.807
G0 X104.985 Y100.804
G0 X104.985 Y100.848
G0 X104.985 Y104.702
G11
G1 F1800 X105.042 Y105.039 E66.47727
G1 X105.108 Y105.315 E66.49713
G1 X105.181 Y105.582 E66.51651
G1 X105.471 Y106.748 E66.60061
G1 X105.533 Y107.143 E66.6286
G1 X105.643 Y107.805 E66.67558
G1 X105.984 Y109.171 E66.77413
G1 X106.159 Y109.838 E66.8224
G1 X106.203 Y110.306 E66.85531
G1 X106.289 Y110.633 E66.87897
G1 X106.851 Y113.035 E67.05165
G1 X107.082 Y114.266 E67.13933
G1 X107.215 Y114.65 E67.16778
G1 X107.318 Y115.337 E67.2164
G1 X107.334 Y115.444 E67.22398
G1 X107.37 Y115.555 E67.23214
G1 X107.434 Y115.784 E67.24879
G1 X107.54 Y116.509 E67.30008
G1 X107.962 Y118.286 E67.42793
G1 X107.971 Y118.367 E67.43363
G1 X108.147 Y119.165 E67.49084
G1 X108.607 Y121.119 E67.63135
G1 X108.191 Y122.962 E67.76361
G1 X108.086 Y123.576 E67.80721
G1 X108.014 Y124.096 E67.84396
G1 X107.904 Y124.515 E67.87429
G1 X107.869 Y124.654 E67.88432
G1 X107.858 Y124.738 E67.89025
G1 X107.687 Y125.439 E67.94076
G1 X107.646 Y125.805 E67.96654
G1 X107.646 Y126.028 E67.98215
G1 X107.448 Y126.672 E68.02931
G1 X107.421 Y126.857 E68.0424
G1 X107.318 Y127.451 E68.0846
G1 X107.318 Y130.212 E68.27787
G1 X106.878 Y130.212 E68.30867
G1 X106.719 Y129.998 E68.32733
G1 X106.891 Y129.305 E68.37731
G1 X106.958 Y129.185 E68.38693
G1 X107.058 Y128.605 E68.42813
G1 X107.085 Y128.468 E68.43791
G1 X107.274 Y127.706 E68.49286
G1 X107.318 Y127.451 E68.51098
G0 F4800 X114.317 Y121.768
G1 F1800 X114.184 Y121.206 E68.5514
G1 X114.317 Y120.651 E68.59135
G1 X114.482 Y119.961 E68.64101
G1 X114.904 Y118.124 E68.77295
G1 X115.02 Y117.653 E68.80691
G1 X115.027 Y117.592 E68.81121
G1 X115.191 Y116.915 E68.85997
G1 X115.239 Y116.77 E68.87066
G1 X115.401 Y115.889 E68.93336
G1 X115.401 Y115.685 E68.94764
G1 X115.548 Y115.2 E68.98312
G1 X115.782 Y113.94 E69.07283
G1 X116.157 Y112.712 E69.16271
G1 X116.159 Y112.157 E69.20156
G1 X116.564 Y110.63 E69.31214
G1 X116.572 Y110.588 E69.31513
G1 X116.594 Y110.225 E69.34059
G1 X116.65 Y109.998 E69.35696
G1 X116.65 Y100.563 E70.01741
G1 X118.983 Y100.563 E70.18072
G1 X119.153 Y100.563 E70.19262
G1 X118.983 Y101.03 E70.22741
G1 X118.983 Y100.563 E70.2601
G10
G0 F4800 X118.983 Y100.884
G0 X104.985 Y104.702
G11
G1 F1800 X104.872 Y104.034 E70.30752
G1 X103.668 Y100.563 E70.56469
G1 X104.985 Y100.563 E70.65688
G1 X104.985 Y104.702 E70.94661
G0 F4800 X107.318 Y115.337
G1 F1800 X107.318 Y100.563 E71.98079
G1 X109.651 Y100.563 E72.1441
G1 X109.651 Y130.212 E74.21953
G1 X111.984 Y130.212 E74.38284
G1 X111.984 Y100.563 E76.45827
G1 X114.317 Y100.563 E76.62158
G1 X114.317 Y120.651 E78.02774
G0 F4800 X114.317 Y121.768
G1 F1800 X114.642 Y123.138 E78.1263
G1 X114.698 Y123.545 E78.15506
G1 X115.602 Y127.75 E78.45614
G1 X115.645 Y127.919 E78.46834
G1 X115.8 Y128.62 E78.5186
G1 X115.933 Y129.343 E78.57006
G1 X116.055 Y130.066 E78.62138
G1 X115.935 Y130.212 E78.63461
G1 X114.317 Y130.212 E78.74787
G1 X114.317 Y121.768 E79.33895
G10
G0 F4800 X114.317 Y100.884
G0 X114.317 Y99.668
G0 X120.625 Y99.338
;TYPE:WALL-INNER
G11
G1 F2100 X120.587 Y99.338 E79.34161
G1 X102.375 Y99.338 E80.61645
G1 X102.375 Y99.268 E80.62135
G1 X120.587 Y99.309 E80.80165
G1 X120.625 Y99.338 E80.80224
G0 F4800 X120.975 Y99.688
G1 F2100 X102.025 Y99.688 E82.12874
G1 X102.025 Y93.313 E82.57499
G1 X120.975 Y93.313 E83.90149
G1 X120.975 Y99.688 E84.34774
G0 F4800 X120.905 Y99.618
G0 X102.641 Y98.989
G0 X102.712 Y98.919
G1 F2100 X102.887 Y98.919 E84.35999
G1 X102.888 Y98.919 E84.36006
G1 X120.24 Y98.958 E85.5747
G1 X120.287 Y94.221 E85.9063
G1 X120.288 Y94.22 E85.9064
G1 X120.288 Y94.045 E85.91865
G1 X120.113 Y94.045 E85.92658
G1 X120.112 Y94.045 E85.92665
G1 X102.76 Y94.005 E87.14129
G1 X102.713 Y98.743 E87.47297
G1 X102.712 Y98.744 E87.47307
G1 X102.712 Y98.919 E87.481
G0 F4800 X103.04 Y98.595
;TYPE:WALL-OUTER
G1 F1800 X103.215 Y98.595 E87.49325
G1 X103.216 Y98.595 E87.49332
G1 X119.918 Y98.632 E88.66246
G1 X119.959 Y94.545 E88.94856
G1 X119.96 Y94.544 E88.94866
G1 X119.96 Y94.369 E88.96091
G1 X119.785 Y94.369 E88.96884
G1 X119.784 Y94.369 E88.96891
G1 X103.082 Y94.331 E90.13805
G1 X103.041 Y98.419 E90.42423
G1 X103.04 Y98.42 E90.42433
G1 X103.04 Y98.595 E90.43226
G0 F4800 X103.215 Y98.595
G0 X103.216 Y98.595
G0 X103.24 Y98.595
G0 X103.239 Y99.02
G0 X120.905 Y99.618
G0 X121.3 Y100.013
G1 F1800 X101.7 Y100.013 E91.80426
G1 X101.7 Y92.988 E92.29601
G1 X121.3 Y92.988 E93.66801
G1 X121.3 Y100.013 E94.15976
G0 F4800 X121.1 Y100.013
G0 X120.905 Y99.618
G0 X120.767 Y99.248
G0 X120.783 Y99.231
G1 F1500 X120.709 Y99.059 E94.165
G1 X120.605 Y98.915 E94.17917
G1 X120.606 Y98.666 E94.1984
G1 X120.608 Y98.417 E94.21737
G1 X120.609 Y98.169 E94.23627
G1 X120.61 Y97.92 E94.25514
G1 X120.611 Y97.671 E94.27387
G1 X120.612 Y97.422 E94.29249
G1 X120.614 Y97.174 E94.3108
G1 X120.615 Y96.925 E94.32917
G1 X120.616 Y96.676 E94.3474
G1 X120.617 Y96.427 E94.36553
G1 X120.618 Y96.179 E94.38348
G1 X120.62 Y95.93 E94.40131
G1 X120.621 Y95.682 E94.41902
G1 X120.622 Y95.433 E94.43665
G1 X120.623 Y95.184 E94.45418
G1 X120.624 Y94.935 E94.47161
G1 X120.626 Y94.687 E94.48877
G1 X120.627 Y94.438 E94.50595
G1 X120.628 Y94.189 E94.52298
G1 X120.629 Y93.94 E94.53991
G1 X120.626 Y93.697 E94.55683
G1 X120.397 Y93.678 E94.57507
G1 X120.15 Y93.678 E94.59414
G1 X119.903 Y93.677 E94.61321
G1 X119.656 Y93.677 E94.63218
G1 X119.408 Y93.677 E94.65123
G1 X119.161 Y93.677 E94.6702
G1 X118.914 Y93.676 E94.68917
G1 X118.667 Y93.676 E94.70804
G1 X118.419 Y93.676 E94.72698
G1 X118.172 Y93.676 E94.74585
G1 X117.925 Y93.675 E94.76473
G1 X117.678 Y93.675 E94.7835
G1 X117.43 Y93.674 E94.80235
G1 X117.184 Y93.674 E94.82099
G1 X116.936 Y93.674 E94.83979
G1 X116.689 Y93.674 E94.85846
G1 X116.442 Y93.673 E94.87714
G1 X116.195 Y93.673 E94.89576
G1 X115.947 Y93.673 E94.91446
G1 X115.7 Y93.673 E94.93303
G1 X115.453 Y93.672 E94.95161
