;FLAVOR:UltiGCode
;TIME:1747
;MATERIAL:3442
;MATERIAL2:0
;NOZZLE_DIAMETER:0.4
;Generated with Cura_SteamEngine 3.4.0
M82 ;absolute extrusion mode

G92 E0
G10
;LAYER_COUNT:100
;LAYER:0
M107
G0 F3600 X104.84 Y101.255 Z0.3
;TYPE:SUPPORT
G11
G1 F1800 X118.037 Y101.255 E1.38569
G1 X118.064 Y101.48 E1.40948
G1 X118.399 Y101.892 E1.46524
G1 X118.112 Y103.309 E1.61704
G1 X118.081 Y103.72 E1.66032
G1 X117.995 Y103.913 E1.6825
G1 X117.925 Y104.217 E1.71526
G1 X117.439 Y105.912 E1.90041
G1 X117.404 Y106.247 E1.93577
G1 X117.127 Y107.145 E2.03445
G1 X117.125 Y107.365 E2.05755
G1 X116.979 Y107.722 E2.09805
G1 X116.948 Y108.038 E2.13139
G1 X116.595 Y109.185 E2.2574
G1 X116.59 Y109.404 E2.2804
G1 X116.455 Y109.745 E2.3189
G1 X116.28 Y110.609 E2.41147
G1 X116.259 Y110.68 E2.41924
G1 X116.14 Y110.988 E2.45391
G1 X116.07 Y111.418 E2.49966
G1 X115.97 Y111.664 E2.52754
G1 X115.879 Y112.157 E2.58018
G1 X115.83 Y112.275 E2.59359
G1 X115.774 Y112.562 E2.6243
G1 X115.609 Y113.039 E2.67729
G1 X115.608 Y113.238 E2.69819
G1 X115.473 Y113.583 E2.73709
G1 X115.424 Y113.939 E2.77482
G1 X115.259 Y114.401 E2.82633
G1 X115.077 Y115.296 E2.92223
G1 X114.97 Y115.549 E2.95107
G1 X114.082 Y119.076 E3.33297
G1 X115.896 Y127.593 E4.24731
G1 X115.774 Y127.743 E4.26761
G1 X107.084 Y127.743 E5.18006
G1 X106.963 Y127.595 E5.20013
G1 X108.701 Y119.058 E6.11491
G1 X108.034 Y116.415 E6.40112
G1 X107.938 Y116.186 E6.42719
G1 X107.922 Y116.126 E6.43371
G1 X107.89 Y115.826 E6.46539
G1 X107.748 Y115.442 E6.50838
G1 X107.692 Y115.11 E6.54373
G1 X107.557 Y114.732 E6.58588
G1 X107.377 Y113.853 E6.68009
G1 X107.219 Y113.368 E6.73365
G1 X107.166 Y113.071 E6.76533
G1 X107.067 Y112.805 E6.79513
G1 X106.897 Y111.945 E6.88718
G1 X106.412 Y110.248 E7.07249
G1 X106.371 Y109.893 E7.11002
G1 X106.046 Y108.834 E7.22633
G1 X106.017 Y108.513 E7.26017
G1 X105.653 Y107.283 E7.39486
G1 X105.543 Y106.834 E7.4434
G1 X105.374 Y105.985 E7.53429
G1 X105.193 Y105.494 E7.58924
G1 X105.023 Y104.636 E7.68108
G1 X104.709 Y103.565 E7.79827
G1 X104.709 Y103.219 E7.8346
G1 X104.457 Y101.892 E7.97642
G1 X104.814 Y101.46 E8.03527
G1 X104.84 Y101.255 E8.05697
G0 F3600 X104.985 Y101.395
G1 F1800 X104.985 Y104.009 E8.33144
G0 F3600 X105.235 Y104.985
G1 F1800 X117.559 Y104.985 E9.62546
G0 F3600 X118.102 Y102.652
G1 F1800 X104.744 Y102.652 E11.02805
G0 F3600 X107.318 Y101.395
G1 F1800 X107.318 Y113.122 E12.25938
G0 F3600 X107.047 Y111.984
G1 F1800 X115.768 Y111.984 E13.17509
G0 F3600 X116.342 Y109.651
G1 F1800 X106.443 Y109.651 E14.21448
G0 F3600 X105.809 Y107.318
G1 F1800 X116.985 Y107.318 E15.38796
G0 F3600 X116.65 Y108.534
G1 F1800 X116.65 Y101.395 E16.13756
G0 F3600 X114.317 Y101.395
G1 F1800 X114.317 Y117.571 E17.83604
G0 F3600 X114.548 Y116.65
G1 F1800 X108.237 Y116.65 E18.49869
G0 F3600 X108.824 Y118.983
G1 F1800 X113.96 Y118.983 E19.03797
G0 F3600 X114.317 Y120.853
G1 F1800 X114.317 Y127.603 E19.74672
G0 F3600 X115.41 Y125.982
G1 F1800 X107.433 Y125.982 E20.58431
G0 F3600 X107.318 Y126.55
G1 F1800 X107.318 Y127.603 E20.69487
G0 F3600 X109.651 Y127.603
G1 F1800 X109.651 Y101.395 E23.44671
G0 F3600 X111.984 Y101.395
G1 F1800 X111.984 Y127.603 E26.19855
G0 F3600 X114.913 Y123.649
G1 F1800 X107.908 Y123.649 E26.93408
G0 F3600 X108.383 Y121.316
G1 F1800 X114.415 Y121.316 E27.56744
G0 F3600 X115.14 Y114.317
G1 F1800 X107.614 Y114.317 E28.35767
G10
G0 F3600 X107.614 Y101.076
G0 X107.614 Y99.86
G0 X103.024 Y99.229
G0 X103.025 Y98.805
;TYPE:WALL-OUTER
G11
G1 F1800 X103.202 Y98.805 E28.37625
G1 X103.203 Y98.805 E28.37636
G1 X119.931 Y98.843 E30.1328
G1 X119.97 Y97.031 E30.3231
G1 X119.971 Y97.03 E30.32325
G1 X119.973 Y96.853 E30.34184
G1 X119.796 Y96.853 E30.35384
G1 X119.795 Y96.853 E30.35394
G1 X103.067 Y96.819 E32.11038
G1 X103.028 Y98.627 E32.30027
G1 X103.027 Y98.628 E32.30042
G1 X103.025 Y98.805 E32.31241
G0 F3600 X103.202 Y98.805
G0 X103.203 Y98.805
G0 X103.225 Y98.805
G0 X103.224 Y99.23
G0 X120.904 Y99.81
G0 X121.299 Y100.205
G1 F1800 X101.702 Y100.205 E34.3701
G1 X101.701 Y95.632 E34.85026
G1 X101.701 Y95.457 E34.86864
G1 X101.876 Y95.457 E34.88053
G1 X121.299 Y95.457 E36.91995
G1 X121.299 Y100.205 E37.41849
G0 F3600 X121.099 Y100.205
G0 X120.974 Y99.88
;TYPE:WALL-INNER
G1 F1800 X102.027 Y99.88 E39.40792
G1 X102.026 Y95.957 E39.81984
G1 X102.026 Y95.782 E39.83821
G1 X102.201 Y95.782 E39.8501
G1 X120.974 Y95.782 E41.82127
G1 X120.974 Y99.88 E42.25156
G0 F3600 X120.904 Y99.81
G0 X102.622 Y99.198
G0 X102.693 Y99.129
G1 F1800 X102.87 Y99.129 E42.27014
G1 X102.871 Y99.129 E42.27025
G1 X120.249 Y99.169 E44.09494
G1 X120.302 Y96.707 E44.35351
G1 X120.303 Y96.706 E44.35366
G1 X120.305 Y96.529 E44.37225
G1 X120.128 Y96.529 E44.38424
G1 X120.127 Y96.529 E44.38435
G1 X102.749 Y96.493 E46.20904
G1 X102.696 Y98.951 E46.46719
G1 X102.695 Y98.952 E46.46734
G1 X102.693 Y99.129 E46.47934
G0 F3600 X102.622 Y99.198
G0 X120.624 Y99.53
G1 F1800 X120.592 Y99.53 E46.4827
G1 X102.377 Y99.53 E48.39527
G1 X102.377 Y99.478 E48.40073
G1 X120.592 Y99.52 E48.57013
G1 X120.624 Y99.53 E48.57029
G0 F3600 X120.624 Y96.18
G1 F1800 X102.406 Y96.142 E50.48318
G1 X102.376 Y96.132 E50.4865
G1 X102.406 Y96.132 E50.48655
G1 X120.624 Y96.132 E50.64504
G1 X120.624 Y96.18 E50.65008
G0 F3600 X120.695 Y96.441
G1 F1800 X120.639 Y96.632 E50.66967
G1 X120.636 Y96.877 E50.69371
G1 X120.634 Y97.122 E50.71804
G1 X120.631 Y97.367 E50.74295
G1 X120.628 Y97.612 E50.76824
G1 X120.626 Y97.857 E50.79374
G1 X120.623 Y98.101 E50.81966
G1 X120.621 Y98.347 E50.84601
G1 X120.618 Y98.591 E50.87273
G1 X120.615 Y98.836 E50.89992
G1 X120.613 Y99.081 E50.92741
G1 X120.539 Y99.256 E50.95021
G0 F3600 X120.659 Y99.375
G0 X102.665 Y99.156
G0 X102.521 Y99.056
G0 X102.359 Y98.895
G1 F1800 X102.357 Y99.14 E50.97388
G1 X102.244 Y99.274 E50.98903
G0 F3600 X102.362 Y98.65
G1 F1800 X102.364 Y98.405 E51.01343
G1 X102.367 Y98.16 E51.03835
G1 X102.369 Y97.915 E51.06349
G1 X102.372 Y97.669 E51.08924
G1 X102.375 Y97.425 E51.11523
G1 X102.377 Y97.18 E51.14155
G1 X102.38 Y96.935 E51.16838
G1 X102.382 Y96.69 E51.19542
G1 X102.385 Y96.445 E51.22299
G1 X102.532 Y96.345 E51.24022
G0 F3600 X102.505 Y96.243
G10
G0 X102.665 Y99.156
G0 X104.985 Y99.86
G0 X104.985 Y101.076
G0 X104.985 Y104.505
;TIME_ELAPSED:25.198699
;LAYER:1
M106 S255
G0 F4800 X104.985 Y104.505 Z0.5
;TYPE:SUPPORT
G11
G1 F1800 X105.025 Y104.642 E51.25021
G1 X105.192 Y105.492 E51.31084
G1 X105.375 Y105.987 E51.34779
G1 X105.543 Y106.834 E51.40823
G1 X105.653 Y107.283 E51.44059
G1 X106.017 Y108.513 E51.53038
G1 X106.046 Y108.837 E51.55315
G1 X106.371 Y109.891 E51.63036
G1 X106.412 Y110.247 E51.65545
G1 X106.895 Y111.937 E51.77848
G1 X106.898 Y111.948 E51.77928
G1 X106.943 Y112.174 E51.79541
G1 X107.066 Y112.8 E51.84007
G1 X107.075 Y112.831 E51.84233
G1 X107.168 Y113.075 E51.86061
G1 X107.215 Y113.345 E51.87979
G1 X107.219 Y113.367 E51.88136
G1 X107.318 Y113.671 E51.90374
G1 X107.377 Y113.853 E51.91713
G1 X107.557 Y114.732 E51.97994
G1 X107.692 Y115.11 E52.00803
G1 X107.748 Y115.442 E52.0316
G1 X107.89 Y115.826 E52.06026
G1 X107.922 Y116.124 E52.08124
G1 X107.937 Y116.182 E52.08543
G1 X108.043 Y116.435 E52.10463
G1 X108.043 Y116.448 E52.10554
G1 X108.701 Y119.058 E52.29396
G1 X107.318 Y125.851 E52.77923
G1 X107.318 Y127.743 E52.91167
G1 X107.084 Y127.743 E52.92805
G1 X106.963 Y127.595 E52.94143
G1 X107.318 Y125.851 E53.06601
G0 F4800 X114.317 Y120.18
G1 F1800 X114.082 Y119.076 E53.14502
G1 X114.317 Y118.143 E53.21237
G1 X114.97 Y115.549 E53.39962
G1 X115.077 Y115.296 E53.41885
G1 X115.092 Y115.232 E53.42345
G1 X115.259 Y114.401 E53.48278
G1 X115.426 Y113.933 E53.51756
G1 X115.431 Y113.909 E53.51928
G1 X115.472 Y113.583 E53.54228
G1 X115.562 Y113.356 E53.55937
G1 X115.609 Y113.232 E53.56866
G1 X115.609 Y113.039 E53.58217
G1 X115.68 Y112.831 E53.59755
G1 X115.774 Y112.557 E53.61783
G1 X115.829 Y112.275 E53.63794
G1 X115.878 Y112.158 E53.64682
G1 X115.969 Y111.666 E53.68184
G1 X116.07 Y111.417 E53.70065
G1 X116.14 Y110.989 E53.73101
G1 X116.262 Y110.671 E53.75485
G1 X116.281 Y110.607 E53.75953
G1 X116.455 Y109.745 E53.82108
G1 X116.59 Y109.404 E53.84676
G1 X116.595 Y109.38 E53.84847
G1 X116.595 Y109.185 E53.86212
G1 X116.65 Y109.007 E53.87516
G1 X116.948 Y108.038 E53.94613
G1 X116.979 Y107.722 E53.96835
G1 X117.125 Y107.365 E53.99535
G1 X117.127 Y107.35 E53.99641
G1 X117.127 Y107.145 E54.01076
G1 X117.404 Y106.247 E54.07655
G1 X117.439 Y105.912 E54.10012
G1 X117.925 Y104.217 E54.22355
G1 X117.995 Y103.913 E54.24539
G1 X118.081 Y103.72 E54.26018
G1 X118.112 Y103.309 E54.28903
G1 X118.399 Y101.892 E54.39024
G1 X118.064 Y101.48 E54.42741
G1 X118.037 Y101.255 E54.44327
G1 X116.65 Y101.255 E54.54036
G1 X116.65 Y109.007 E55.083
G0 F4800 X114.317 Y118.143
G1 F1800 X114.317 Y101.255 E56.26516
G1 X111.984 Y101.255 E56.42847
G1 X111.984 Y127.743 E58.28263
G1 X109.651 Y127.743 E58.44594
G1 X109.651 Y101.255 E60.3001
G1 X107.318 Y101.255 E60.46341
G1 X107.318 Y113.671 E61.33253
G0 F4800 X104.985 Y104.505
G1 F1800 X104.973 Y104.465 E61.33545
G1 X104.713 Y103.585 E61.39969
G1 X104.709 Y103.565 E61.40111
G1 X104.709 Y103.219 E61.42533
G1 X104.457 Y101.892 E61.51988
G1 X104.814 Y101.46 E61.55911
G1 X104.84 Y101.255 E61.57358
G1 X104.985 Y101.255 E61.58373
G1 X104.985 Y104.505 E61.81123
G0 F4800 X114.317 Y120.18
G1 F1800 X115.896 Y127.593 E62.34178
G1 X115.774 Y127.743 E62.35531
G1 X114.317 Y127.743 E62.4573
G1 X114.317 Y120.18 E62.98671
G10
G0 F4800 X114.317 Y101.076
G0 X114.317 Y99.86
G0 X120.624 Y99.53
;TYPE:WALL-INNER
G11
G1 F2100 X120.592 Y99.53 E62.98895
G1 X102.378 Y99.53 E64.26393
G1 X102.378 Y99.478 E64.26757
G1 X120.592 Y99.52 E64.3805
G1 X120.624 Y99.53 E64.3806
G0 F4800 X102.665 Y99.156
G0 X102.406 Y96.142
G1 F2100 X102.377 Y97.531 E64.47786
G1 X102.377 Y96.143 E64.48185
G1 X102.376 Y96.132 E64.48262
G1 X102.406 Y96.132 E64.48365
G1 X120.624 Y96.132 E65.75891
G1 X120.624 Y96.18 E65.76227
G1 X102.406 Y96.142 E65.86794
G0 F4800 X102.622 Y99.198
G0 X102.693 Y99.129
G1 F2100 X102.87 Y99.129 E65.88033
G1 X102.871 Y99.129 E65.8804
G1 X120.249 Y99.169 E67.09686
G1 X120.302 Y96.707 E67.26924
G1 X120.303 Y96.706 E67.26934
G1 X120.305 Y96.529 E67.28173
G1 X120.128 Y96.529 E67.28973
G1 X120.127 Y96.529 E67.2898
G1 X102.749 Y96.493 E68.50626
G1 X102.696 Y98.951 E68.67836
G1 X102.695 Y98.952 E68.67846
G1 X102.693 Y99.129 E68.68646
G0 F4800 X102.622 Y99.198
G0 X120.904 Y99.81
G0 X120.974 Y99.88
G1 F2100 X102.028 Y99.88 E70.01268
G1 X102.026 Y95.957 E70.28729
G1 X102.026 Y95.782 E70.29954
G1 X102.201 Y95.782 E70.30746
G1 X120.974 Y95.782 E71.62157
G1 X120.974 Y99.88 E71.90843
G0 F4800 X121.299 Y100.205
;TYPE:WALL-OUTER
G1 F1800 X101.703 Y100.205 E73.28015
G1 X101.701 Y95.632 E73.60026
G1 X101.701 Y95.457 E73.61251
G1 X101.876 Y95.457 E73.62044
G1 X121.299 Y95.457 E74.98005
G1 X121.299 Y100.205 E75.31241
G0 F4800 X121.099 Y100.205
G0 X120.904 Y99.81
G0 X103.024 Y99.229
G0 X103.025 Y98.805
G1 F1800 X103.202 Y98.805 E75.3248
G1 X103.203 Y98.805 E75.32487
G1 X119.931 Y98.843 E76.49583
G1 X119.97 Y97.031 E76.6227
G1 X119.971 Y97.03 E76.6228
G1 X119.973 Y96.853 E76.63519
G1 X119.796 Y96.853 E76.64319
G1 X119.795 Y96.853 E76.64326
G1 X103.067 Y96.819 E77.81422
G1 X103.028 Y98.627 E77.94081
G1 X103.027 Y98.628 E77.94091
G1 X103.025 Y98.805 E77.94891
G0 F4800 X103.202 Y98.805
G0 X103.203 Y98.805
G0 X103.225 Y98.805
G0 X103.224 Y99.23
G0 X102.665 Y99.156
G0 X102.528 Y98.678
G0 X102.364 Y98.842
G1 F1500 X102.366 Y98.592 E77.96526
G1 X102.369 Y98.342 E77.98176
G1 X102.371 Y98.092 E77.99861
G1 X102.363 Y97.853 E78.01511
G1 X102.241 Y97.728 E78.02521
G0 F4800 X102.282 Y97.687
G0 X102.523 Y98.931
G0 X102.361 Y99.092
G1 F1500 X102.449 Y99.252 E78.0366
G0 F4800 X102.517 Y99.184
G0 X120.417 Y99.351
G0 X120.608 Y99.159
G1 F1500 X120.611 Y98.909 E78.05535
G1 X120.614 Y98.659 E78.07385
G1 X120.616 Y98.409 E78.09216
G1 X120.619 Y98.158 E78.11018
G1 X120.622 Y97.909 E78.12776
G1 X120.624 Y97.658 E78.14533
G1 X120.627 Y97.408 E78.16248
G1 X120.63 Y97.158 E78.17933
G1 X120.633 Y96.908 E78.19593
G1 X120.635 Y96.657 E78.2124
G1 X120.592 Y96.453 E78.22624
G0 F4800 X120.476 Y96.569
G0 X120.8 Y99.216
;TYPE:SKIN
G1 F1500 X120.645 Y99.371 E78.23391
G0 F4800 X120.624 Y99.371
G10
G0 X104.985 Y99.86
G0 X104.985 Y101.076
G0 X104.985 Y104.506
;TIME_ELAPSED:41.936482
;LAYER:2
G0 F6000 X104.985 Y104.506 Z0.7
;TYPE:SUPPORT
G11
G1 F1800 X105.024 Y104.638 E78.24355
G1 X105.192 Y105.492 E78.30448
G1 X105.376 Y105.99 E78.34164
G1 X105.544 Y106.836 E78.40202
G1 X105.656 Y107.294 E78.43502
G1 X106.017 Y108.513 E78.52401
G1 X106.046 Y108.835 E78.54664
G1 X106.326 Y109.745 E78.61329
G1 X106.371 Y109.891 E78.62399
G1 X106.412 Y110.247 E78.64907
G1 X106.895 Y111.937 E78.77211
G1 X106.898 Y111.948 E78.77291
G1 X106.943 Y112.174 E78.78904
G1 X107.021 Y112.571 E78.81736
G1 X107.064 Y112.791 E78.83305
G1 X107.077 Y112.838 E78.83646
G1 X107.17 Y113.076 E78.85435
G1 X107.201 Y113.257 E78.8672
G1 X107.215 Y113.346 E78.87351
G1 X107.219 Y113.367 E78.87501
G1 X107.318 Y113.671 E78.89739
G1 X107.377 Y113.853 E78.91078
G1 X107.557 Y114.732 E78.97359
G1 X107.692 Y115.11 E79.00168
G1 X107.748 Y115.442 E79.02525
G1 X107.89 Y115.826 E79.05391
G1 X107.923 Y116.13 E79.07532
G1 X107.934 Y116.171 E79.07829
G1 X108.031 Y116.406 E79.09608
G1 X108.043 Y116.448 E79.09914
G1 X108.701 Y119.058 E79.28756
G1 X107.318 Y125.851 E79.77282
G1 X107.318 Y127.743 E79.90526
G1 X107.084 Y127.743 E79.92164
G1 X106.963 Y127.595 E79.93502
G1 X107.318 Y125.851 E80.05961
G0 F6000 X114.317 Y120.18
G1 F1800 X114.082 Y119.076 E80.13862
G1 X114.317 Y118.143 E80.20597
G1 X114.97 Y115.549 E80.39321
G1 X115.077 Y115.296 E80.41244
G1 X115.092 Y115.232 E80.41704
G1 X115.259 Y114.401 E80.47638
G1 X115.424 Y113.937 E80.51085
G1 X115.433 Y113.898 E80.51365
G1 X115.439 Y113.85 E80.51704
G1 X115.472 Y113.583 E80.53587
G1 X115.562 Y113.356 E80.55296
G1 X115.609 Y113.232 E80.56225
G1 X115.609 Y113.039 E80.57576
G1 X115.68 Y112.831 E80.59114
G1 X115.774 Y112.557 E80.61142
G1 X115.829 Y112.275 E80.63153
G1 X115.878 Y112.158 E80.64041
G1 X115.969 Y111.666 E80.67543
G1 X116.07 Y111.417 E80.69424
G1 X116.14 Y110.989 E80.7246
G1 X116.262 Y110.671 E80.74844
G1 X116.281 Y110.607 E80.75312
G1 X116.455 Y109.745 E80.81467
G1 X116.59 Y109.404 E80.84034
G1 X116.595 Y109.38 E80.84206
G1 X116.595 Y109.185 E80.85571
G1 X116.65 Y109.007 E80.86875
G1 X116.948 Y108.038 E80.93972
G1 X116.976 Y107.757 E80.95948
G1 X116.976 Y107.728 E80.96151
G1 X117.124 Y107.364 E80.98902
G1 X117.127 Y107.348 E80.99016
G1 X117.127 Y107.145 E81.00437
G1 X117.404 Y106.247 E81.07015
G1 X117.439 Y105.912 E81.09373
G1 X117.925 Y104.217 E81.21716
G1 X117.996 Y103.908 E81.23935
G1 X118.081 Y103.718 E81.25392
G1 X118.112 Y103.31 E81.28257
G1 X118.399 Y101.892 E81.38384
G1 X118.064 Y101.48 E81.42101
G1 X118.037 Y101.255 E81.43687
G1 X116.65 Y101.255 E81.53396
G1 X116.65 Y109.007 E82.0766
G0 F6000 X114.317 Y118.143
G1 F1800 X114.317 Y101.255 E83.25876
G1 X111.984 Y101.255 E83.42207
G1 X111.984 Y127.743 E85.27623
G1 X109.651 Y127.743 E85.43954
G1 X109.651 Y101.255 E87.2937
G1 X107.318 Y101.255 E87.45701
G1 X107.318 Y113.671 E88.32613
G0 F6000 X104.985 Y104.506
G1 F1800 X104.896 Y104.206 E88.34804
G1 X104.713 Y103.585 E88.39336
G1 X104.709 Y103.565 E88.39478
G1 X104.709 Y103.219 E88.419
G1 X104.457 Y101.892 E88.51355
G1 X104.815 Y101.459 E88.55288
G1 X104.841 Y101.255 E88.56728
G1 X104.985 Y101.255 E88.57736
G1 X104.985 Y104.506 E88.80493
G0 F6000 X114.317 Y120.18
G1 F1800 X115.896 Y127.593 E89.33548
G1 X115.774 Y127.743 E89.34901
G1 X114.317 Y127.743 E89.451
G1 X114.317 Y120.18 E89.98041
G10
G0 F6000 X114.317 Y101.076
G0 X114.317 Y99.86
G0 X120.624 Y99.53
;TYPE:WALL-INNER
G11
G1 F2400 X120.592 Y99.53 E89.98265
G1 X102.378 Y99.53 E91.25763
G1 X102.378 Y99.478 E91.26127
G1 X120.592 Y99.52 E91.3742
G1 X120.624 Y99.53 E91.3743
G0 F6000 X102.665 Y99.156
G0 X102.406 Y96.142
G1 F2400 X102.377 Y97.531 E91.47155
G1 X102.377 Y96.143 E91.47555
G1 X102.376 Y96.132 E91.47632
G1 X102.406 Y96.132 E91.47735
G1 X120.624 Y96.132 E92.75261
G1 X120.624 Y96.18 E92.75597
G1 X102.406 Y96.142 E92.86163
G0 F6000 X102.622 Y99.198
G0 X102.693 Y99.129
G1 F2400 X102.87 Y99.129 E92.87402
