;FLAVOR:UltiGCode
;TIME:1972
;MATERIAL:4006
;MATERIAL2:0
;NOZZLE_DIAMETER:0.4
;Generated with Cura_SteamEngine 3.4.0
M82 ;absolute extrusion mode

G92 E0
G10
;LAYER_COUNT:100
;LAYER:0
M107
G0 F3600 X104.121 Y95.383 Z0.3
;TYPE:SUPPORT
G11
G1 F1800 X118.899 Y95.417 E1.55169
G1 X118.879 Y97.579 E1.77871
G1 X104.101 Y97.547 E3.33041
G1 X104.121 Y95.383 E3.55764
G0 F3600 X104.258 Y95.653
G1 F1800 X118.756 Y95.653 E5.07993
G0 F3600 X116.65 Y95.553
G1 F1800 X116.65 Y97.434 E5.27743
G0 F3600 X114.317 Y97.429
G1 F1800 X114.317 Y95.547 E5.47504
G0 F3600 X111.984 Y95.542
G1 F1800 X111.984 Y97.424 E5.67265
G0 F3600 X109.651 Y97.418
G1 F1800 X109.651 Y95.536 E5.87026
G0 F3600 X107.318 Y95.531
G1 F1800 X107.318 Y97.413 E6.06787
G0 F3600 X104.985 Y97.408
G1 F1800 X104.985 Y95.525 E6.26559
G10
G0 F3600 X104.934 Y97.763
G0 X104.934 Y97.807
G0 X104.868 Y100.803
G0 X104.868 Y100.847
G0 X104.863 Y101.063
G11
G1 F1800 X118.004 Y101.063 E7.64539
G1 X118.027 Y101.259 E7.66611
G1 X118.397 Y101.721 E7.72826
G1 X118.201 Y102.601 E7.82293
G1 X118.197 Y102.908 E7.85516
G1 X118.089 Y103.237 E7.89152
G1 X118.089 Y103.447 E7.91357
G1 X118.082 Y103.488 E7.91794
G1 X117.932 Y103.914 E7.96536
G1 X117.827 Y104.635 E8.04187
G1 X117.559 Y105.63 E8.15006
G1 X117.554 Y105.878 E8.17611
G1 X117.487 Y106.051 E8.19559
G1 X117.442 Y106.394 E8.23191
G1 X117.181 Y107.401 E8.34114
G1 X117.18 Y107.638 E8.36603
G1 X117.116 Y107.793 E8.38363
G1 X117.062 Y108.171 E8.42373
G1 X116.915 Y108.62 E8.47334
G1 X116.911 Y108.849 E8.49738
G1 X116.845 Y109.024 E8.51702
G1 X116.793 Y109.414 E8.55833
G1 X116.423 Y110.932 E8.72239
G1 X116.419 Y111.175 E8.74791
G1 X116.159 Y112.147 E8.85356
G1 X116.159 Y112.377 E8.87771
G1 X116.045 Y112.689 E8.91259
G1 X116.042 Y112.893 E8.93401
G1 X115.99 Y113.027 E8.9491
G1 X115.925 Y113.447 E8.99373
G1 X115.781 Y113.93 E9.04665
G1 X115.554 Y115.166 E9.1786
G1 X115.401 Y115.656 E9.2325
G1 X115.401 Y115.883 E9.25633
G1 X115.391 Y115.938 E9.2622
G1 X115.347 Y116.063 E9.27612
G1 X115.281 Y116.455 E9.31786
G1 X115.23 Y116.595 E9.3335
G1 X115.181 Y116.93 E9.36905
G1 X115.048 Y117.321 E9.41241
G1 X115.017 Y117.665 E9.44868
G1 X114.552 Y119.663 E9.66408
G1 X114.136 Y119.994 E9.7199
G1 X113.99 Y120.42 E9.76718
G1 X114.524 Y122.656 E10.00856
G1 X114.529 Y122.701 E10.01332
G1 X114.529 Y122.914 E10.03568
G1 X114.757 Y123.778 E10.12951
G1 X114.804 Y124.158 E10.16971
G1 X114.902 Y124.432 E10.20027
G1 X115.023 Y125.266 E10.28875
G1 X115.123 Y125.524 E10.31781
G1 X115.132 Y125.562 E10.32191
G1 X115.168 Y125.927 E10.36042
G1 X115.401 Y126.808 E10.4561
G1 X115.401 Y127.026 E10.47899
G1 X115.667 Y128.028 E10.58785
G1 X115.667 Y128.279 E10.6142
G1 X115.775 Y128.569 E10.6467
G1 X115.845 Y128.996 E10.69213
G1 X115.894 Y129.125 E10.70662
G1 X116.058 Y130.072 E10.80753
G1 X115.94 Y130.212 E10.82676
G1 X106.902 Y130.212 E11.77575
G1 X106.786 Y130.077 E11.79444
G1 X106.85 Y129.612 E11.84372
G1 X106.956 Y129.327 E11.87565
G1 X107.07 Y128.524 E11.96081
G1 X107.217 Y128.043 E12.01362
G1 X107.448 Y126.67 E12.15981
G1 X107.595 Y126.191 E12.21242
G1 X107.705 Y125.413 E12.29493
G1 X107.863 Y124.9 E12.35129
G1 X107.867 Y124.676 E12.37481
G1 X108.091 Y123.827 E12.46701
G1 X108.091 Y123.578 E12.49315
G1 X108.102 Y123.509 E12.50049
G1 X108.243 Y123.085 E12.54741
G1 X108.352 Y122.255 E12.63531
G1 X108.48 Y121.86 E12.6789
G1 X108.48 Y121.692 E12.69654
G1 X108.796 Y120.396 E12.83661
G1 X108.65 Y119.97 E12.88389
G1 X108.26 Y119.661 E12.93614
G1 X107.977 Y118.393 E13.07256
G1 X107.948 Y118.068 E13.10682
G1 X107.843 Y117.731 E13.14388
G1 X107.863 Y117.642 E13.15346
G1 X107.488 Y116.147 E13.31529
G1 X107.442 Y115.748 E13.35747
G1 X107.326 Y115.407 E13.39529
G1 X107.215 Y114.676 E13.47292
G1 X107.067 Y114.226 E13.52266
G1 X106.829 Y112.923 E13.66174
G1 X106.201 Y110.23 E13.95209
G1 X106.061 Y108.698 E14.11362
G1 X105.801 Y108.438 E14.15223
G1 X105.694 Y107.741 E14.22627
G1 X105.553 Y107.274 E14.27749
G1 X105.553 Y107.068 E14.29912
G1 X105.184 Y105.596 E14.45847
G1 X105.13 Y105.183 E14.5022
G1 X105.058 Y104.993 E14.52353
G1 X104.954 Y104.284 E14.59878
G1 X104.798 Y103.818 E14.65038
G1 X104.682 Y102.853 E14.75243
G1 X104.448 Y101.72 E14.87391
G1 X104.842 Y101.235 E14.93952
G1 X104.863 Y101.063 E14.95771
G0 F3600 X104.985 Y101.219
G1 F1800 X104.985 Y103.934 E15.24279
G0 F3600 X105.205 Y104.985
G1 F1800 X117.587 Y104.985 E16.5429
G0 F3600 X118.06 Y102.652
G1 F1800 X104.783 Y102.652 E17.93698
G0 F3600 X107.318 Y101.203
G1 F1800 X107.318 Y114.539 E19.33726
G0 F3600 X107.244 Y114.317
G1 F1800 X115.567 Y114.317 E20.21118
G0 F3600 X115.08 Y116.65
G1 F1800 X107.758 Y116.65 E20.97999
G0 F3600 X108.251 Y118.983
G1 F1800 X114.566 Y118.983 E21.64306
G0 F3600 X114.317 Y119.672
G1 F1800 X114.317 Y101.203 E23.58231
G0 F3600 X111.984 Y101.203
G1 F1800 X111.984 Y130.072 E26.61355
G0 F3600 X109.651 Y130.072
G1 F1800 X109.651 Y101.203 E29.6448
G0 F3600 X116.65 Y101.203
G1 F1800 X116.65 Y109.41 E30.50653
G0 F3600 X116.591 Y109.651
G1 F1800 X106.288 Y109.651 E31.58835
G0 F3600 X106.753 Y111.984
G1 F1800 X116.057 Y111.984 E32.56527
G0 F3600 X117.057 Y107.318
G1 F1800 X105.713 Y107.318 E33.75639
G0 F3600 X108.715 Y121.316
G1 F1800 X114.058 Y121.316 E34.3174
G0 F3600 X114.317 Y122.404
G1 F1800 X114.317 Y130.072 E35.12254
G0 F3600 X115.531 Y128.315
G1 F1800 X107.28 Y128.315 E35.9889
G0 F3600 X107.318 Y128.193
G1 F1800 X107.318 Y130.072 E36.18619
G0 F3600 X107.765 Y125.982
G1 F1800 X115.037 Y125.982 E36.94975
G0 F3600 X114.577 Y123.649
G1 F1800 X108.23 Y123.649 E37.61619
G10
G0 F3600 X108.23 Y100.884
G0 X108.23 Y99.668
G0 X103.039 Y99.019
G0 X103.04 Y98.595
;TYPE:WALL-OUTER
G11
G1 F1800 X103.215 Y98.595 E37.63456
G1 X103.216 Y98.595 E37.63467
G1 X119.918 Y98.632 E39.38838
G1 X119.959 Y94.545 E39.81754
G1 X119.96 Y94.544 E39.81769
G1 X119.96 Y94.369 E39.83606
G1 X119.785 Y94.369 E39.84795
G1 X119.784 Y94.369 E39.84806
G1 X103.082 Y94.331 E41.60177
G1 X103.041 Y98.419 E42.03103
G1 X103.04 Y98.42 E42.03118
G1 X103.04 Y98.595 E42.04307
G0 F3600 X103.215 Y98.595
G0 X103.216 Y98.595
G0 X103.24 Y98.595
G0 X103.239 Y99.02
G0 X120.905 Y99.618
G0 X121.3 Y100.013
G1 F1800 X101.7 Y100.013 E44.10107
G1 X101.7 Y92.988 E44.8387
G1 X121.3 Y92.988 E46.8967
G1 X121.3 Y100.013 E47.63432
G0 F3600 X121.1 Y100.013
G0 X120.975 Y99.688
;TYPE:WALL-INNER
G1 F1800 X102.025 Y99.688 E49.62407
G1 X102.025 Y93.313 E50.29345
G1 X120.975 Y93.313 E52.2832
G1 X120.975 Y99.688 E52.95257
G0 F3600 X120.905 Y99.618
G0 X102.641 Y98.989
G0 X102.712 Y98.919
G1 F1800 X102.887 Y98.919 E52.97095
G1 X102.888 Y98.919 E52.97105
G1 X120.24 Y98.958 E54.79302
G1 X120.287 Y94.221 E55.29043
G1 X120.288 Y94.22 E55.29058
G1 X120.288 Y94.045 E55.30895
G1 X120.113 Y94.045 E55.32084
G1 X120.112 Y94.045 E55.32095
G1 X102.76 Y94.005 E57.14291
G1 X102.713 Y98.743 E57.64043
G1 X102.712 Y98.744 E57.64057
G1 X102.712 Y98.919 E57.65247
G0 F3600 X102.641 Y98.989
G0 X120.625 Y99.338
G1 F1800 X120.587 Y99.338 E57.65646
G1 X102.375 Y99.338 E59.56872
G1 X102.375 Y99.268 E59.57607
G1 X120.587 Y99.309 E59.84651
G1 X120.625 Y99.338 E59.84739
G0 F3600 X120.599 Y99.068
G1 F1800 X120.608 Y98.829 E59.87566
G1 X120.609 Y98.583 E59.90415
G1 X120.61 Y98.336 E59.9326
G1 X120.611 Y98.09 E59.96072
G1 X120.612 Y97.843 E59.9888
G1 X120.614 Y97.598 E60.01659
G1 X120.615 Y97.351 E60.0443
G1 X120.616 Y97.105 E60.07175
G1 X120.617 Y96.858 E60.0991
G1 X120.618 Y96.612 E60.12618
G1 X120.62 Y96.366 E60.15312
G1 X120.621 Y96.12 E60.17984
G1 X120.622 Y95.873 E60.20651
G1 X120.623 Y95.627 E60.23286
G1 X120.624 Y95.38 E60.25916
G1 X120.625 Y95.134 E60.28522
G1 X120.627 Y94.888 E60.31112
G1 X120.628 Y94.642 E60.3368
G1 X120.629 Y94.395 E60.36237
G1 X120.63 Y94.149 E60.38768
G0 F3600 X120.159 Y93.678
G1 F1800 X120.507 Y93.778 E60.42374
G0 F3600 X120.631 Y93.655
G1 F1800 X120.755 Y93.531 E60.43979
G0 F3600 X120.801 Y93.577
G0 X120.104 Y93.87
G0 X119.911 Y93.677
G1 F1800 X119.664 Y93.677 E60.46832
G1 X119.416 Y93.677 E60.49689
G1 X119.168 Y93.677 E60.52546
G1 X118.92 Y93.676 E60.5538
G1 X118.672 Y93.676 E60.58223
G1 X118.425 Y93.676 E60.61053
G1 X118.177 Y93.676 E60.63895
G1 X117.929 Y93.675 E60.66715
G1 X117.681 Y93.675 E60.69542
G1 X117.433 Y93.674 E60.72347
G1 X117.186 Y93.674 E60.75156
G1 X116.938 Y93.674 E60.77975
G1 X116.69 Y93.674 E60.80788
G1 X116.442 Y93.673 E60.83578
G1 X116.195 Y93.673 E60.86371
G1 X115.947 Y93.673 E60.89176
G1 X115.699 Y93.673 E60.91974
G1 X115.451 Y93.672 E60.94749
G1 X115.204 Y93.672 E60.9752
G1 X114.956 Y93.672 E61.00303
G1 X114.708 Y93.672 E61.03085
G1 X114.46 Y93.671 E61.05845
G1 X114.213 Y93.671 E61.08602
G1 X113.965 Y93.671 E61.1137
G1 X113.717 Y93.671 E61.14137
G1 X113.469 Y93.67 E61.16883
G1 X113.222 Y93.67 E61.19624
G1 X112.974 Y93.669 E61.22355
G1 X112.726 Y93.669 E61.251
G1 X112.478 Y93.669 E61.27846
G1 X112.231 Y93.669 E61.30572
G1 X111.982 Y93.668 E61.33299
G1 X111.735 Y93.668 E61.36018
G1 X111.487 Y93.668 E61.38742
G1 X111.24 Y93.668 E61.41454
G1 X110.991 Y93.667 E61.44165
G1 X110.744 Y93.667 E61.4687
G1 X110.496 Y93.667 E61.49578
G1 X110.248 Y93.667 E61.52286
G1 X110.001 Y93.666 E61.54961
G1 X109.753 Y93.666 E61.57654
G1 X109.505 Y93.666 E61.60348
G1 X109.257 Y93.665 E61.63019
G1 X109.01 Y93.665 E61.65694
G1 X108.762 Y93.665 E61.68372
G1 X108.514 Y93.665 E61.71051
G1 X108.266 Y93.664 E61.73707
G1 X108.018 Y93.664 E61.7637
G1 X107.771 Y93.664 E61.79023
G1 X107.523 Y93.663 E61.81664
G1 X107.275 Y93.663 E61.8432
G1 X107.027 Y93.663 E61.86969
G1 X106.779 Y93.662 E61.89595
G1 X106.532 Y93.662 E61.92226
G1 X106.284 Y93.662 E61.94867
G1 X106.036 Y93.662 E61.97501
G1 X105.788 Y93.661 E62.00112
G1 X105.541 Y93.661 E62.02728
G1 X105.293 Y93.661 E62.05354
G1 X105.045 Y93.661 E62.07973
G1 X104.797 Y93.66 E62.1057
G1 X104.55 Y93.66 E62.13163
G1 X104.302 Y93.66 E62.15767
G1 X104.054 Y93.66 E62.18371
G1 X103.806 Y93.659 E62.20953
G1 X103.559 Y93.659 E62.23532
G1 X103.311 Y93.659 E62.26121
G1 X103.063 Y93.659 E62.2871
G1 X102.815 Y93.658 E62.31277
G1 X102.568 Y93.658 E62.33841
G1 X102.392 Y93.73 E62.36579
G1 X102.391 Y93.976 E62.39457
G1 X102.389 Y94.222 E62.42328
G1 X102.388 Y94.469 E62.45181
G1 X102.387 Y94.715 E62.48
G1 X102.386 Y94.961 E62.50804
G1 X102.385 Y95.208 E62.53605
G1 X102.383 Y95.454 E62.56388
G1 X102.382 Y95.7 E62.59141
G1 X102.381 Y95.946 E62.61871
G1 X102.38 Y96.193 E62.64598
G1 X102.378 Y96.439 E62.67299
G1 X102.377 Y96.685 E62.69978
G1 X102.376 Y96.931 E62.72642
G1 X102.375 Y97.178 E62.75295
G1 X102.374 Y97.424 E62.77923
G1 X102.372 Y97.67 E62.80535
G1 X102.371 Y97.916 E62.83126
G1 X102.37 Y98.163 E62.85704
G1 X102.369 Y98.409 E62.88258
G1 X102.367 Y98.655 E62.90797
G1 X102.366 Y98.902 E62.93323
G1 X102.262 Y99.045 E62.95063
G0 F3600 X102.375 Y99.11
G10
G0 X104.981 Y98.944
G0 X104.983 Y97.727
G0 X104.985 Y97.548
;TIME_ELAPSED:28.957419
;LAYER:1
M106 S255
G0 F4800 X104.985 Y97.548 Z0.5
;TYPE:SUPPORT
G11
G1 F1800 X107.318 Y97.554 E63.11394
G1 X107.318 Y95.391 E63.26535
G1 X109.651 Y95.396 E63.42866
G1 X109.651 Y97.559 E63.58007
G1 X111.984 Y97.564 E63.74338
G1 X111.984 Y95.402 E63.89472
G1 X114.317 Y95.407 E64.05803
G1 X114.317 Y97.569 E64.20937
G1 X116.65 Y97.575 E64.37268
G1 X117.986 Y97.576 E64.4662
G1 X118.879 Y97.579 E64.52872
G1 X118.899 Y95.417 E64.68006
G1 X116.65 Y95.412 E64.83749
G1 X116.65 Y97.575 E64.9889
G0 F4800 X104.985 Y97.548
G1 F1800 X104.101 Y97.547 E65.05078
G1 X104.121 Y95.383 E65.20227
G1 X104.985 Y95.385 E65.26275
G1 X104.985 Y97.548 E65.41416
G10
G0 F4800 X104.985 Y97.763
G0 X104.985 Y97.807
G0 X104.985 Y100.804
G0 X104.985 Y100.848
G0 X104.985 Y104.495
G11
G1 F1800 X105.058 Y104.993 E65.44939
G1 X105.064 Y105.019 E65.45126
G1 X105.13 Y105.183 E65.46363
G1 X105.175 Y105.525 E65.48778
G1 X105.184 Y105.594 E65.49265
G1 X105.553 Y107.067 E65.59895
G1 X105.553 Y107.273 E65.61337
G1 X105.56 Y107.309 E65.61593
G1 X105.695 Y107.744 E65.64782
G1 X105.802 Y108.437 E65.6969
G1 X106.067 Y108.704 E65.72323
G1 X106.067 Y108.777 E65.72834
G1 X106.201 Y110.23 E65.83049
G1 X106.829 Y112.923 E66.02405
G1 X107.067 Y114.226 E66.11677
G1 X107.215 Y114.676 E66.14993
G1 X107.318 Y115.354 E66.19794
G1 X107.326 Y115.407 E66.20169
G1 X107.335 Y115.443 E66.20429
G1 X107.442 Y115.748 E66.22691
G1 X107.488 Y116.147 E66.25503
G1 X107.864 Y117.641 E66.36287
G1 X107.844 Y117.732 E66.36939
G1 X107.95 Y118.075 E66.39452
G1 X107.95 Y118.102 E66.39641
G1 X107.977 Y118.393 E66.41687
G1 X108.26 Y119.661 E66.50781
G1 X108.651 Y119.97 E66.5427
G1 X108.675 Y120.042 E66.54801
G1 X108.796 Y120.397 E66.57426
G1 X108.48 Y121.692 E66.66757
G1 X108.48 Y121.859 E66.67926
G1 X108.442 Y121.98 E66.68814
G1 X108.435 Y122.033 E66.69188
G1 X108.352 Y122.251 E66.70821
G1 X108.243 Y123.091 E66.76751
G1 X108.102 Y123.512 E66.79858
G1 X108.091 Y123.579 E66.80334
G1 X108.091 Y123.827 E66.8207
G1 X107.867 Y124.676 E66.88216
G1 X107.863 Y124.707 E66.88435
G1 X107.863 Y124.902 E66.898
G1 X107.705 Y125.415 E66.93557
G1 X107.596 Y126.191 E66.99043
G1 X107.448 Y126.672 E67.02565
G1 X107.318 Y127.446 E67.08059
G1 X107.318 Y130.212 E67.27421
G1 X106.902 Y130.212 E67.30333
G1 X106.786 Y130.077 E67.31579
G1 X106.844 Y129.636 E67.34693
G1 X106.849 Y129.618 E67.34824
G1 X106.955 Y129.331 E67.36965
G1 X107.071 Y128.523 E67.42679
G1 X107.218 Y128.042 E67.462
G1 X107.318 Y127.446 E67.5043
G0 F4800 X114.317 Y121.788
G1 F1800 X114.299 Y121.712 E67.50977
G1 X113.988 Y120.414 E67.6032
G1 X114.135 Y119.989 E67.63468
G1 X114.317 Y119.845 E67.65093
G1 X114.553 Y119.657 E67.67205
G1 X114.925 Y118.061 E67.78676
G1 X115.017 Y117.665 E67.81522
G1 X115.045 Y117.358 E67.8368
G1 X115.045 Y117.327 E67.83897
G1 X115.18 Y116.932 E67.86819
G1 X115.229 Y116.593 E67.89217
G1 X115.281 Y116.449 E67.90288
G1 X115.347 Y116.064 E67.93023
G1 X115.391 Y115.939 E67.9395
G1 X115.401 Y115.884 E67.94342
G1 X115.401 Y115.656 E67.95938
G1 X115.554 Y115.166 E67.99531
G1 X115.781 Y113.93 E68.08328
G1 X115.925 Y113.447 E68.11856
G1 X115.99 Y113.027 E68.14831
G1 X116.042 Y112.893 E68.15837
G1 X116.045 Y112.877 E68.15951
G1 X116.045 Y112.689 E68.17267
G1 X116.159 Y112.373 E68.19618
G1 X116.159 Y112.147 E68.212
G1 X116.419 Y111.175 E68.28244
G1 X116.423 Y111.143 E68.28469
G1 X116.423 Y110.932 E68.29946
G1 X116.65 Y110.001 E68.36654
G1 X116.793 Y109.414 E68.40883
G1 X116.841 Y109.054 E68.43426
G1 X116.841 Y109.035 E68.43559
G1 X116.911 Y108.849 E68.4495
G1 X116.915 Y108.825 E68.4512
G1 X116.915 Y108.62 E68.46555
G1 X117.062 Y108.171 E68.49862
G1 X117.115 Y107.8 E68.52486
G1 X117.123 Y107.776 E68.52663
G1 X117.18 Y107.637 E68.53714
G1 X117.181 Y107.627 E68.53785
G1 X117.181 Y107.4 E68.55374
G1 X117.442 Y106.393 E68.62656
G1 X117.487 Y106.052 E68.65063
G1 X117.553 Y105.88 E68.66353
G1 X117.559 Y105.836 E68.66664
G1 X117.559 Y105.63 E68.68106
G1 X117.827 Y104.636 E68.75312
G1 X117.932 Y103.913 E68.80426
G1 X117.99 Y103.749 E68.81644
G1 X118.082 Y103.488 E68.83581
G1 X118.089 Y103.447 E68.83872
G1 X118.089 Y103.237 E68.85342
G1 X118.197 Y102.908 E68.87766
G1 X118.201 Y102.881 E68.87957
G1 X118.201 Y102.601 E68.89917
G1 X118.397 Y101.721 E68.96228
G1 X118.027 Y101.259 E69.00372
G1 X118.004 Y101.063 E69.01753
G1 X116.65 Y101.063 E69.11231
G1 X116.65 Y110.001 E69.73797
G0 F4800 X114.317 Y119.845
G1 F1800 X114.317 Y101.063 E71.05271
G1 X111.984 Y101.063 E71.21602
G1 X111.984 Y130.212 E73.25645
G1 X109.651 Y130.212 E73.41976
G1 X109.651 Y101.063 E75.46019
G1 X107.318 Y101.063 E75.6235
G1 X107.318 Y115.354 E76.62387
G0 F4800 X114.317 Y121.788
G1 F1800 X114.524 Y122.655 E76.68627
G1 X114.529 Y122.698 E76.6893
G1 X114.529 Y122.916 E76.70456
G1 X114.757 Y123.779 E76.76704
G1 X114.803 Y124.155 E76.79356
G1 X114.902 Y124.432 E76.81415
G1 X115.023 Y125.267 E76.87321
G1 X115.124 Y125.529 E76.89286
G1 X115.132 Y125.563 E76.89531
G1 X115.168 Y125.927 E76.92091
G1 X115.401 Y126.808 E76.9847
G1 X115.401 Y127.026 E76.99996
G1 X115.658 Y127.981 E77.06919
G1 X115.667 Y128.028 E77.07254
G1 X115.667 Y128.28 E77.09018
G1 X115.776 Y128.573 E77.11206
G1 X115.845 Y128.996 E77.14207
G1 X115.885 Y129.091 E77.14928
G1 X115.894 Y129.125 E77.15174
G1 X116.058 Y130.072 E77.21902
G1 X115.94 Y130.212 E77.23184
G1 X114.317 Y130.212 E77.34545
