;FLAVOR:UltiGCode
;TIME:2643
;MATERIAL:5252
;MATERIAL2:0
;NOZZLE_DIAMETER:0.4
;Generated with Cura_SteamEngine 3.4.0
M82 ;absolute extrusion mode

G92 E0
G10
;LAYER_COUNT:100
;LAYER:0
M107
G0 F3600 X102.157 Y96.218 Z0.3
;TYPE:SUPPORT
G11
G1 F1800 X121.05 Y96.218 E1.98377
G1 X121.092 Y102.286 E2.62092
G1 X120.975 Y102.403 E2.63829
G1 X118.961 Y102.403 E2.84976
G1 X118.611 Y102.753 E2.90174
G1 X118.611 Y105.337 E3.17306
G1 X119.247 Y109.239 E3.58817
G1 X119.313 Y109.4 E3.60644
G1 X119.376 Y109.955 E3.66509
G1 X119.464 Y110.278 E3.70024
G1 X119.682 Y111.792 E3.86085
G1 X119.732 Y111.914 E3.8747
G1 X119.715 Y111.991 E3.88298
G1 X119.942 Y113.054 E3.99711
G1 X120.008 Y113.626 E4.05757
G1 X120.087 Y113.904 E4.08791
G1 X120.169 Y114.629 E4.16452
G1 X120.241 Y114.789 E4.18295
G1 X120.292 Y115.293 E4.23614
G1 X120.386 Y115.634 E4.27328
G1 X120.439 Y116.161 E4.32889
G1 X120.54 Y116.501 E4.36613
G1 X120.614 Y117.195 E4.43942
G1 X120.84 Y118.265 E4.55424
G1 X120.927 Y118.955 E4.62727
G1 X121.023 Y119.302 E4.66507
G1 X121.081 Y119.838 E4.72168
G1 X121.169 Y120.151 E4.75582
G1 X121.237 Y120.777 E4.82194
G1 X121.311 Y120.971 E4.84374
G1 X121.369 Y121.529 E4.90264
G1 X121.466 Y121.873 E4.94017
G1 X121.499 Y122.289 E4.98399
G1 X121.486 Y122.337 E4.98921
G1 X116.596 Y129.089 E5.86457
G1 X116.446 Y129.122 E5.8807
G1 X114.638 Y128.09 E6.09929
G1 X114.197 Y128.092 E6.14559
G1 X110.146 Y130.447 E6.6376
G1 X109.945 Y130.331 E6.66197
G1 X109.945 Y127.98 E6.90882
G1 X109.723 Y127.596 E6.9554
G1 X107.361 Y126.25 E7.24085
G1 X101.537 Y119.758 E8.15661
G1 X101.537 Y119.625 E8.17057
G1 X104.218 Y116.613 E8.59397
G1 X104.348 Y116.586 E8.60791
G1 X108.907 Y118.576 E9.13022
G1 X109.357 Y118.28 E9.18678
G1 X109.357 Y114.607 E9.57244
G1 X104.644 Y109.432 E10.30739
G1 X104.609 Y109.339 E10.31782
G1 X104.609 Y102.753 E11.00935
G1 X104.259 Y102.403 E11.06133
G1 X102.275 Y102.403 E11.26965
G1 X102.157 Y102.285 E11.28717
G1 X102.157 Y96.218 E11.9242
G0 F3600 X102.652 Y96.358
G1 F1800 X102.652 Y102.263 E12.54423
G0 F3600 X102.297 Y100.319
G1 F1800 X120.938 Y100.319 E14.50153
G0 F3600 X120.923 Y97.986
G1 F1800 X102.297 Y97.986 E16.45726
G0 F3600 X104.985 Y96.358
G1 F1800 X104.985 Y109.598 E17.84746
G0 F3600 X105.032 Y109.651
G1 F1800 X119.201 Y109.651 E19.33521
G0 F3600 X118.983 Y108.489
G1 F1800 X118.983 Y125.553 E21.12693
G0 F3600 X118.67 Y125.982
G1 F1800 X107.307 Y125.982 E22.32004
G0 F3600 X107.318 Y125.992
G1 F1800 X107.318 Y118.035 E23.15553
G0 F3600 X104.985 Y117.016
G1 F1800 X104.985 Y123.392 E23.82501
G0 F3600 X105.214 Y123.649
G1 F1800 X120.36 Y123.649 E25.41534
G0 F3600 X121.316 Y122.332
G1 F1800 X121.316 Y121.856 E25.46532
G0 F3600 X121.205 Y121.316
G1 F1800 X103.121 Y121.316 E27.36414
G0 F3600 X102.652 Y120.791
G1 F1800 X102.652 Y118.582 E27.59608
G0 F3600 X102.295 Y118.983
G1 F1800 X120.79 Y118.983 E29.53806
G0 F3600 X120.416 Y116.65
G1 F1800 X109.497 Y116.65 E30.68455
G0 F3600 X109.282 Y114.317
G1 F1800 X119.993 Y114.317 E31.80921
G0 F3600 X119.572 Y111.984
G1 F1800 X107.157 Y111.984 E33.11278
G0 F3600 X107.318 Y112.16
G1 F1800 X107.318 Y96.358 E34.77199
G0 F3600 X109.651 Y96.358
G1 F1800 X109.651 Y127.392 E38.03056
G0 F3600 X110.084 Y128.315
G1 F1800 X113.532 Y128.315 E38.3926
G0 F3600 X114.317 Y127.952
G1 F1800 X114.317 Y96.358 E41.70997
G0 F3600 X111.984 Y96.358
G1 F1800 X111.984 Y129.217 E45.16017
G0 F3600 X115.314 Y128.315
G1 F1800 X116.981 Y128.315 E45.3352
G0 F3600 X116.65 Y128.774
G1 F1800 X116.65 Y96.358 E48.73888
G0 F3600 X118.983 Y96.358
G1 F1800 X118.983 Y102.263 E49.35891
G0 F3600 X118.514 Y102.652
G1 F1800 X104.705 Y102.652 E50.80885
G0 F3600 X104.749 Y104.985
G1 F1800 X118.471 Y104.985 E52.24966
G0 F3600 X118.793 Y107.318
G1 F1800 X104.749 Y107.318 E53.72428
G10
G0 F3600 X104.749 Y96.039
G0 X104.749 Y94.823
G0 X120.906 Y94.773
G0 X121.301 Y95.168
;TYPE:WALL-OUTER
G11
G1 F1800 X101.701 Y95.168 E55.78228
G1 X101.701 Y92.658 E56.04583
G1 X121.301 Y92.658 E58.10383
G1 X121.301 Y95.168 E58.36738
G0 F3600 X121.101 Y95.168
G0 X120.976 Y94.843
;TYPE:WALL-INNER
G1 F1800 X102.026 Y94.843 E60.35713
G1 X102.026 Y92.983 E60.55243
G1 X120.976 Y92.983 E62.54218
G1 X120.976 Y94.843 E62.73748
G0 F3600 X120.626 Y94.493
G1 F1800 X102.376 Y94.493 E64.65373
G1 X102.376 Y93.333 E64.77553
G1 X120.626 Y93.333 E66.69178
G1 X120.626 Y94.493 E66.81358
G0 F3600 X120.276 Y94.143
G1 F1800 X102.726 Y94.143 E68.65633
G1 X102.726 Y93.683 E68.70463
G1 X120.276 Y93.683 E70.54738
G1 X120.276 Y94.143 E70.59568
G0 F3600 X119.898 Y93.912
G1 F1800 X119.651 Y93.912 E70.60421
G1 X119.403 Y93.912 E70.61276
G1 X119.156 Y93.912 E70.62128
G1 X118.908 Y93.912 E70.62984
G1 X118.661 Y93.912 E70.63836
G1 X118.413 Y93.912 E70.64692
G1 X118.166 Y93.912 E70.65544
G1 X117.918 Y93.912 E70.66399
G1 X117.671 Y93.912 E70.67252
G1 X117.423 Y93.912 E70.68107
G1 X117.176 Y93.912 E70.68959
G1 X116.929 Y93.912 E70.69811
G1 X116.681 Y93.912 E70.70667
G1 X116.434 Y93.912 E70.71519
G1 X116.186 Y93.912 E70.72375
G1 X115.939 Y93.912 E70.73227
G1 X115.691 Y93.912 E70.74083
G1 X115.444 Y93.912 E70.74935
G1 X115.196 Y93.912 E70.7579
G1 X114.949 Y93.912 E70.76642
G1 X114.701 Y93.912 E70.77498
G1 X114.454 Y93.912 E70.7835
G1 X114.206 Y93.912 E70.79206
G1 X113.959 Y93.912 E70.80058
G1 X113.711 Y93.912 E70.80914
G1 X113.464 Y93.912 E70.81766
G1 X113.216 Y93.912 E70.82621
G1 X112.969 Y93.912 E70.83473
G1 X112.721 Y93.912 E70.84329
G1 X112.474 Y93.912 E70.85181
G1 X112.226 Y93.912 E70.86037
G1 X111.979 Y93.912 E70.86889
G1 X111.731 Y93.912 E70.87745
G1 X111.484 Y93.912 E70.88597
G1 X111.236 Y93.912 E70.89452
G1 X110.989 Y93.912 E70.90304
G1 X110.741 Y93.912 E70.9116
G1 X110.494 Y93.912 E70.92012
G1 X110.246 Y93.912 E70.92868
G1 X109.999 Y93.912 E70.9372
G1 X109.751 Y93.912 E70.94576
G1 X109.504 Y93.912 E70.95428
G1 X109.256 Y93.912 E70.96283
G1 X109.009 Y93.912 E70.97135
G1 X108.761 Y93.912 E70.97991
G1 X108.514 Y93.912 E70.98843
G1 X108.266 Y93.912 E70.99699
G1 X108.019 Y93.912 E71.00551
G1 X107.771 Y93.912 E71.01407
G1 X107.524 Y93.912 E71.02259
G1 X107.277 Y93.912 E71.03111
G1 X107.029 Y93.912 E71.03966
G1 X106.782 Y93.912 E71.04819
G1 X106.534 Y93.912 E71.05674
G1 X106.287 Y93.912 E71.06526
G1 X106.039 Y93.912 E71.07382
G1 X105.792 Y93.912 E71.08234
G1 X105.544 Y93.912 E71.0909
G1 X105.297 Y93.912 E71.09942
G1 X105.049 Y93.912 E71.10797
G1 X104.802 Y93.912 E71.1165
G1 X104.554 Y93.912 E71.12505
G1 X104.307 Y93.912 E71.13357
G1 X104.059 Y93.912 E71.14213
G1 X103.812 Y93.912 E71.15065
G1 X103.564 Y93.912 E71.15921
G1 X103.317 Y93.912 E71.16773
G1 X103.069 Y93.912 E71.17628
G0 F3600 X103.012 Y93.855
G10
G0 X104.985 Y94.823
G0 X104.985 Y96.039
G0 X104.985 Y100.541
;TIME_ELAPSED:29.485757
;LAYER:1
M106 S255
G0 F4800 X104.985 Y100.541 Z0.5
;TYPE:SUPPORT
G11
G1 F1800 X107.318 Y100.549 E71.3396
G1 X107.318 Y97.964 E71.52055
G1 X109.651 Y97.971 E71.68386
G1 X109.651 Y100.557 E71.86488
G1 X111.984 Y100.565 E72.02819
G1 X111.984 Y97.979 E72.20921
G1 X114.317 Y97.986 E72.37252
G1 X114.317 Y100.572 E72.55354
G1 X116.65 Y100.58 E72.71685
G1 X118.53 Y100.587 E72.84845
G1 X118.567 Y97.999 E73.02963
G1 X116.65 Y97.993 E73.16382
G1 X116.65 Y100.58 E73.34491
G0 F4800 X104.985 Y100.541
G1 F1800 X104.761 Y100.541 E73.36059
G1 X104.722 Y100.268 E73.37989
G1 X104.683 Y100 E73.39885
G1 X104.713 Y97.955 E73.54202
G1 X104.985 Y97.956 E73.56106
G1 X104.985 Y100.541 E73.74201
G0 F4800 X104.985 Y109.806
G1 F1800 X104.644 Y109.432 E73.77743
G1 X104.609 Y109.339 E73.78439
G1 X104.609 Y104.495 E74.12347
G1 X104.646 Y103.253 E74.21045
G1 X104.763 Y103.253 E74.21864
G1 X104.985 Y102.997 E74.24236
G1 X104.985 Y109.806 E74.71899
G1 X107.318 Y112.368 E74.96154
G1 X109.357 Y114.607 E75.17352
G1 X109.357 Y118.28 E75.43063
G1 X108.907 Y118.576 E75.46834
G1 X107.318 Y117.883 E75.58969
G1 X107.318 Y126.202 E76.17202
G1 X104.985 Y123.601 E76.4166
G1 X104.985 Y116.865 E76.88812
G1 X104.348 Y116.586 E76.9368
G1 X104.218 Y116.613 E76.94609
G1 X102.652 Y118.372 E77.11095
G1 X102.652 Y121 E77.29491
G1 X101.537 Y119.758 E77.41174
G1 X101.537 Y119.625 E77.42105
G1 X102.652 Y118.372 E77.53846
G0 F4800 X107.318 Y112.368
G1 F1800 X107.318 Y102.553 E78.22551
G1 X109.651 Y102.553 E78.38882
G1 X109.651 Y127.554 E80.13889
G1 X109.723 Y127.596 E80.14473
G1 X109.945 Y127.98 E80.17577
G1 X109.945 Y130.331 E80.34034
G1 X110.146 Y130.447 E80.35659
G1 X111.984 Y129.379 E80.50539
G1 X111.984 Y102.553 E82.38321
G1 X114.317 Y102.553 E82.54652
G1 X114.317 Y128.092 E84.33425
G1 X114.638 Y128.09 E84.35672
G1 X116.446 Y129.122 E84.50245
G1 X116.596 Y129.089 E84.5132
G1 X116.65 Y129.015 E84.51961
G1 X116.65 Y102.553 E86.37195
G1 X118.503 Y102.553 E86.50166
G1 X118.5 Y102.78 E86.51755
G1 X118.611 Y103.107 E86.54173
G1 X118.611 Y105.337 E86.69783
G1 X118.983 Y107.619 E86.85968
G1 X118.983 Y125.793 E88.13186
G1 X121.316 Y122.571 E88.41031
G1 X121.484 Y122.338 E88.43042
G1 X121.498 Y122.287 E88.43412
G1 X121.466 Y121.875 E88.46305
G1 X121.367 Y121.527 E88.48838
G1 X121.316 Y121.02 E88.52404
G1 X121.316 Y122.571 E88.63261
G10
G0 F4800 X120.962 Y96.039
G0 X120.962 Y94.829
G0 X120.276 Y94.143
;TYPE:WALL-INNER
G11
G1 F2100 X102.726 Y94.143 E89.86111
G1 X102.726 Y93.683 E89.89331
G1 X120.276 Y93.683 E91.12181
G1 X120.276 Y94.143 E91.15401
G0 F4800 X120.626 Y94.493
G1 F2100 X102.376 Y94.493 E92.43151
G1 X102.376 Y93.333 E92.51271
G1 X120.626 Y93.333 E93.79021
G1 X120.626 Y94.493 E93.87141
G0 F4800 X120.976 Y94.843
G1 F2100 X102.026 Y94.843 E95.19791
G1 X102.026 Y92.983 E95.32811
G1 X120.976 Y92.983 E96.65461
G1 X120.976 Y94.843 E96.78481
G0 F4800 X121.301 Y95.168
;TYPE:WALL-OUTER
G1 F1800 X101.701 Y95.168 E98.15681
G1 X101.701 Y92.658 E98.33251
G1 X121.301 Y92.658 E99.70451
G1 X121.301 Y95.168 E99.88021
G0 F4800 X121.101 Y95.168
G0 X120.906 Y94.773
G0 X119.858 Y93.97
G0 X119.915 Y93.912
G1 F1500 X119.668 Y93.912 E99.8859
G1 X119.42 Y93.912 E99.8916
G1 X119.173 Y93.912 E99.89728
G1 X118.925 Y93.912 E99.90298
G1 X118.678 Y93.912 E99.90867
G1 X118.43 Y93.912 E99.91437
G1 X118.183 Y93.912 E99.92005
G1 X117.935 Y93.912 E99.92575
G1 X117.688 Y93.912 E99.93144
G1 X117.44 Y93.912 E99.93714
G1 X117.193 Y93.912 E99.94282
G1 X116.945 Y93.912 E99.94852
G1 X116.698 Y93.912 E99.95421
G1 X116.451 Y93.912 E99.95989
G1 X116.203 Y93.912 E99.96559
G1 X115.956 Y93.912 E99.97127
G1 X115.708 Y93.912 E99.97698
G1 X115.461 Y93.912 E99.98266
G1 X115.213 Y93.912 E99.98836
G1 X114.966 Y93.912 E99.99404
G1 X114.718 Y93.912 E99.99975
G1 X114.471 Y93.912 E100.00543
G1 X114.223 Y93.912 E100.01113
G1 X113.976 Y93.912 E100.01681
G1 X113.728 Y93.912 E100.02252
G1 X113.481 Y93.912 E100.0282
G1 X113.233 Y93.912 E100.0339
G1 X112.986 Y93.912 E100.03958
G1 X112.738 Y93.912 E100.04529
G1 X112.491 Y93.912 E100.05097
G1 X112.243 Y93.912 E100.05667
G1 X111.996 Y93.912 E100.06235
G1 X111.748 Y93.912 E100.06806
G1 X111.501 Y93.912 E100.07374
G1 X111.253 Y93.912 E100.07944
G1 X111.006 Y93.912 E100.08512
G1 X110.758 Y93.912 E100.09083
G1 X110.511 Y93.912 E100.09651
G1 X110.263 Y93.912 E100.10221
G1 X110.016 Y93.912 E100.10789
G1 X109.768 Y93.912 E100.1136
G1 X109.521 Y93.912 E100.11928
G1 X109.273 Y93.912 E100.12498
G1 X109.026 Y93.912 E100.13066
G1 X108.778 Y93.912 E100.13637
G1 X108.531 Y93.912 E100.14205
G1 X108.283 Y93.912 E100.14775
G1 X108.036 Y93.912 E100.15343
G1 X107.788 Y93.912 E100.15914
G1 X107.541 Y93.912 E100.16482
G1 X107.293 Y93.912 E100.17052
G1 X107.046 Y93.912 E100.1762
G1 X106.799 Y93.912 E100.18188
G1 X106.551 Y93.912 E100.18759
G1 X106.304 Y93.912 E100.19327
G1 X106.056 Y93.912 E100.19897
G1 X105.809 Y93.912 E100.20465
G1 X105.561 Y93.912 E100.21036
G1 X105.314 Y93.912 E100.21604
G1 X105.066 Y93.912 E100.22174
G1 X104.819 Y93.912 E100.22742
G1 X104.571 Y93.912 E100.23313
G1 X104.324 Y93.912 E100.23881
G1 X104.076 Y93.912 E100.24451
G1 X103.829 Y93.912 E100.25019
G1 X103.581 Y93.912 E100.2559
G1 X103.334 Y93.912 E100.26158
G1 X103.086 Y93.912 E100.26728
G0 F4800 X103.029 Y93.97
G10
G0 X104.985 Y94.823
G0 X104.985 Y96.039
G0 X104.985 Y100.341
;TIME_ELAPSED:45.224620
;LAYER:2
G0 F6000 X104.985 Y100.341 Z0.7
;TYPE:SUPPORT
G11
G1 F1800 X107.318 Y100.349 E100.43059
G1 X107.318 Y97.964 E100.59754
G1 X109.651 Y97.971 E100.76085
G1 X109.651 Y100.357 E100.92787
G1 X111.984 Y100.364 E101.09118
G1 X111.984 Y97.979 E101.25813
G1 X114.317 Y97.986 E101.42144
G1 X114.317 Y100.372 E101.58846
G1 X116.65 Y100.379 E101.75178
G1 X118.533 Y100.386 E101.88359
G1 X118.567 Y97.999 E102.05069
G1 X116.65 Y97.993 E102.18488
G1 X116.65 Y100.379 E102.3519
G10
G0 F6000 X116.651 Y100.059
G0 X104.985 Y100.019
G0 X104.985 Y100.341
G11
G1 F1800 X104.732 Y100.341 E102.36961
G1 X104.683 Y99.999 E102.3938
G1 X104.713 Y97.955 E102.53689
G1 X104.985 Y97.956 E102.55593
G1 X104.985 Y100.341 E102.72288
G10
G0 F6000 X104.985 Y100.019
G0 X104.985 Y100.055
G0 X104.985 Y100.099
G0 X104.985 Y102.994
G0 X104.985 Y103.038
G0 X104.985 Y109.806
G11
G1 F1800 X107.318 Y112.368 E102.96544
G1 X107.318 Y102.753 E103.63849
G1 X109.651 Y102.753 E103.8018
G1 X109.651 Y114.931 E104.65426
G1 X109.77 Y115.062 E104.66665
G1 X109.797 Y115.534 E104.69974
G1 X109.651 Y115.737 E104.71725
G1 X109.651 Y127.554 E105.54444
G1 X109.723 Y127.596 E105.55027
G1 X109.945 Y127.98 E105.58132
G1 X109.945 Y130.331 E105.74589
G1 X110.146 Y130.447 E105.76213
G1 X111.984 Y129.379 E105.91094
G1 X111.984 Y102.753 E107.77476
G1 X114.317 Y102.753 E107.93807
G1 X114.317 Y128.092 E109.7118
G1 X114.638 Y128.09 E109.73427
G1 X116.446 Y129.122 E109.87999
G1 X116.596 Y129.089 E109.89074
G1 X116.65 Y129.015 E109.89716
G1 X116.65 Y102.753 E111.7355
G1 X118.499 Y102.753 E111.86493
G1 X118.499 Y102.774 E111.8664
G1 X118.611 Y103.108 E111.89106
G1 X118.611 Y105.338 E112.04716
G1 X118.983 Y107.619 E112.20894
G1 X118.983 Y125.793 E113.48112
G1 X121.316 Y122.571 E113.75957
G1 X121.484 Y122.338 E113.77968
G1 X121.498 Y122.287 E113.78338
G1 X121.466 Y121.875 E113.81231
G1 X121.367 Y121.527 E113.83764
G1 X121.316 Y121.017 E113.87351
G1 X121.316 Y122.571 E113.98229
G0 F6000 X109.651 Y115.737
G1 F1800 X109.357 Y116.148 E114.01767
G1 X109.357 Y118.28 E114.16691
G1 X108.907 Y118.576 E114.20461
G1 X107.318 Y117.883 E114.32596
G1 X107.318 Y126.202 E114.90829
G1 X104.985 Y123.601 E115.15287
G1 X104.985 Y116.865 E115.62439
G1 X104.348 Y116.586 E115.67307
G1 X104.218 Y116.613 E115.68236
G1 X102.652 Y118.372 E115.84722
G1 X102.652 Y121 E116.03118
G1 X101.537 Y119.758 E116.14801
G1 X101.537 Y119.625 E116.15732
G1 X102.652 Y118.372 E116.27473
G0 F6000 X104.985 Y109.806
G1 F1800 X104.644 Y109.432 E116.31016
G1 X104.609 Y109.339 E116.31712
G1 X104.609 Y104.495 E116.6562
G1 X104.646 Y103.253 E116.74318
G1 X104.763 Y103.253 E116.75137
G1 X104.985 Y102.997 E116.77509
G1 X104.985 Y109.806 E117.25172
G10
G0 F6000 X121.253 Y103.07
G0 X121.761 Y102.558
G0 X122.172 Y94.843
G0 X120.948 Y94.815
G0 X120.276 Y94.143
;TYPE:WALL-INNER
G11
G1 F2400 X102.726 Y94.143 E118.48022
G1 X102.726 Y93.683 E118.51242
G1 X120.276 Y93.683 E119.74092
G1 X120.276 Y94.143 E119.77312
G0 F6000 X120.626 Y94.493
G1 F2400 X102.376 Y94.493 E121.05062
G1 X102.376 Y93.333 E121.13182
G1 X120.626 Y93.333 E122.40932
G1 X120.626 Y94.493 E122.49052
G0 F6000 X120.976 Y94.843
G1 F2400 X102.026 Y94.843 E123.81702
G1 X102.026 Y92.983 E123.94722
G1 X120.976 Y92.983 E125.27372
G1 X120.976 Y94.843 E125.40392
G0 F6000 X121.301 Y95.168
;TYPE:WALL-OUTER
G1 F1800 X101.701 Y95.168 E126.77592
G1 X101.701 Y92.658 E126.95162
G1 X121.301 Y92.658 E128.32362
G1 X121.301 Y95.168 E128.49932
G0 F6000 X121.101 Y95.168
G0 X120.906 Y94.773
G0 X119.956 Y93.97
G0 X119.898 Y93.912
G1 F1200 X119.651 Y93.912 E128.505
G1 X119.403 Y93.912 E128.5107
G1 X119.156 Y93.912 E128.51638
G1 X118.908 Y93.912 E128.52209
G1 X118.661 Y93.912 E128.52777
G1 X118.413 Y93.912 E128.53347
G1 X118.166 Y93.912 E128.53915
G1 X117.918 Y93.912 E128.54486
G1 X117.671 Y93.912 E128.55054
G1 X117.423 Y93.912 E128.55624
G1 X117.176 Y93.912 E128.56192
G1 X116.929 Y93.912 E128.5676
G1 X116.681 Y93.912 E128.57331
G1 X116.434 Y93.912 E128.57899
G1 X116.186 Y93.912 E128.58469
G1 X115.939 Y93.912 E128.59037
G1 X115.691 Y93.912 E128.59608
G1 X115.444 Y93.912 E128.60176
G1 X115.196 Y93.912 E128.60746
