;FLAVOR:UltiGCode
;TIME:2805
;MATERIAL:4934
;MATERIAL2:0
;NOZZLE_DIAMETER:0.4
;Generated with Cura_SteamEngine 3.4.0
M82 ;absolute extrusion mode

G92 E0
G10
;LAYER_COUNT:100
;LAYER:0
M107
G0 F3600 X102.088 Y96.677 Z0.3
;TYPE:SUPPORT
G11
G1 F1800 X121.042 Y96.677 E1.99017
G1 X121.042 Y101.085 E2.45301
G1 X120.924 Y101.203 E2.47053
G1 X118.822 Y101.203 E2.69124
G1 X118.472 Y101.553 E2.74321
G1 X118.472 Y103.427 E2.93998
G1 X118.404 Y103.772 E2.97691
G1 X118.919 Y106.905 E3.31029
G1 X119.162 Y108.16 E3.44451
G1 X119.623 Y110.063 E3.6501
G1 X119.692 Y110.274 E3.67341
G1 X119.582 Y110.806 E3.73045
G1 X120.177 Y113.818 E4.05283
G1 X120.245 Y114.452 E4.11978
G1 X120.478 Y115.254 E4.20747
G1 X120.761 Y117.589 E4.45444
G1 X120.889 Y118.176 E4.51752
G1 X121.092 Y118.997 E4.60632
G1 X121.109 Y119.017 E4.60908
G1 X121.222 Y119.456 E4.65668
G1 X121.366 Y121.163 E4.83655
G1 X116.427 Y127.978 E5.72028
G1 X116.326 Y127.978 E5.73089
G1 X114.501 Y126.936 E5.95155
G1 X114.061 Y126.937 E5.99775
G1 X110.006 Y129.292 E6.49012
G1 X109.806 Y129.176 E6.5144
G1 X109.806 Y126.828 E6.76094
G1 X109.584 Y126.444 E6.80751
G1 X107.218 Y125.096 E7.09343
G1 X101.397 Y118.612 E8.00836
G1 X101.397 Y118.457 E8.02463
G1 X104.124 Y115.397 E8.455
G1 X106.936 Y116.626 E8.77723
G1 X110.442 Y115.457 E9.16529
G1 X110.578 Y114.935 E9.22193
G1 X104.504 Y108.281 E10.16791
G1 X104.47 Y108.196 E10.17753
G1 X104.47 Y101.553 E10.87504
G1 X104.12 Y101.203 E10.92701
G1 X102.206 Y101.203 E11.12798
G1 X102.088 Y101.085 E11.1455
G1 X102.088 Y96.677 E11.60834
G0 F3600 X102.652 Y96.817
G1 F1800 X102.652 Y101.063 E12.05417
G0 F3600 X102.228 Y100.319
G1 F1800 X120.902 Y100.319 E14.01494
G0 F3600 X118.983 Y101.063
G1 F1800 X118.983 Y96.817 E14.46077
G0 F3600 X120.902 Y97.986
G1 F1800 X102.228 Y97.986 E16.42154
G0 F3600 X104.985 Y96.817
G1 F1800 X104.985 Y108.6 E17.65876
G0 F3600 X104.61 Y107.318
G1 F1800 X118.858 Y107.318 E19.1548
G0 F3600 X118.983 Y107.969
G1 F1800 X118.983 Y124.213 E20.86042
G0 F3600 X119.389 Y123.649
G1 F1800 X106.106 Y123.649 E22.25513
G0 F3600 X104.985 Y122.398
G1 F1800 X104.985 Y115.927 E22.93459
G0 F3600 X106.642 Y116.65
G1 F1800 X103.196 Y116.65 E23.29642
G0 F3600 X102.652 Y117.259
G1 F1800 X102.652 Y119.799 E23.56312
G0 F3600 X101.917 Y118.983
G1 F1800 X120.944 Y118.983 E25.56095
G0 F3600 X121.079 Y121.316
G1 F1800 X104.012 Y121.316 E27.35299
G0 F3600 X107.318 Y124.991
G1 F1800 X107.318 Y116.646 E28.22921
G0 F3600 X107.308 Y116.65
G1 F1800 X120.507 Y116.65 E29.61511
G0 F3600 X120.091 Y114.317
G1 F1800 X110.202 Y114.317 E30.65345
G0 F3600 X109.651 Y113.712
G1 F1800 X109.651 Y96.817 E32.42743
G0 F3600 X107.318 Y96.817
G1 F1800 X107.318 Y111.156 E33.93302
G0 F3600 X108.073 Y111.984
G1 F1800 X119.672 Y111.984 E35.15092
G0 F3600 X119.38 Y109.651
G1 F1800 X105.943 Y109.651 E36.5618
G0 F3600 X104.61 Y104.985
G1 F1800 X118.463 Y104.985 E38.01637
G0 F3600 X118.332 Y102.652
G1 F1800 X104.61 Y102.652 E39.45718
G0 F3600 X111.984 Y96.817
G1 F1800 X111.984 Y127.982 E42.7295
G0 F3600 X111.409 Y128.315
G1 F1800 X109.945 Y128.315 E42.88322
G0 F3600 X109.651 Y126.319
G1 F1800 X109.651 Y115.868 E43.98058
G0 F3600 X109.057 Y125.982
G1 F1800 X117.699 Y125.982 E44.88799
G0 F3600 X116.65 Y127.432
G1 F1800 X116.65 Y96.817 E48.10256
G0 F3600 X114.317 Y96.817
G1 F1800 X114.317 Y126.797 E51.25046
G10
G0 F3600 X122.307 Y95.986
G0 X122.307 Y93.454
G0 X121.799 Y92.946
G0 X112.965 Y92.763
G11
G1 F1800 X110.315 Y92.763 E51.52871
G1 X110.315 Y92.613 E51.54446
G1 X112.965 Y92.613 E51.82271
G1 X112.965 Y92.763 E51.83846
G10
G0 F3600 X112.965 Y92.942
G0 X112.965 Y94.158
G0 X121.045 Y95.232
G0 X121.44 Y95.627
;TYPE:WALL-OUTER
G11
G1 F1800 X101.841 Y95.627 E53.89636
G1 X101.84 Y93.988 E54.06845
G1 X101.84 Y93.813 E54.08683
G1 X102.015 Y93.813 E54.09872
G1 X121.44 Y93.813 E56.13835
G1 X121.44 Y95.627 E56.32882
G0 F3600 X121.24 Y95.627
G0 X121.115 Y95.302
;TYPE:WALL-INNER
G1 F1800 X102.166 Y95.302 E58.31846
G1 X102.165 Y94.313 E58.42231
G1 X102.165 Y94.138 E58.44068
G1 X102.34 Y94.138 E58.45257
G1 X121.115 Y94.138 E60.42395
G1 X121.115 Y95.302 E60.54617
G0 F3600 X120.765 Y94.952
G1 F1800 X102.516 Y94.952 E62.46231
G1 X102.515 Y94.663 E62.49266
G1 X102.515 Y94.488 E62.51103
G1 X102.69 Y94.488 E62.52292
G1 X120.765 Y94.488 E64.4208
G1 X120.765 Y94.952 E64.46952
G0 F3600 X120.458 Y94.719
G1 F1800 X120.21 Y94.719 E64.47822
G1 X119.963 Y94.719 E64.48689
G1 X119.715 Y94.719 E64.4956
G1 X119.468 Y94.719 E64.50427
G1 X119.22 Y94.719 E64.51297
G1 X118.973 Y94.719 E64.52164
G1 X118.725 Y94.719 E64.53035
G1 X118.478 Y94.719 E64.53902
G1 X118.23 Y94.719 E64.54772
G1 X117.983 Y94.719 E64.55639
G1 X117.735 Y94.719 E64.5651
G1 X117.488 Y94.719 E64.57377
G1 X117.24 Y94.719 E64.58247
G1 X116.993 Y94.719 E64.59114
G1 X116.745 Y94.719 E64.59985
G1 X116.498 Y94.719 E64.60852
G1 X116.25 Y94.719 E64.61722
G1 X116.003 Y94.719 E64.62589
G1 X115.755 Y94.719 E64.63459
G1 X115.508 Y94.719 E64.64326
G1 X115.26 Y94.719 E64.65197
G1 X115.013 Y94.719 E64.66064
G1 X114.765 Y94.719 E64.66934
G1 X114.518 Y94.719 E64.67801
G1 X114.27 Y94.719 E64.68672
G1 X114.023 Y94.719 E64.69539
G1 X113.775 Y94.719 E64.70409
G1 X113.528 Y94.719 E64.71276
G1 X113.281 Y94.719 E64.72143
G1 X113.033 Y94.719 E64.73014
G1 X112.786 Y94.719 E64.73881
G1 X112.538 Y94.719 E64.74751
G1 X112.291 Y94.719 E64.75618
G1 X112.043 Y94.719 E64.76489
G1 X111.796 Y94.719 E64.77356
G1 X111.548 Y94.719 E64.78226
G1 X111.301 Y94.719 E64.79093
G1 X111.053 Y94.719 E64.79963
G1 X110.806 Y94.719 E64.8083
G1 X110.558 Y94.719 E64.81701
G1 X110.311 Y94.719 E64.82568
G1 X110.063 Y94.719 E64.83438
G1 X109.816 Y94.719 E64.84305
G1 X109.568 Y94.719 E64.85176
G1 X109.321 Y94.719 E64.86043
G1 X109.073 Y94.719 E64.86913
G1 X108.826 Y94.719 E64.8778
G1 X108.578 Y94.719 E64.88651
G1 X108.331 Y94.719 E64.89518
G1 X108.083 Y94.719 E64.90388
G1 X107.836 Y94.719 E64.91255
G1 X107.588 Y94.719 E64.92126
G1 X107.341 Y94.719 E64.92993
G1 X107.093 Y94.719 E64.93863
G1 X106.846 Y94.719 E64.9473
G1 X106.598 Y94.719 E64.95601
G1 X106.351 Y94.719 E64.96467
G1 X106.103 Y94.719 E64.97338
G1 X105.856 Y94.719 E64.98205
G1 X105.608 Y94.719 E64.99075
G1 X105.361 Y94.719 E64.99942
G1 X105.113 Y94.719 E65.00813
G1 X104.866 Y94.719 E65.0168
G1 X104.618 Y94.719 E65.0255
G1 X104.371 Y94.719 E65.03417
G1 X104.123 Y94.719 E65.04288
G1 X103.876 Y94.719 E65.05155
G1 X103.629 Y94.719 E65.06022
G1 X103.381 Y94.719 E65.06892
G1 X103.134 Y94.719 E65.07759
G1 X102.886 Y94.719 E65.0863
G0 F3600 X102.828 Y94.661
G10
G0 X111.984 Y94.158
G0 X111.984 Y92.942
G0 X111.984 Y92.613
;TIME_ELAPSED:28.809705
;LAYER:1
M106 S255
G0 F4800 X111.984 Y92.613 Z0.5
;TYPE:SUPPORT
G11
G1 F1800 X110.315 Y92.613 E65.20313
G1 X110.315 Y93.263 E65.24863
G1 X111.984 Y93.263 E65.36546
G1 X112.965 Y93.263 E65.43413
G1 X112.965 Y92.613 E65.47963
G1 X111.984 Y92.613 E65.5483
G1 X111.984 Y93.263 E65.5938
G10
G0 F4800 X111.984 Y92.942
G0 X101.478 Y92.946
G0 X100.972 Y93.456
G0 X100.975 Y95.989
G0 X104.985 Y108.807
G11
G1 F1800 X105.795 Y109.693 E65.67783
G1 X105.875 Y109.78 E65.6861
G1 X107.216 Y111.253 E65.82554
G1 X107.318 Y111.364 E65.83609
G1 X107.318 Y101.353 E66.53686
G1 X109.651 Y101.353 E66.70017
G1 X109.651 Y113.919 E67.57979
G1 X110.578 Y114.935 E67.67607
G1 X110.442 Y115.457 E67.71383
G1 X109.651 Y115.72 E67.77218
G1 X109.651 Y126.559 E68.53091
G1 X109.806 Y126.828 E68.55264
G1 X109.806 Y129.176 E68.717
G1 X110.006 Y129.292 E68.73318
G1 X111.984 Y128.144 E68.89327
G1 X111.984 Y101.353 E70.76864
G1 X114.317 Y101.353 E70.93195
G1 X114.317 Y126.937 E72.72283
G1 X114.501 Y126.936 E72.73571
G1 X116.326 Y127.978 E72.88282
G1 X116.427 Y127.978 E72.88989
G1 X116.65 Y127.671 E72.91645
G1 X116.65 Y101.353 E74.75871
G1 X118.672 Y101.353 E74.90025
G1 X118.472 Y101.553 E74.92005
G1 X118.472 Y103.426 E75.05116
G1 X118.404 Y103.771 E75.07578
G1 X118.925 Y106.935 E75.30024
G1 X118.983 Y107.235 E75.32163
G1 X118.983 Y124.452 E76.52682
G1 X119.639 Y123.546 E76.60512
G1 X120.692 Y122.093 E76.73073
G1 X121.316 Y121.232 E76.80516
G1 X121.366 Y121.163 E76.81113
G1 X121.316 Y120.57 E76.85278
G1 X121.316 Y121.232 E76.89912
G0 F4800 X109.651 Y115.72
G1 F1800 X107.318 Y116.498 E77.07127
G1 X107.318 Y125.152 E77.67705
G1 X107.218 Y125.096 E77.68508
G1 X105.722 Y123.43 E77.84181
G1 X104.985 Y122.608 E77.9191
G1 X104.985 Y115.771 E78.39769
G1 X104.124 Y115.397 E78.4634
G1 X102.652 Y117.049 E78.61828
G1 X102.652 Y120.01 E78.82555
G1 X101.397 Y118.612 E78.95706
G1 X101.397 Y118.457 E78.96791
G1 X102.144 Y117.62 E79.04644
G1 X102.643 Y117.06 E79.09895
G1 X102.652 Y117.049 E79.09994
G0 F4800 X104.985 Y108.807
G1 F1800 X104.503 Y108.28 E79.14993
G1 X104.475 Y108.207 E79.15541
G1 X104.47 Y108.197 E79.15619
G1 X104.47 Y101.553 E79.62127
G1 X104.27 Y101.353 E79.64107
G1 X104.985 Y101.353 E79.69112
G1 X104.985 Y108.807 E80.2129
G0 F4800 X104.985 Y99.76
G1 F1800 X107.318 Y99.765 E80.37621
G1 X107.318 Y97.287 E80.54967
G1 X109.651 Y97.293 E80.71298
G1 X109.651 Y99.77 E80.88637
G1 X111.984 Y99.775 E81.04968
G1 X111.984 Y97.299 E81.223
G1 X114.317 Y97.305 E81.38631
G1 X114.317 Y99.781 E81.55963
G1 X116.65 Y99.786 E81.72294
G1 X116.65 Y97.311 E81.89619
G1 X118.983 Y97.317 E82.0595
G1 X119.501 Y97.318 E82.09576
G1 X119.466 Y99.793 E82.26903
G1 X118.983 Y99.791 E82.30284
G1 X118.983 Y97.317 E82.47602
G0 F4800 X104.985 Y99.76
G1 F1800 X103.625 Y99.757 E82.57122
G1 X103.665 Y97.277 E82.74484
G1 X104.985 Y97.281 E82.83724
G1 X104.985 Y99.76 E83.01077
G10
G0 F4800 X104.985 Y96.498
G0 X104.985 Y95.282
G0 X120.765 Y94.952
;TYPE:WALL-INNER
G11
G1 F2100 X102.516 Y94.952 E84.2882
G1 X102.516 Y94.488 E84.32068
G1 X120.765 Y94.488 E85.59811
G1 X120.765 Y94.952 E85.63059
G0 F4800 X121.115 Y95.302
G1 F2100 X102.167 Y95.302 E86.95695
G1 X102.165 Y94.313 E87.02618
G1 X102.165 Y94.138 E87.03843
G1 X102.34 Y94.138 E87.04636
G1 X121.115 Y94.138 E88.36061
G1 X121.115 Y95.302 E88.44209
G0 F4800 X121.44 Y95.627
;TYPE:WALL-OUTER
G1 F1800 X101.842 Y95.627 E89.81395
G1 X101.84 Y93.988 E89.92868
G1 X101.84 Y93.813 E89.94093
G1 X102.015 Y93.813 E89.94886
G1 X121.44 Y93.813 E91.30861
G1 X121.44 Y95.627 E91.43559
G0 F4800 X121.24 Y95.627
G0 X121.045 Y95.232
G0 X120.534 Y94.779
G0 X120.562 Y94.751
G1 F1500 X120.346 Y94.72 E91.43986
G1 X120.098 Y94.72 E91.44572
G1 X119.851 Y94.72 E91.45155
G1 X119.603 Y94.72 E91.4574
G1 X119.356 Y94.72 E91.46323
G1 X119.108 Y94.72 E91.46908
G1 X118.861 Y94.72 E91.47491
G1 X118.613 Y94.72 E91.48076
G1 X118.366 Y94.72 E91.48659
G1 X118.118 Y94.72 E91.49244
G1 X117.871 Y94.72 E91.49827
G1 X117.623 Y94.72 E91.50413
G1 X117.376 Y94.72 E91.50996
G1 X117.129 Y94.72 E91.51578
G1 X116.881 Y94.72 E91.52164
G1 X116.634 Y94.72 E91.52747
G1 X116.386 Y94.72 E91.53332
G1 X116.139 Y94.72 E91.53915
G1 X115.891 Y94.72 E91.545
G1 X115.644 Y94.72 E91.55083
G1 X115.396 Y94.72 E91.55668
G1 X115.149 Y94.72 E91.56251
G1 X114.901 Y94.72 E91.56837
G1 X114.654 Y94.72 E91.57419
G1 X114.406 Y94.72 E91.58005
G1 X114.159 Y94.72 E91.58588
G1 X113.911 Y94.72 E91.59173
G1 X113.664 Y94.72 E91.59756
G1 X113.416 Y94.72 E91.60341
G1 X113.169 Y94.72 E91.60924
G1 X112.921 Y94.72 E91.61509
G1 X112.674 Y94.72 E91.62092
G1 X112.426 Y94.72 E91.62678
G1 X112.179 Y94.72 E91.6326
G1 X111.931 Y94.72 E91.63846
G1 X111.684 Y94.72 E91.64429
G1 X111.436 Y94.72 E91.65014
G1 X111.189 Y94.72 E91.65597
G1 X110.941 Y94.72 E91.66182
G1 X110.694 Y94.72 E91.66765
G1 X110.446 Y94.72 E91.6735
G1 X110.199 Y94.72 E91.67933
G1 X109.951 Y94.72 E91.68519
G1 X109.704 Y94.72 E91.69101
G1 X109.456 Y94.72 E91.69687
G1 X109.209 Y94.72 E91.7027
G1 X108.961 Y94.72 E91.70855
G1 X108.714 Y94.72 E91.71438
G1 X108.466 Y94.72 E91.72023
G1 X108.219 Y94.72 E91.72606
G1 X107.971 Y94.72 E91.73191
G1 X107.724 Y94.72 E91.73774
G1 X107.477 Y94.72 E91.74357
G1 X107.229 Y94.72 E91.74942
G1 X106.982 Y94.72 E91.75525
G1 X106.734 Y94.72 E91.76111
G1 X106.487 Y94.72 E91.76694
G1 X106.239 Y94.72 E91.77279
G1 X105.992 Y94.72 E91.77862
G1 X105.744 Y94.72 E91.78447
G1 X105.497 Y94.72 E91.7903
G1 X105.249 Y94.72 E91.79615
G1 X105.002 Y94.72 E91.80198
G1 X104.754 Y94.72 E91.80783
G1 X104.507 Y94.72 E91.81366
G1 X104.259 Y94.72 E91.81952
G1 X104.012 Y94.72 E91.82535
G1 X103.764 Y94.72 E91.8312
G1 X103.517 Y94.72 E91.83703
G1 X103.269 Y94.72 E91.84288
G1 X103.022 Y94.72 E91.84871
G1 X102.774 Y94.72 E91.85456
G0 F4800 X102.715 Y94.779
G10
G0 X104.985 Y95.282
G0 X104.985 Y96.498
G0 X104.985 Y99.559
;TIME_ELAPSED:44.649763
;LAYER:2
G0 F6000 X104.985 Y99.559 Z0.7
;TYPE:SUPPORT
G11
G1 F1800 X107.318 Y99.565 E92.01787
G1 X107.318 Y97.487 E92.16333
G1 X109.651 Y97.493 E92.32664
G1 X109.651 Y99.57 E92.47203
G1 X111.984 Y99.576 E92.63534
G1 X111.984 Y97.499 E92.78073
G1 X114.317 Y97.505 E92.94404
G1 X114.317 Y99.581 E93.08936
G1 X116.65 Y99.586 E93.25268
G1 X116.65 Y97.511 E93.39793
G1 X118.983 Y97.517 E93.56124
G1 X119.298 Y97.517 E93.58329
G1 X119.268 Y99.593 E93.72862
G1 X118.983 Y99.592 E93.74857
G1 X118.983 Y97.517 E93.89382
G10
G0 F6000 X118.983 Y97.837
G0 X104.985 Y99.238
G0 X104.985 Y99.559
G11
G1 F1800 X103.828 Y99.557 E93.97481
G1 X103.862 Y97.478 E94.12036
G1 X104.985 Y97.481 E94.19897
G1 X104.985 Y99.559 E94.34443
G10
G0 F6000 X104.985 Y99.238
G0 X104.985 Y99.274
G0 X104.985 Y99.318
G0 X104.985 Y101.794
G0 X104.985 Y101.838
G0 X104.985 Y108.807
G11
G1 F1800 X105.801 Y109.7 E94.42911
G1 X105.881 Y109.787 E94.43738
G1 X107.22 Y111.258 E94.57662
G1 X107.318 Y111.364 E94.58673
G1 X107.318 Y101.553 E95.2735
G1 X109.651 Y101.553 E95.43681
G1 X109.651 Y113.919 E96.30243
G1 X110.578 Y114.935 E96.3987
G1 X110.442 Y115.457 E96.43646
G1 X109.651 Y115.72 E96.49481
G1 X109.651 Y126.559 E97.25354
G1 X109.806 Y126.828 E97.27527
G1 X109.806 Y129.176 E97.43963
G1 X110.006 Y129.292 E97.45582
G1 X111.984 Y128.144 E97.61591
G1 X111.984 Y101.553 E99.47728
G1 X114.317 Y101.553 E99.64059
G1 X114.317 Y126.937 E101.41747
G1 X114.501 Y126.936 E101.43035
G1 X116.326 Y127.978 E101.57746
G1 X116.427 Y127.978 E101.58453
G1 X116.65 Y127.671 E101.61109
G1 X116.65 Y101.553 E103.43935
G1 X118.472 Y101.553 E103.56689
G1 X118.472 Y103.425 E103.69793
G1 X118.404 Y103.77 E103.72254
G1 X118.927 Y106.948 E103.94799
G1 X118.983 Y107.234 E103.96839
G1 X118.983 Y124.452 E105.17365
G1 X119.639 Y123.546 E105.25195
G1 X120.692 Y122.093 E105.37756
G1 X121.316 Y121.232 E105.452
G1 X121.366 Y121.163 E105.45796
G1 X121.316 Y120.568 E105.49976
G1 X121.316 Y121.232 E105.54624
G0 F6000 X109.651 Y115.72
G1 F1800 X107.318 Y116.498 E105.71839
G1 X107.318 Y125.152 E106.32417
G1 X107.218 Y125.096 E106.33219
G1 X105.722 Y123.43 E106.48893
G1 X104.985 Y122.608 E106.56621
G1 X104.985 Y115.771 E107.0448
G1 X104.123 Y115.396 E107.1106
G1 X102.652 Y117.048 E107.26544
G1 X102.652 Y120.01 E107.47278
G1 X101.397 Y118.612 E107.60429
G1 X101.397 Y118.456 E107.61521
G1 X102.143 Y117.619 E107.6937
G1 X102.642 Y117.06 E107.74615
G1 X102.652 Y117.048 E107.74724
G0 F6000 X104.985 Y108.807
G1 F1800 X104.502 Y108.279 E107.79733
G1 X104.474 Y108.206 E107.80281
G1 X104.47 Y101.553 E108.26852
G1 X104.985 Y101.553 E108.30457
G1 X104.985 Y108.807 E108.81235
G10
G0 F6000 X121.201 Y101.87
G0 X121.709 Y101.362
G0 X122.307 Y95.986
G0 X122.307 Y93.454
G0 X121.799 Y92.946
G0 X111.984 Y92.942
G0 X111.984 Y93.263
G11
G1 F1800 X110.315 Y93.263 E108.92918
G1 X110.315 Y92.613 E108.97468
G1 X111.984 Y92.613 E109.09151
G1 X112.965 Y92.613 E109.16018
G1 X112.965 Y93.263 E109.20568
G1 X111.984 Y93.263 E109.27435
G1 X111.984 Y92.613 E109.31985
G10
G0 F6000 X111.984 Y92.942
G0 X111.984 Y94.158
G0 X120.765 Y94.952
;TYPE:WALL-INNER
G11
G1 F2400 X102.516 Y94.952 E110.59728
G1 X102.516 Y94.488 E110.62976
G1 X120.765 Y94.488 E111.90719
G1 X120.765 Y94.952 E111.93967
G0 F6000 X121.115 Y95.302
G1 F2400 X102.167 Y95.302 E113.26603
G1 X102.165 Y94.313 E113.33526
G1 X102.165 Y94.138 E113.34751
G1 X102.34 Y94.138 E113.35543
G1 X121.115 Y94.138 E114.66968
G1 X121.115 Y95.302 E114.75116
G0 F6000 X121.44 Y95.627
;TYPE:WALL-OUTER
G1 F1800 X101.842 Y95.627 E116.12302
G1 X101.84 Y93.988 E116.23775
G1 X101.84 Y93.813 E116.25
G1 X102.015 Y93.813 E116.25793
G1 X121.44 Y93.813 E117.61768
G1 X121.44 Y95.627 E117.74466
G0 F6000 X121.24 Y95.627
