;FLAVOR:UltiGCode
;TIME:2414
;MATERIAL:4698
;MATERIAL2:0
;NOZZLE_DIAMETER:0.4
;Generated with Cura_SteamEngine 3.4.0
M82 ;absolute extrusion mode

G92 E0
G10
;LAYER_COUNT:100
;LAYER:0
M107
G0 F3600 X102.088 Y96.677 Z0.3
;TYPE:SUPPORT
G11
G1 F1800 X121.042 Y96.677 E1.99017
G1 X121.042 Y101.085 E2.45301
G1 X120.924 Y101.203 E2.47053
G1 X118.822 Y101.203 E2.69124
G1 X118.472 Y101.553 E2.74321
G1 X118.472 Y104.182 E3.01926
G1 X119.108 Y108.084 E3.43438
G1 X119.174 Y108.245 E3.45265
G1 X119.237 Y108.8 E3.5113
G1 X119.325 Y109.123 E3.54645
G1 X119.543 Y110.637 E3.70706
G1 X119.593 Y110.759 E3.7209
G1 X119.576 Y110.836 E3.72918
G1 X119.803 Y111.899 E3.84331
G1 X119.869 Y112.471 E3.90377
G1 X119.948 Y112.749 E3.93412
G1 X120.03 Y113.474 E4.01073
G1 X120.102 Y113.634 E4.02915
G1 X120.153 Y114.138 E4.08234
G1 X120.247 Y114.479 E4.11948
G1 X120.3 Y115.006 E4.17509
G1 X120.401 Y115.346 E4.21234
G1 X120.475 Y116.04 E4.28562
G1 X120.701 Y117.11 E4.40045
G1 X120.788 Y117.8 E4.47347
G1 X120.884 Y118.147 E4.51127
G1 X120.942 Y118.683 E4.56788
G1 X121.03 Y118.996 E4.60202
G1 X121.098 Y119.622 E4.66814
G1 X121.172 Y119.816 E4.68994
G1 X121.23 Y120.374 E4.74885
G1 X121.327 Y120.718 E4.78637
G1 X121.36 Y121.134 E4.83019
G1 X121.347 Y121.182 E4.83541
G1 X116.457 Y127.934 E5.71077
G1 X116.307 Y127.967 E5.7269
G1 X114.499 Y126.935 E5.94549
G1 X114.058 Y126.937 E5.99179
G1 X110.007 Y129.292 E6.4838
G1 X109.806 Y129.176 E6.50817
G1 X109.806 Y126.825 E6.75503
G1 X109.584 Y126.441 E6.8016
G1 X107.222 Y125.095 E7.08705
G1 X101.398 Y118.603 E8.00281
G1 X101.398 Y118.47 E8.01678
G1 X104.079 Y115.458 E8.44017
G1 X104.209 Y115.431 E8.45411
G1 X108.768 Y117.421 E8.97643
G1 X109.218 Y117.125 E9.03298
G1 X109.218 Y113.452 E9.41865
G1 X104.505 Y108.277 E10.15359
G1 X104.47 Y108.184 E10.16403
G1 X104.47 Y101.553 E10.86028
G1 X104.12 Y101.203 E10.91226
G1 X102.208 Y101.203 E11.11302
G1 X102.089 Y101.086 E11.13054
G1 X102.088 Y96.677 E11.59348
G0 F3600 X102.652 Y96.817
G1 F1800 X102.652 Y101.063 E12.03931
G0 F3600 X102.228 Y100.319
G1 F1800 X120.902 Y100.319 E14.00008
G0 F3600 X118.983 Y101.063
G1 F1800 X118.983 Y96.817 E14.44591
G0 F3600 X120.902 Y97.986
G1 F1800 X102.228 Y97.986 E16.40668
G0 F3600 X104.985 Y96.817
G1 F1800 X104.985 Y108.596 E17.64348
G0 F3600 X104.61 Y107.318
G1 F1800 X118.842 Y107.318 E19.13784
G0 F3600 X118.983 Y108.15
G1 F1800 X118.983 Y124.207 E20.82382
G0 F3600 X119.385 Y123.649
G1 F1800 X106.111 Y123.649 E22.21759
G0 F3600 X104.985 Y122.392
G1 F1800 X104.985 Y115.922 E22.89694
G0 F3600 X106.653 Y116.65
G1 F1800 X103.205 Y116.65 E23.25898
G0 F3600 X102.652 Y117.271
G1 F1800 X102.652 Y119.791 E23.52358
G0 F3600 X101.925 Y118.983
G1 F1800 X120.881 Y118.983 E25.51396
G0 F3600 X121.074 Y121.316
G1 F1800 X104.018 Y121.316 E27.30484
G0 F3600 X107.318 Y124.988
G1 F1800 X107.318 Y116.941 E28.14978
G0 F3600 X109.358 Y116.65
G1 F1800 X120.462 Y116.65 E29.3157
G0 F3600 X120.058 Y114.317
G1 F1800 X109.358 Y114.317 E30.4392
G0 F3600 X108.07 Y111.984
G1 F1800 X119.673 Y111.984 E31.65751
G0 F3600 X119.26 Y109.651
G1 F1800 X105.945 Y109.651 E33.05559
G0 F3600 X107.318 Y111.157
G1 F1800 X107.318 Y96.817 E34.56129
G0 F3600 X109.651 Y96.817
G1 F1800 X109.651 Y126.316 E37.65868
G0 F3600 X109.062 Y125.982
G1 F1800 X117.695 Y125.982 E38.56515
G0 F3600 X116.65 Y127.427
G1 F1800 X116.65 Y96.817 E41.7792
G0 F3600 X114.317 Y96.817
G1 F1800 X114.317 Y126.796 E44.92699
G0 F3600 X111.984 Y127.981
G1 F1800 X111.984 Y96.817 E48.19921
G0 F3600 X118.332 Y102.652
G1 F1800 X104.61 Y102.652 E49.64002
G0 F3600 X104.61 Y104.985
G1 F1800 X118.462 Y104.985 E51.09448
G0 F3600 X111.407 Y128.315
G1 F1800 X109.945 Y128.315 E51.24799
G10
G0 F3600 X109.945 Y96.498
G0 X109.945 Y95.282
G0 X121.045 Y95.232
G0 X121.44 Y95.627
;TYPE:WALL-OUTER
G11
G1 F1800 X101.841 Y95.627 E53.30589
G1 X101.84 Y93.988 E53.47798
G1 X101.84 Y93.813 E53.49636
G1 X102.015 Y93.813 E53.50825
G1 X121.44 Y93.813 E55.54787
G1 X121.44 Y95.627 E55.73834
G0 F3600 X121.24 Y95.627
G0 X121.115 Y95.302
;TYPE:WALL-INNER
G1 F1800 X102.166 Y95.302 E57.72799
G1 X102.165 Y94.313 E57.83183
G1 X102.165 Y94.138 E57.85021
G1 X102.34 Y94.138 E57.8621
G1 X121.115 Y94.138 E59.83348
G1 X121.115 Y95.302 E59.9557
G0 F3600 X120.765 Y94.952
G1 F1800 X102.516 Y94.952 E61.87184
G1 X102.515 Y94.663 E61.90219
G1 X102.515 Y94.488 E61.92056
G1 X102.69 Y94.488 E61.93245
G1 X120.765 Y94.488 E63.83033
G1 X120.765 Y94.952 E63.87905
G0 F3600 X120.458 Y94.719
G1 F1800 X120.21 Y94.719 E63.88775
G1 X119.963 Y94.719 E63.89642
G1 X119.715 Y94.719 E63.90513
G1 X119.468 Y94.719 E63.9138
G1 X119.22 Y94.719 E63.9225
G1 X118.973 Y94.719 E63.93117
G1 X118.725 Y94.719 E63.93988
G1 X118.478 Y94.719 E63.94855
G1 X118.23 Y94.719 E63.95725
G1 X117.983 Y94.719 E63.96592
G1 X117.735 Y94.719 E63.97462
G1 X117.488 Y94.719 E63.98329
G1 X117.24 Y94.719 E63.992
G1 X116.993 Y94.719 E64.00067
G1 X116.745 Y94.719 E64.00937
G1 X116.498 Y94.719 E64.01804
G1 X116.25 Y94.719 E64.02675
G1 X116.003 Y94.719 E64.03542
G1 X115.755 Y94.719 E64.04412
G1 X115.508 Y94.719 E64.05279
G1 X115.26 Y94.719 E64.0615
G1 X115.013 Y94.719 E64.07017
G1 X114.765 Y94.719 E64.07887
G1 X114.518 Y94.719 E64.08754
G1 X114.27 Y94.719 E64.09625
G1 X114.023 Y94.719 E64.10492
G1 X113.775 Y94.719 E64.11362
G1 X113.528 Y94.719 E64.12229
G1 X113.281 Y94.719 E64.13096
G1 X113.033 Y94.719 E64.13966
G1 X112.786 Y94.719 E64.14833
G1 X112.538 Y94.719 E64.15704
G1 X112.291 Y94.719 E64.16571
G1 X112.043 Y94.719 E64.17441
G1 X111.796 Y94.719 E64.18308
G1 X111.548 Y94.719 E64.19179
G1 X111.301 Y94.719 E64.20046
G1 X111.053 Y94.719 E64.20916
G1 X110.806 Y94.719 E64.21783
G1 X110.558 Y94.719 E64.22654
G1 X110.311 Y94.719 E64.23521
G1 X110.063 Y94.719 E64.24391
G1 X109.816 Y94.719 E64.25258
G1 X109.568 Y94.719 E64.26129
G1 X109.321 Y94.719 E64.26996
G1 X109.073 Y94.719 E64.27866
G1 X108.826 Y94.719 E64.28733
G1 X108.578 Y94.719 E64.29604
G1 X108.331 Y94.719 E64.30471
G1 X108.083 Y94.719 E64.31341
G1 X107.836 Y94.719 E64.32208
G1 X107.588 Y94.719 E64.33078
G1 X107.341 Y94.719 E64.33945
G1 X107.093 Y94.719 E64.34816
G1 X106.846 Y94.719 E64.35683
G1 X106.598 Y94.719 E64.36553
G1 X106.351 Y94.719 E64.3742
G1 X106.103 Y94.719 E64.38291
G1 X105.856 Y94.719 E64.39158
G1 X105.608 Y94.719 E64.40028
G1 X105.361 Y94.719 E64.40895
G1 X105.113 Y94.719 E64.41766
G1 X104.866 Y94.719 E64.42633
G1 X104.618 Y94.719 E64.43503
G1 X104.371 Y94.719 E64.4437
G1 X104.123 Y94.719 E64.45241
G1 X103.876 Y94.719 E64.46108
G1 X103.629 Y94.719 E64.46975
G1 X103.381 Y94.719 E64.47845
G1 X103.134 Y94.719 E64.48712
G1 X102.886 Y94.719 E64.49582
G0 F3600 X102.828 Y94.661
G10
G0 X104.985 Y95.282
G0 X104.985 Y96.498
G0 X104.985 Y99.759
;TIME_ELAPSED:28.295631
;LAYER:1
M106 S255
G0 F4800 X104.985 Y99.759 Z0.5
;TYPE:SUPPORT
G11
G1 F1800 X107.318 Y99.765 E64.65914
G1 X107.318 Y97.987 E64.7836
G1 X109.651 Y97.993 E64.94691
G1 X109.651 Y99.77 E65.0713
G1 X111.984 Y99.776 E65.23461
G1 X111.984 Y97.999 E65.359
G1 X114.317 Y98.005 E65.52231
G1 X114.317 Y99.781 E65.64663
G1 X116.65 Y99.786 E65.80994
G1 X118.472 Y99.791 E65.93748
G1 X118.472 Y99.435 E65.9624
G1 X118.775 Y99.137 E65.99215
G1 X118.791 Y98.016 E66.07062
G1 X116.65 Y98.011 E66.2205
G1 X116.65 Y99.786 E66.34475
G0 F4800 X104.985 Y99.759
G1 F1800 X104.574 Y99.759 E66.37352
G1 X104.584 Y99.411 E66.39789
G1 X104.336 Y99.157 E66.42273
G1 X104.354 Y97.979 E66.5052
G1 X104.985 Y97.981 E66.54937
G1 X104.985 Y99.759 E66.67383
G0 F4800 X104.985 Y108.804
G1 F1800 X104.505 Y108.277 E66.72373
G1 X104.47 Y108.184 E66.73069
G1 X104.47 Y103.337 E67.06998
G1 X104.528 Y101.353 E67.20892
G1 X104.985 Y101.353 E67.24091
G1 X104.985 Y108.804 E67.76248
G1 X107.318 Y111.365 E68.00498
G1 X109.218 Y113.452 E68.20254
G1 X109.218 Y117.125 E68.45965
G1 X108.768 Y117.421 E68.49736
G1 X107.318 Y116.789 E68.60808
G1 X107.318 Y125.149 E69.19328
G1 X107.222 Y125.095 E69.20099
G1 X104.985 Y122.601 E69.43551
G1 X104.985 Y115.77 E69.91368
G1 X104.209 Y115.431 E69.97296
G1 X104.079 Y115.458 E69.98225
G1 X102.652 Y117.061 E70.13248
G1 X102.652 Y120 E70.33821
G1 X101.398 Y118.603 E70.46962
G1 X101.398 Y118.47 E70.47893
G1 X102.652 Y117.061 E70.61096
G0 F4800 X107.318 Y111.365
G1 F1800 X107.318 Y101.353 E71.3118
G1 X109.651 Y101.353 E71.47511
G1 X109.651 Y126.556 E73.23932
G1 X109.806 Y126.825 E73.26106
G1 X109.806 Y129.176 E73.42563
G1 X110.007 Y129.292 E73.44187
G1 X111.984 Y128.143 E73.60194
G1 X111.984 Y101.353 E75.47724
G1 X114.317 Y101.353 E75.64055
G1 X114.317 Y126.936 E77.43136
G1 X114.499 Y126.935 E77.4441
G1 X116.307 Y127.967 E77.58982
G1 X116.457 Y127.934 E77.60057
G1 X116.65 Y127.668 E77.62358
G1 X116.65 Y101.353 E79.46563
G1 X118.472 Y101.353 E79.59317
G1 X118.472 Y104.182 E79.7912
G1 X118.983 Y107.317 E80.01354
G1 X118.983 Y124.446 E81.21257
G1 X121.316 Y121.224 E81.49103
G1 X121.345 Y121.183 E81.49455
G1 X121.359 Y121.132 E81.49825
G1 X121.327 Y120.72 E81.52718
G1 X121.316 Y120.682 E81.52994
G1 X121.316 Y121.224 E81.56788
G10
G0 F4800 X121.101 Y96.498
G0 X121.101 Y95.288
G0 X120.765 Y94.952
;TYPE:WALL-INNER
G11
G1 F2100 X102.516 Y94.952 E82.84531
G1 X102.516 Y94.488 E82.87779
G1 X120.765 Y94.488 E84.15522
G1 X120.765 Y94.952 E84.1877
G0 F4800 X121.115 Y95.302
G1 F2100 X102.167 Y95.302 E85.51406
G1 X102.165 Y94.313 E85.58329
G1 X102.165 Y94.138 E85.59554
G1 X102.34 Y94.138 E85.60347
G1 X121.115 Y94.138 E86.91772
G1 X121.115 Y95.302 E86.9992
G0 F4800 X121.44 Y95.627
;TYPE:WALL-OUTER
G1 F1800 X101.842 Y95.627 E88.37106
G1 X101.84 Y93.988 E88.48579
G1 X101.84 Y93.813 E88.49804
G1 X102.015 Y93.813 E88.50597
G1 X121.44 Y93.813 E89.86572
G1 X121.44 Y95.627 E89.9927
G0 F4800 X121.24 Y95.627
G0 X121.045 Y95.232
G0 X120.534 Y94.779
G0 X120.562 Y94.751
G1 F1500 X120.346 Y94.72 E89.99698
G1 X120.098 Y94.72 E90.00283
G1 X119.851 Y94.72 E90.00866
G1 X119.603 Y94.72 E90.01451
G1 X119.356 Y94.72 E90.02034
G1 X119.108 Y94.72 E90.02619
G1 X118.861 Y94.72 E90.03202
G1 X118.613 Y94.72 E90.03788
G1 X118.366 Y94.72 E90.0437
G1 X118.118 Y94.72 E90.04956
G1 X117.871 Y94.72 E90.05539
G1 X117.623 Y94.72 E90.06124
G1 X117.376 Y94.72 E90.06707
G1 X117.129 Y94.72 E90.0729
G1 X116.881 Y94.72 E90.07875
G1 X116.634 Y94.72 E90.08458
G1 X116.386 Y94.72 E90.09043
G1 X116.139 Y94.72 E90.09626
G1 X115.891 Y94.72 E90.10211
G1 X115.644 Y94.72 E90.10794
G1 X115.396 Y94.72 E90.1138
G1 X115.149 Y94.72 E90.11963
G1 X114.901 Y94.72 E90.12548
G1 X114.654 Y94.72 E90.13131
G1 X114.406 Y94.72 E90.13716
G1 X114.159 Y94.72 E90.14299
G1 X113.911 Y94.72 E90.14884
G1 X113.664 Y94.72 E90.15467
G1 X113.416 Y94.72 E90.16052
G1 X113.169 Y94.72 E90.16635
G1 X112.921 Y94.72 E90.17221
G1 X112.674 Y94.72 E90.17804
G1 X112.426 Y94.72 E90.18389
G1 X112.179 Y94.72 E90.18972
G1 X111.931 Y94.72 E90.19557
G1 X111.684 Y94.72 E90.2014
G1 X111.436 Y94.72 E90.20725
G1 X111.189 Y94.72 E90.21308
G1 X110.941 Y94.72 E90.21893
G1 X110.694 Y94.72 E90.22476
G1 X110.446 Y94.72 E90.23062
G1 X110.199 Y94.72 E90.23645
G1 X109.951 Y94.72 E90.2423
G1 X109.704 Y94.72 E90.24813
G1 X109.456 Y94.72 E90.25398
G1 X109.209 Y94.72 E90.25981
G1 X108.961 Y94.72 E90.26566
G1 X108.714 Y94.72 E90.27149
G1 X108.466 Y94.72 E90.27734
G1 X108.219 Y94.72 E90.28317
G1 X107.971 Y94.72 E90.28903
G1 X107.724 Y94.72 E90.29486
G1 X107.477 Y94.72 E90.30069
G1 X107.229 Y94.72 E90.30654
G1 X106.982 Y94.72 E90.31237
G1 X106.734 Y94.72 E90.31822
G1 X106.487 Y94.72 E90.32405
G1 X106.239 Y94.72 E90.3299
G1 X105.992 Y94.72 E90.33573
G1 X105.744 Y94.72 E90.34158
G1 X105.497 Y94.72 E90.34741
G1 X105.249 Y94.72 E90.35327
G1 X105.002 Y94.72 E90.3591
G1 X104.754 Y94.72 E90.36495
G1 X104.507 Y94.72 E90.37078
G1 X104.259 Y94.72 E90.37663
G1 X104.012 Y94.72 E90.38246
G1 X103.764 Y94.72 E90.38831
G1 X103.517 Y94.72 E90.39414
G1 X103.269 Y94.72 E90.39999
G1 X103.022 Y94.72 E90.40582
G1 X102.774 Y94.72 E90.41168
G0 F4800 X102.715 Y94.779
G10
G0 X104.985 Y95.282
G0 X104.985 Y96.498
G0 X104.985 Y99.559
;TIME_ELAPSED:42.632513
;LAYER:2
G0 F6000 X104.985 Y99.559 Z0.7
;TYPE:SUPPORT
G11
G1 F1800 X107.318 Y99.565 E90.57499
G1 X107.318 Y97.987 E90.68545
G1 X109.651 Y97.993 E90.84876
G1 X109.651 Y99.57 E90.95915
G1 X111.984 Y99.576 E91.12246
G1 X111.984 Y97.999 E91.23285
G1 X114.317 Y98.005 E91.39616
G1 X114.317 Y99.581 E91.50648
G1 X116.65 Y99.586 E91.66979
G1 X118.472 Y99.591 E91.79733
G1 X118.472 Y99.434 E91.80832
G1 X118.775 Y99.136 E91.83807
G1 X118.791 Y98.016 E91.91648
G1 X116.65 Y98.011 E92.06635
G1 X116.65 Y99.586 E92.1766
G10
G0 F6000 X116.65 Y99.265
G0 X104.985 Y99.238
G0 X104.985 Y99.559
G11
G1 F1800 X104.581 Y99.559 E92.20488
G1 X104.585 Y99.411 E92.21524
G1 X104.336 Y99.156 E92.24019
G1 X104.354 Y97.979 E92.32259
G1 X104.985 Y97.981 E92.36676
G1 X104.985 Y99.559 E92.47722
G10
G0 F6000 X104.985 Y99.238
G0 X104.985 Y99.274
G0 X104.985 Y99.318
G0 X104.985 Y101.794
G0 X104.985 Y101.838
G0 X104.985 Y108.804
G11
G1 F1800 X107.318 Y111.365 E92.71972
G1 X107.318 Y101.553 E93.40656
G1 X109.651 Y101.553 E93.56987
G1 X109.651 Y114.256 E94.45908
G1 X109.658 Y114.379 E94.46771
G1 X109.651 Y114.388 E94.4685
G1 X109.651 Y126.556 E95.32026
G1 X109.806 Y126.825 E95.342
G1 X109.806 Y129.176 E95.50657
G1 X110.007 Y129.292 E95.52281
G1 X111.984 Y128.143 E95.68288
G1 X111.984 Y101.553 E97.54418
G1 X114.317 Y101.553 E97.70749
G1 X114.317 Y126.936 E99.4843
G1 X114.499 Y126.935 E99.49704
G1 X116.307 Y127.967 E99.64276
G1 X116.457 Y127.934 E99.65351
G1 X116.65 Y127.668 E99.67652
G1 X116.65 Y101.553 E101.50457
G1 X118.472 Y101.553 E101.63211
G1 X118.472 Y104.183 E101.81621
G1 X118.983 Y107.316 E102.03842
G1 X118.983 Y124.446 E103.23752
G1 X121.316 Y121.224 E103.51597
G1 X121.345 Y121.183 E103.51949
G1 X121.359 Y121.132 E103.52319
G1 X121.327 Y120.72 E103.55212
G1 X121.316 Y120.682 E103.55489
G1 X121.316 Y121.224 E103.59283
G0 F6000 X109.651 Y114.388
G1 F1800 X109.218 Y114.993 E103.64491
G1 X109.218 Y117.125 E103.79415
G1 X108.768 Y117.421 E103.83185
G1 X107.318 Y116.789 E103.94257
G1 X107.318 Y125.149 E104.52777
G1 X107.222 Y125.095 E104.53548
G1 X104.985 Y122.601 E104.77
G1 X104.985 Y115.77 E105.24817
G1 X104.209 Y115.431 E105.30745
G1 X104.079 Y115.458 E105.31674
G1 X102.652 Y117.061 E105.46697
G1 X102.652 Y120 E105.6727
G1 X101.398 Y118.603 E105.80411
G1 X101.398 Y118.47 E105.81342
G1 X102.652 Y117.061 E105.94545
G0 F6000 X104.985 Y108.804
G1 F1800 X104.505 Y108.277 E105.99535
G1 X104.47 Y108.184 E106.00231
G1 X104.47 Y103.337 E106.3416
G1 X104.522 Y101.553 E106.46653
G1 X104.985 Y101.553 E106.49894
G1 X104.985 Y108.804 E107.00651
G10
G0 F6000 X121.201 Y101.87
G0 X121.709 Y101.362
G0 X122.247 Y96.524
G0 X122.311 Y95.302
G0 X121.087 Y95.274
G0 X120.765 Y94.952
;TYPE:WALL-INNER
G11
G1 F2400 X102.516 Y94.952 E108.28394
G1 X102.516 Y94.488 E108.31642
G1 X120.765 Y94.488 E109.59385
G1 X120.765 Y94.952 E109.62633
G0 F6000 X121.115 Y95.302
G1 F2400 X102.167 Y95.302 E110.95269
G1 X102.165 Y94.313 E111.02192
G1 X102.165 Y94.138 E111.03417
G1 X102.34 Y94.138 E111.0421
G1 X121.115 Y94.138 E112.35635
G1 X121.115 Y95.302 E112.43783
G0 F6000 X121.44 Y95.627
;TYPE:WALL-OUTER
G1 F1800 X101.842 Y95.627 E113.80969
G1 X101.84 Y93.988 E113.92442
G1 X101.84 Y93.813 E113.93667
G1 X102.015 Y93.813 E113.9446
G1 X121.44 Y93.813 E115.30435
G1 X121.44 Y95.627 E115.43133
G0 F6000 X121.24 Y95.627
G0 X121.045 Y95.232
G0 X120.517 Y94.778
G0 X120.458 Y94.719
G1 F1200 X120.21 Y94.719 E115.43713
G1 X119.963 Y94.719 E115.44291
G1 X119.715 Y94.719 E115.44871
G1 X119.468 Y94.719 E115.45449
G1 X119.22 Y94.719 E115.4603
G1 X118.973 Y94.719 E115.46608
G1 X118.725 Y94.719 E115.47188
G1 X118.478 Y94.719 E115.47766
G1 X118.23 Y94.719 E115.48346
G1 X117.983 Y94.719 E115.48924
G1 X117.735 Y94.719 E115.49505
G1 X117.488 Y94.719 E115.50083
G1 X117.24 Y94.719 E115.50663
G1 X116.993 Y94.719 E115.51241
G1 X116.745 Y94.719 E115.51821
G1 X116.498 Y94.719 E115.52399
G1 X116.25 Y94.719 E115.52979
G1 X116.003 Y94.719 E115.53557
G1 X115.755 Y94.719 E115.54138
G1 X115.508 Y94.719 E115.54716
G1 X115.26 Y94.719 E115.55296
G1 X115.013 Y94.719 E115.55874
G1 X114.765 Y94.719 E115.56454
G1 X114.518 Y94.719 E115.57032
G1 X114.27 Y94.719 E115.57613
G1 X114.023 Y94.719 E115.58191
