;FLAVOR:UltiGCode
;TIME:5329
;MATERIAL:10515
;MATERIAL2:0
;NOZZLE_DIAMETER:0.4
;Generated with Cura_SteamEngine 3.4.0
M82 ;absolute extrusion mode

G92 E0
G10
;LAYER_COUNT:100
;LAYER:0
M107
G0 F3600 X76.157 Y96.218 Z0.3
;TYPE:SUPPORT
G11
G1 F1800 X95.05 Y96.218 E1.98377
G1 X95.092 Y102.286 E2.62092
G1 X94.975 Y102.403 E2.63829
G1 X92.961 Y102.403 E2.84976
G1 X92.611 Y102.753 E2.90174
G1 X92.611 Y105.337 E3.17306
G1 X93.247 Y109.239 E3.58817
G1 X93.313 Y109.4 E3.60644
G1 X93.376 Y109.955 E3.66509
G1 X93.464 Y110.278 E3.70024
G1 X93.682 Y111.792 E3.86085
G1 X93.732 Y111.914 E3.8747
G1 X93.715 Y111.991 E3.88298
G1 X93.942 Y113.054 E3.99711
G1 X94.008 Y113.626 E4.05757
G1 X94.087 Y113.904 E4.08791
G1 X94.169 Y114.629 E4.16452
G1 X94.241 Y114.789 E4.18295
G1 X94.292 Y115.293 E4.23614
G1 X94.386 Y115.634 E4.27328
G1 X94.439 Y116.161 E4.32889
G1 X94.54 Y116.501 E4.36613
G1 X94.614 Y117.195 E4.43942
G1 X94.84 Y118.265 E4.55424
G1 X94.927 Y118.955 E4.62727
G1 X95.023 Y119.302 E4.66507
G1 X95.081 Y119.838 E4.72168
G1 X95.169 Y120.151 E4.75582
G1 X95.237 Y120.777 E4.82194
G1 X95.311 Y120.971 E4.84374
G1 X95.369 Y121.529 E4.90264
G1 X95.466 Y121.873 E4.94017
G1 X95.499 Y122.289 E4.98399
G1 X95.486 Y122.337 E4.98921
G1 X90.596 Y129.089 E5.86457
G1 X90.446 Y129.122 E5.8807
G1 X88.638 Y128.09 E6.09929
G1 X88.197 Y128.092 E6.14559
G1 X84.146 Y130.447 E6.6376
G1 X83.945 Y130.331 E6.66197
G1 X83.945 Y127.98 E6.90882
G1 X83.723 Y127.596 E6.9554
G1 X81.361 Y126.25 E7.24085
G1 X75.537 Y119.758 E8.15661
G1 X75.537 Y119.625 E8.17057
G1 X78.218 Y116.613 E8.59397
G1 X78.348 Y116.586 E8.60791
G1 X82.907 Y118.576 E9.13022
G1 X83.357 Y118.28 E9.18678
G1 X83.357 Y114.607 E9.57244
G1 X78.644 Y109.432 E10.30739
G1 X78.609 Y109.339 E10.31782
G1 X78.609 Y102.753 E11.00935
G1 X78.259 Y102.403 E11.06133
G1 X76.275 Y102.403 E11.26965
G1 X76.157 Y102.285 E11.28717
G1 X76.157 Y96.218 E11.9242
G0 F3600 X76.989 Y96.358
G1 F1800 X76.989 Y102.263 E12.54423
G0 F3600 X78.705 Y102.652
G1 F1800 X92.515 Y102.652 E13.99428
G0 F3600 X93.32 Y102.263
G1 F1800 X93.32 Y96.358 E14.6143
G0 F3600 X94.923 Y97.986
G1 F1800 X76.297 Y97.986 E16.57003
G0 F3600 X76.297 Y100.319
G1 F1800 X94.938 Y100.319 E18.52734
G0 F3600 X92.471 Y104.985
G1 F1800 X78.749 Y104.985 E19.96815
G0 F3600 X78.749 Y107.318
G1 F1800 X92.793 Y107.318 E21.44277
G0 F3600 X93.201 Y109.651
G1 F1800 X79.032 Y109.651 E22.93051
G0 F3600 X79.322 Y109.968
G1 F1800 X79.322 Y96.358 E24.35956
G0 F3600 X81.655 Y96.358
G1 F1800 X81.655 Y112.53 E26.05762
G0 F3600 X81.157 Y111.984
G1 F1800 X93.572 Y111.984 E27.3612
G0 F3600 X93.32 Y110.284
G1 F1800 X93.32 Y125.088 E28.91562
G0 F3600 X92.671 Y125.982
G1 F1800 X81.307 Y125.982 E30.10884
G0 F3600 X81.655 Y126.256
G1 F1800 X81.655 Y118.183 E30.9565
G0 F3600 X83.497 Y116.65
G1 F1800 X94.415 Y116.65 E32.10289
G0 F3600 X94.789 Y118.983
G1 F1800 X76.295 Y118.983 E34.04476
G0 F3600 X76.989 Y118.203
G1 F1800 X76.989 Y121.166 E34.35588
G0 F3600 X77.121 Y121.316
G1 F1800 X95.205 Y121.316 E36.2547
G0 F3600 X94.361 Y123.649
G1 F1800 X79.214 Y123.649 E37.84513
G0 F3600 X79.322 Y123.767
G1 F1800 X79.322 Y117.163 E38.53855
G0 F3600 X83.282 Y114.317
G1 F1800 X93.993 Y114.317 E39.66321
G0 F3600 X90.987 Y128.309
G1 F1800 X90.987 Y96.358 E43.01806
G0 F3600 X88.654 Y96.358
G1 F1800 X88.654 Y127.951 E46.33533
G0 F3600 X89.314 Y128.315
G1 F1800 X90.981 Y128.315 E46.51036
G0 F3600 X87.532 Y128.315
G1 F1800 X84.084 Y128.315 E46.8724
G0 F3600 X83.988 Y127.772
G1 F1800 X83.988 Y96.358 E50.17087
G0 F3600 X86.321 Y96.358
G1 F1800 X86.321 Y129.021 E53.60049
G0 F3600 X101.537 Y119.758
G1 F1800 X101.537 Y119.625 E53.61445
G1 X104.218 Y116.613 E54.03785
G1 X104.348 Y116.586 E54.05179
G1 X108.907 Y118.576 E54.5741
G1 X109.357 Y118.28 E54.63066
G1 X109.357 Y114.607 E55.01632
G1 X104.644 Y109.432 E55.75127
G1 X104.609 Y109.339 E55.76171
G1 X104.609 Y102.753 E56.45324
G1 X104.259 Y102.403 E56.50521
G1 X102.275 Y102.403 E56.71353
G1 X102.157 Y102.285 E56.73105
G1 X102.157 Y96.218 E57.36809
G1 X121.05 Y96.218 E59.35185
G1 X121.092 Y102.286 E59.98901
G1 X120.975 Y102.403 E60.00638
G1 X118.961 Y102.403 E60.21785
G1 X118.611 Y102.753 E60.26982
G1 X118.611 Y105.337 E60.54114
G1 X119.247 Y109.239 E60.95626
G1 X119.313 Y109.4 E60.97453
G1 X119.376 Y109.955 E61.03318
G1 X119.464 Y110.278 E61.06833
G1 X119.682 Y111.792 E61.22894
G1 X119.732 Y111.914 E61.24278
G1 X119.715 Y111.991 E61.25106
G1 X119.942 Y113.054 E61.36519
G1 X120.008 Y113.626 E61.42565
G1 X120.087 Y113.904 E61.456
G1 X120.169 Y114.629 E61.53261
G1 X120.241 Y114.789 E61.55103
G1 X120.292 Y115.293 E61.60422
G1 X120.386 Y115.634 E61.64136
G1 X120.439 Y116.161 E61.69698
G1 X120.54 Y116.501 E61.73422
G1 X120.614 Y117.195 E61.8075
G1 X120.84 Y118.265 E61.92233
G1 X120.927 Y118.955 E61.99535
G1 X121.023 Y119.302 E62.03316
G1 X121.081 Y119.838 E62.08977
G1 X121.169 Y120.151 E62.1239
G1 X121.237 Y120.777 E62.19002
G1 X121.311 Y120.971 E62.21182
G1 X121.369 Y121.529 E62.27073
G1 X121.466 Y121.873 E62.30826
G1 X121.499 Y122.289 E62.35207
G1 X121.486 Y122.337 E62.3573
G1 X116.596 Y129.089 E63.23266
G1 X116.446 Y129.122 E63.24878
G1 X114.638 Y128.09 E63.46737
G1 X114.197 Y128.092 E63.51368
G1 X110.146 Y130.447 E64.00568
G1 X109.945 Y130.331 E64.03005
G1 X109.945 Y127.98 E64.27691
G1 X109.723 Y127.596 E64.32348
G1 X107.361 Y126.25 E64.60893
G1 X101.537 Y119.758 E65.52469
G0 F3600 X102.295 Y118.983
G1 F1800 X120.79 Y118.983 E67.46667
G0 F3600 X120.416 Y116.65
G1 F1800 X109.497 Y116.65 E68.61316
G0 F3600 X109.282 Y114.317
G1 F1800 X119.993 Y114.317 E69.73782
G0 F3600 X119.572 Y111.984
G1 F1800 X107.157 Y111.984 E71.04139
G0 F3600 X107.318 Y112.16
G1 F1800 X107.318 Y96.358 E72.7006
G0 F3600 X104.985 Y96.358
G1 F1800 X104.985 Y109.598 E74.0908
G0 F3600 X105.032 Y109.651
G1 F1800 X119.201 Y109.651 E75.57855
G0 F3600 X118.983 Y108.489
G1 F1800 X118.983 Y125.553 E77.37027
G0 F3600 X118.67 Y125.982
G1 F1800 X107.307 Y125.982 E78.56338
G0 F3600 X107.318 Y125.992
G1 F1800 X107.318 Y118.035 E79.39887
G0 F3600 X104.985 Y117.016
G1 F1800 X104.985 Y123.392 E80.06835
G0 F3600 X105.214 Y123.649
G1 F1800 X120.36 Y123.649 E81.65868
G0 F3600 X121.316 Y122.332
G1 F1800 X121.316 Y121.856 E81.70866
G0 F3600 X121.205 Y121.316
G1 F1800 X103.121 Y121.316 E83.60748
G0 F3600 X102.652 Y120.791
G1 F1800 X102.652 Y118.582 E83.83942
G0 F3600 X109.651 Y127.392
G1 F1800 X109.651 Y96.358 E87.09799
G0 F3600 X111.984 Y96.358
G1 F1800 X111.984 Y129.217 E90.54819
G0 F3600 X113.532 Y128.315
G1 F1800 X110.084 Y128.315 E90.91023
G0 F3600 X114.317 Y127.952
G1 F1800 X114.317 Y96.358 E94.2276
G0 F3600 X116.65 Y96.358
G1 F1800 X116.65 Y128.774 E97.63128
G0 F3600 X116.981 Y128.315
G1 F1800 X115.314 Y128.315 E97.80631
G0 F3600 X118.793 Y107.318
G1 F1800 X104.749 Y107.318 E99.28093
G0 F3600 X104.749 Y104.985
G1 F1800 X118.471 Y104.985 E100.72174
G0 F3600 X118.514 Y102.652
G1 F1800 X104.705 Y102.652 E102.17169
G0 F3600 X102.652 Y102.263
G1 F1800 X102.652 Y96.358 E102.79171
G0 F3600 X102.297 Y97.986
G1 F1800 X120.923 Y97.986 E104.74744
G0 F3600 X120.938 Y100.319
G1 F1800 X102.297 Y100.319 E106.70475
G0 F3600 X118.983 Y102.263
G1 F1800 X118.983 Y96.358 E107.32477
G10
G0 F3600 X101.342 Y96.035
G0 X96.172 Y94.829
G0 X94.962 Y94.829
G0 X94.906 Y94.773
G0 X95.301 Y95.168
;TYPE:WALL-OUTER
G11
G1 F1800 X75.701 Y95.168 E109.38277
G1 X75.701 Y92.658 E109.64632
G1 X95.301 Y92.658 E111.70432
G1 X95.301 Y95.168 E111.96787
G0 F3600 X95.101 Y95.168
G0 X94.976 Y94.843
;TYPE:WALL-INNER
G1 F1800 X76.026 Y94.843 E113.95762
G1 X76.026 Y92.983 E114.15292
G1 X94.976 Y92.983 E116.14267
G1 X94.976 Y94.843 E116.33797
G0 F3600 X94.626 Y94.493
G1 F1800 X76.376 Y94.493 E118.25422
G1 X76.376 Y93.333 E118.37602
G1 X94.626 Y93.333 E120.29227
G1 X94.626 Y94.493 E120.41407
G0 F3600 X94.276 Y94.143
G1 F1800 X76.726 Y94.143 E122.25682
G1 X76.726 Y93.683 E122.30512
G1 X94.276 Y93.683 E124.14787
G1 X94.276 Y94.143 E124.19617
G0 F3600 X93.912 Y93.912
G1 F1800 X93.665 Y93.912 E124.20455
G1 X93.417 Y93.912 E124.21295
G1 X93.17 Y93.912 E124.22133
G1 X92.922 Y93.912 E124.22973
G1 X92.675 Y93.912 E124.23811
G1 X92.427 Y93.912 E124.24651
G1 X92.18 Y93.912 E124.25489
G1 X91.932 Y93.912 E124.2633
G1 X91.685 Y93.912 E124.27167
G1 X91.437 Y93.912 E124.28008
G1 X91.19 Y93.912 E124.28845
G1 X90.942 Y93.912 E124.29686
G1 X90.695 Y93.912 E124.30523
G1 X90.447 Y93.912 E124.31364
G1 X90.2 Y93.912 E124.32201
G1 X89.952 Y93.912 E124.33042
G1 X89.705 Y93.912 E124.33879
G1 X89.457 Y93.912 E124.3472
G1 X89.21 Y93.912 E124.35557
G1 X88.962 Y93.912 E124.36398
G1 X88.715 Y93.912 E124.37235
G1 X88.467 Y93.912 E124.38076
G1 X88.22 Y93.912 E124.38913
G1 X87.972 Y93.912 E124.39754
G1 X87.725 Y93.912 E124.40591
G1 X87.477 Y93.912 E124.41432
G1 X87.23 Y93.912 E124.42269
G1 X86.982 Y93.912 E124.4311
G1 X86.735 Y93.912 E124.43947
G1 X86.487 Y93.912 E124.44788
G1 X86.24 Y93.912 E124.45625
G1 X85.992 Y93.912 E124.46466
G1 X85.745 Y93.912 E124.47303
G1 X85.497 Y93.912 E124.48144
G1 X85.25 Y93.912 E124.48981
G1 X85.002 Y93.912 E124.49822
G1 X84.755 Y93.912 E124.5066
G1 X84.508 Y93.912 E124.51497
G1 X84.26 Y93.912 E124.52338
G1 X84.013 Y93.912 E124.53175
G1 X83.765 Y93.912 E124.54016
G1 X83.518 Y93.912 E124.54853
G1 X83.27 Y93.912 E124.55694
G1 X83.023 Y93.912 E124.56531
G1 X82.775 Y93.912 E124.57372
G1 X82.528 Y93.912 E124.58209
G1 X82.28 Y93.912 E124.5905
G1 X82.033 Y93.912 E124.59887
G1 X81.785 Y93.912 E124.60728
G1 X81.538 Y93.912 E124.61565
G1 X81.29 Y93.912 E124.62406
G1 X81.043 Y93.912 E124.63243
G1 X80.795 Y93.912 E124.64084
G1 X80.548 Y93.912 E124.64921
G1 X80.3 Y93.912 E124.65762
G1 X80.053 Y93.912 E124.66599
G1 X79.805 Y93.912 E124.6744
G1 X79.558 Y93.912 E124.68277
G1 X79.31 Y93.912 E124.69118
G1 X79.063 Y93.912 E124.69955
G1 X78.815 Y93.912 E124.70796
G1 X78.568 Y93.912 E124.71633
G1 X78.32 Y93.912 E124.72474
G1 X78.073 Y93.912 E124.73312
G1 X77.825 Y93.912 E124.74152
G1 X77.578 Y93.912 E124.7499
G1 X77.33 Y93.912 E124.7583
G1 X77.083 Y93.912 E124.76668
G0 F3600 X77.027 Y93.856
G10
G0 X94.956 Y94.773
G0 X96.172 Y94.773
G0 X100.83 Y94.773
G0 X102.046 Y94.773
G0 X120.906 Y94.773
G0 X121.301 Y95.168
;TYPE:WALL-OUTER
G11
G1 F1800 X101.701 Y95.168 E126.82468
G1 X101.701 Y92.658 E127.08823
G1 X121.301 Y92.658 E129.14623
G1 X121.301 Y95.168 E129.40978
G0 F3600 X121.101 Y95.168
G0 X120.976 Y94.843
;TYPE:WALL-INNER
G1 F1800 X102.026 Y94.843 E131.39953
G1 X102.026 Y92.983 E131.59483
G1 X120.976 Y92.983 E133.58458
G1 X120.976 Y94.843 E133.77988
G0 F3600 X120.626 Y94.493
G1 F1800 X102.376 Y94.493 E135.69613
G1 X102.376 Y93.333 E135.81793
G1 X120.626 Y93.333 E137.73418
G1 X120.626 Y94.493 E137.85598
G0 F3600 X120.276 Y94.143
G1 F1800 X102.726 Y94.143 E139.69873
G1 X102.726 Y93.683 E139.74703
G1 X120.276 Y93.683 E141.58978
G1 X120.276 Y94.143 E141.63808
G0 F3600 X119.898 Y93.912
G1 F1800 X119.651 Y93.912 E141.6466
G1 X119.403 Y93.912 E141.65515
G1 X119.156 Y93.912 E141.66368
G1 X118.908 Y93.912 E141.67223
G1 X118.661 Y93.912 E141.68075
G1 X118.413 Y93.912 E141.68931
G1 X118.166 Y93.912 E141.69783
G1 X117.918 Y93.912 E141.70639
G1 X117.671 Y93.912 E141.71491
G1 X117.423 Y93.912 E141.72346
G1 X117.176 Y93.912 E141.73199
G1 X116.929 Y93.912 E141.74051
G1 X116.681 Y93.912 E141.74906
G1 X116.434 Y93.912 E141.75758
G1 X116.186 Y93.912 E141.76614
G1 X115.939 Y93.912 E141.77466
G1 X115.691 Y93.912 E141.78322
G1 X115.444 Y93.912 E141.79174
G1 X115.196 Y93.912 E141.8003
G1 X114.949 Y93.912 E141.80882
G1 X114.701 Y93.912 E141.81737
G1 X114.454 Y93.912 E141.82589
G1 X114.206 Y93.912 E141.83445
G1 X113.959 Y93.912 E141.84297
G1 X113.711 Y93.912 E141.85153
G1 X113.464 Y93.912 E141.86005
G1 X113.216 Y93.912 E141.86861
G1 X112.969 Y93.912 E141.87713
G1 X112.721 Y93.912 E141.88568
G1 X112.474 Y93.912 E141.8942
G1 X112.226 Y93.912 E141.90276
G1 X111.979 Y93.912 E141.91128
G1 X111.731 Y93.912 E141.91984
G1 X111.484 Y93.912 E141.92836
G1 X111.236 Y93.912 E141.93692
G1 X110.989 Y93.912 E141.94544
G1 X110.741 Y93.912 E141.95399
G1 X110.494 Y93.912 E141.96251
G1 X110.246 Y93.912 E141.97107
G1 X109.999 Y93.912 E141.97959
G1 X109.751 Y93.912 E141.98815
G1 X109.504 Y93.912 E141.99667
G1 X109.256 Y93.912 E142.00523
G1 X109.009 Y93.912 E142.01375
G1 X108.761 Y93.912 E142.0223
G1 X108.514 Y93.912 E142.03082
G1 X108.266 Y93.912 E142.03938
G1 X108.019 Y93.912 E142.0479
G1 X107.771 Y93.912 E142.05646
G1 X107.524 Y93.912 E142.06498
G1 X107.277 Y93.912 E142.0735
G1 X107.029 Y93.912 E142.08206
G1 X106.782 Y93.912 E142.09058
G1 X106.534 Y93.912 E142.09913
G1 X106.287 Y93.912 E142.10766
G1 X106.039 Y93.912 E142.11621
G1 X105.792 Y93.912 E142.12473
G1 X105.544 Y93.912 E142.13329
G1 X105.297 Y93.912 E142.14181
G1 X105.049 Y93.912 E142.15037
G1 X104.802 Y93.912 E142.15889
G1 X104.554 Y93.912 E142.16744
G1 X104.307 Y93.912 E142.17597
G1 X104.059 Y93.912 E142.18452
G1 X103.812 Y93.912 E142.19304
G1 X103.564 Y93.912 E142.2016
G1 X103.317 Y93.912 E142.21012
G1 X103.069 Y93.912 E142.21868
G0 F3600 X103.012 Y93.855
G10
G0 X102.04 Y94.829
G0 X100.83 Y94.829
G0 X95.66 Y96.035
G0 X79.322 Y97.957
;TIME_ELAPSED:56.053905
;LAYER:1
M106 S255
G0 F4800 X79.322 Y97.957 Z0.5
;TYPE:SUPPORT
G11
G1 F1800 X81.655 Y97.965 E142.38199
G1 X81.655 Y100.55 E142.56294
G1 X83.988 Y100.558 E142.72625
G1 X83.988 Y97.972 E142.90727
G1 X86.321 Y97.98 E143.07058
G1 X86.321 Y100.566 E143.2516
G1 X88.654 Y100.574 E143.41491
G1 X88.654 Y97.987 E143.596
G1 X90.987 Y97.994 E143.75931
G1 X92.567 Y97.999 E143.86991
G1 X92.53 Y100.587 E144.05109
G1 X90.987 Y100.581 E144.1591
G1 X90.987 Y97.994 E144.34019
G0 F4800 X79.322 Y97.957
G1 F1800 X78.713 Y97.955 E144.38282
G1 X78.683 Y100 E144.52599
G1 X78.722 Y100.268 E144.54494
G1 X78.761 Y100.541 E144.56425
G1 X79.322 Y100.542 E144.60352
G1 X79.322 Y97.957 E144.78447
G0 F4800 X79.322 Y102.553
G1 F1800 X79.051 Y102.553 E144.80344
G1 X79.097 Y102.868 E144.82572
G1 X78.763 Y103.253 E144.8614
G1 X78.646 Y103.253 E144.86959
G1 X78.609 Y104.495 E144.95657
G1 X78.609 Y109.339 E145.29565
G1 X78.644 Y109.432 E145.3026
G1 X79.322 Y110.176 E145.37307
G1 X79.322 Y102.553 E145.90668
G1 X81.655 Y102.553 E146.06999
G1 X81.655 Y112.738 E146.78294
G1 X83.357 Y114.607 E146.95988
G1 X83.357 Y118.28 E147.21699
G1 X82.907 Y118.576 E147.2547
G1 X81.655 Y118.03 E147.35031
G1 X81.655 Y126.417 E147.9374
G1 X83.723 Y127.596 E148.10403
G1 X83.945 Y127.98 E148.13508
G1 X83.945 Y130.331 E148.29965
G1 X83.988 Y130.355 E148.3031
G1 X83.988 Y102.553 E150.24924
G1 X86.321 Y102.553 E150.41255
G1 X86.321 Y129.183 E152.27665
G1 X88.197 Y128.092 E152.42856
G1 X88.638 Y128.09 E152.45943
G1 X88.654 Y128.099 E152.46072
G1 X88.654 Y102.553 E154.24894
G1 X90.987 Y102.553 E154.41225
G1 X90.987 Y128.549 E156.23197
G1 X93.32 Y125.327 E156.51042
G1 X95.484 Y122.338 E156.76873
G1 X95.498 Y122.287 E156.77243
G1 X95.466 Y121.875 E156.80136
G1 X95.367 Y121.527 E156.82669
G1 X95.308 Y120.953 E156.86708
G1 X95.237 Y120.777 E156.88036
G1 X95.169 Y120.153 E156.9243
G1 X95.081 Y119.839 E156.94713
G1 X95.023 Y119.305 E156.98473
G1 X94.977 Y119.152 E156.99591
G1 X94.962 Y119.087 E157.00058
G1 X94.927 Y118.955 E157.01014
G1 X94.84 Y118.265 E157.05882
G1 X94.614 Y117.195 E157.13538
G1 X94.575 Y116.835 E157.16072
G1 X94.539 Y116.496 E157.18459
G1 X94.439 Y116.161 E157.20906
G1 X94.386 Y115.635 E157.24607
G1 X94.293 Y115.299 E157.27047
G1 X94.241 Y114.791 E157.30622
G1 X94.168 Y114.632 E157.31846
G1 X94.086 Y113.9 E157.37002
G1 X94.008 Y113.626 E157.38997
G1 X93.943 Y113.058 E157.42999
G1 X93.715 Y111.991 E157.50636
G1 X93.732 Y111.913 E157.51195
G1 X93.696 Y111.825 E157.51861
G1 X93.683 Y111.798 E157.5207
G1 X93.464 Y110.281 E157.62799
G1 X93.442 Y110.199 E157.63394
G1 X93.375 Y109.954 E157.65172
G1 X93.32 Y109.469 E157.68588
G1 X93.32 Y125.327 E158.79594
G0 F4800 X81.655 Y118.03
G1 F1800 X79.322 Y117.012 E158.97412
G1 X79.322 Y123.977 E159.46167
G1 X76.989 Y121.376 E159.70626
G1 X76.989 Y117.993 E159.94307
G1 X75.537 Y119.625 E160.09598
G1 X75.537 Y119.758 E160.10529
G1 X76.989 Y121.376 E160.25746
G0 F4800 X102.652 Y118.372
G1 F1800 X101.537 Y119.625 E160.37487
G1 X101.537 Y119.758 E160.38418
G1 X102.652 Y121 E160.50102
G1 X102.652 Y118.372 E160.68498
