;FLAVOR:UltiGCode
;TIME:4838
;MATERIAL:9423
;MATERIAL2:0
;NOZZLE_DIAMETER:0.4
;Generated with Cura_SteamEngine 3.4.0
M82 ;absolute extrusion mode

G92 E0
G10
;LAYER_COUNT:100
;LAYER:0
M107
G0 F3600 X76.088 Y96.677 Z0.3
;TYPE:SUPPORT
G11
G1 F1800 X95.042 Y96.677 E1.99017
G1 X95.042 Y101.085 E2.45301
G1 X94.924 Y101.203 E2.47053
G1 X92.822 Y101.203 E2.69124
G1 X92.472 Y101.553 E2.74321
G1 X92.472 Y104.182 E3.01926
G1 X93.108 Y108.084 E3.43438
G1 X93.174 Y108.245 E3.45265
G1 X93.237 Y108.8 E3.5113
G1 X93.325 Y109.123 E3.54645
G1 X93.543 Y110.637 E3.70706
G1 X93.593 Y110.759 E3.7209
G1 X93.576 Y110.836 E3.72918
G1 X93.803 Y111.899 E3.84331
G1 X93.869 Y112.471 E3.90377
G1 X93.948 Y112.749 E3.93412
G1 X94.03 Y113.474 E4.01073
G1 X94.102 Y113.634 E4.02915
G1 X94.153 Y114.138 E4.08234
G1 X94.247 Y114.479 E4.11948
G1 X94.3 Y115.006 E4.17509
G1 X94.401 Y115.346 E4.21234
G1 X94.475 Y116.04 E4.28562
G1 X94.701 Y117.11 E4.40045
G1 X94.788 Y117.8 E4.47347
G1 X94.884 Y118.147 E4.51127
G1 X94.942 Y118.683 E4.56788
G1 X95.03 Y118.996 E4.60202
G1 X95.098 Y119.622 E4.66814
G1 X95.172 Y119.816 E4.68994
G1 X95.23 Y120.374 E4.74885
G1 X95.327 Y120.718 E4.78637
G1 X95.36 Y121.134 E4.83019
G1 X95.347 Y121.182 E4.83541
G1 X90.457 Y127.934 E5.71077
G1 X90.307 Y127.967 E5.7269
G1 X88.499 Y126.935 E5.94549
G1 X88.058 Y126.937 E5.99179
G1 X84.007 Y129.292 E6.4838
G1 X83.806 Y129.176 E6.50817
G1 X83.806 Y126.825 E6.75503
G1 X83.584 Y126.441 E6.8016
G1 X81.222 Y125.095 E7.08705
G1 X75.398 Y118.603 E8.00281
G1 X75.398 Y118.47 E8.01678
G1 X78.079 Y115.458 E8.44017
G1 X78.209 Y115.431 E8.45411
G1 X82.768 Y117.421 E8.97643
G1 X83.218 Y117.125 E9.03298
G1 X83.218 Y113.452 E9.41865
G1 X78.505 Y108.277 E10.15359
G1 X78.47 Y108.184 E10.16403
G1 X78.47 Y101.553 E10.86028
G1 X78.12 Y101.203 E10.91226
G1 X76.208 Y101.203 E11.11302
G1 X76.089 Y101.086 E11.13054
G1 X76.088 Y96.677 E11.59348
G0 F3600 X76.989 Y96.817
G1 F1800 X76.989 Y101.063 E12.03931
G0 F3600 X76.228 Y100.319
G1 F1800 X94.902 Y100.319 E14.00008
G0 F3600 X93.32 Y101.063
G1 F1800 X93.32 Y96.817 E14.44591
G0 F3600 X94.902 Y97.986
G1 F1800 X76.228 Y97.986 E16.40668
G0 F3600 X79.322 Y96.817
G1 F1800 X79.322 Y108.966 E17.68233
G0 F3600 X79.945 Y109.651
G1 F1800 X93.26 Y109.651 E19.0804
G0 F3600 X93.32 Y110.068
G1 F1800 X93.32 Y123.741 E20.51607
G0 F3600 X93.385 Y123.649
G1 F1800 X80.111 Y123.649 E21.90984
G0 F3600 X79.322 Y122.767
G1 F1800 X79.322 Y116.069 E22.61313
G0 F3600 X80.653 Y116.65
G1 F1800 X77.205 Y116.65 E22.97517
G0 F3600 X76.989 Y116.892
G1 F1800 X76.989 Y120.166 E23.31894
G0 F3600 X78.018 Y121.316
G1 F1800 X95.075 Y121.316 E25.10992
G0 F3600 X94.88 Y118.983
G1 F1800 X75.925 Y118.983 E27.1002
G0 F3600 X81.655 Y117.088
G1 F1800 X81.655 Y125.18 E27.94986
G0 F3600 X83.062 Y125.982
G1 F1800 X91.695 Y125.982 E28.85632
G0 F3600 X90.987 Y126.962
G1 F1800 X90.987 Y96.817 E32.02155
G0 F3600 X88.654 Y96.817
G1 F1800 X88.654 Y126.861 E35.17617
G0 F3600 X86.321 Y127.785
G1 F1800 X86.321 Y96.817 E38.42781
G0 F3600 X83.988 Y96.817
G1 F1800 X83.988 Y129.119 E41.81952
G0 F3600 X83.945 Y128.315
G1 F1800 X85.407 Y128.315 E41.97303
G0 F3600 X83.358 Y116.65
G1 F1800 X94.462 Y116.65 E43.13895
G0 F3600 X94.058 Y114.317
G1 F1800 X83.358 Y114.317 E44.26245
G0 F3600 X82.07 Y111.984
G1 F1800 X93.673 Y111.984 E45.48076
G0 F3600 X92.842 Y107.318
G1 F1800 X78.61 Y107.318 E46.97512
G0 F3600 X78.61 Y104.985
G1 F1800 X92.462 Y104.985 E48.42958
G0 F3600 X92.332 Y102.652
G1 F1800 X78.61 Y102.652 E49.87039
G0 F3600 X81.655 Y96.817
G1 F1800 X81.655 Y111.528 E51.41505
G0 F3600 X101.398 Y118.47
G1 F1800 X104.079 Y115.458 E51.83845
G1 X104.209 Y115.431 E51.85239
G1 X108.768 Y117.421 E52.3747
G1 X109.218 Y117.125 E52.43125
G1 X109.218 Y113.452 E52.81692
G1 X104.505 Y108.277 E53.55187
G1 X104.47 Y108.184 E53.5623
G1 X104.47 Y101.553 E54.25855
G1 X104.12 Y101.203 E54.31053
G1 X102.208 Y101.203 E54.51129
G1 X102.089 Y101.086 E54.52881
G1 X102.088 Y96.677 E54.99175
G1 X121.042 Y96.677 E56.98192
G1 X121.042 Y101.085 E57.44476
G1 X120.924 Y101.203 E57.46229
G1 X118.822 Y101.203 E57.683
G1 X118.472 Y101.553 E57.73497
G1 X118.472 Y104.182 E58.01101
G1 X119.108 Y108.084 E58.42613
G1 X119.174 Y108.245 E58.4444
G1 X119.237 Y108.8 E58.50305
G1 X119.325 Y109.123 E58.5382
G1 X119.543 Y110.637 E58.69881
G1 X119.593 Y110.759 E58.71266
G1 X119.576 Y110.836 E58.72093
G1 X119.803 Y111.899 E58.83507
G1 X119.869 Y112.471 E58.89552
G1 X119.948 Y112.749 E58.92587
G1 X120.03 Y113.474 E59.00248
G1 X120.102 Y113.634 E59.0209
G1 X120.153 Y114.138 E59.07409
G1 X120.247 Y114.479 E59.11123
G1 X120.3 Y115.006 E59.16685
G1 X120.401 Y115.346 E59.20409
G1 X120.475 Y116.04 E59.27737
G1 X120.701 Y117.11 E59.3922
G1 X120.788 Y117.8 E59.46523
G1 X120.884 Y118.147 E59.50303
G1 X120.942 Y118.683 E59.55964
G1 X121.03 Y118.996 E59.59378
G1 X121.098 Y119.622 E59.65989
G1 X121.172 Y119.816 E59.6817
G1 X121.23 Y120.374 E59.7406
G1 X121.327 Y120.718 E59.77813
G1 X121.36 Y121.134 E59.82195
G1 X121.347 Y121.182 E59.82717
G1 X116.457 Y127.934 E60.70253
G1 X116.307 Y127.967 E60.71866
G1 X114.499 Y126.935 E60.93724
G1 X114.058 Y126.937 E60.98355
G1 X110.007 Y129.292 E61.47556
G1 X109.806 Y129.176 E61.49992
G1 X109.806 Y126.825 E61.74678
G1 X109.584 Y126.441 E61.79335
G1 X107.222 Y125.095 E62.07881
G1 X101.398 Y118.603 E62.99457
G1 X101.398 Y118.47 E63.00853
G0 F3600 X101.925 Y118.983
G1 F1800 X120.881 Y118.983 E64.99891
G0 F3600 X121.074 Y121.316
G1 F1800 X104.018 Y121.316 E66.78979
G0 F3600 X104.985 Y122.392
G1 F1800 X104.985 Y115.922 E67.46914
G0 F3600 X106.653 Y116.65
G1 F1800 X103.205 Y116.65 E67.83118
G0 F3600 X102.652 Y117.271
G1 F1800 X102.652 Y119.791 E68.09578
G0 F3600 X106.111 Y123.649
G1 F1800 X119.385 Y123.649 E69.48955
G0 F3600 X118.983 Y124.207
G1 F1800 X118.983 Y108.15 E71.17554
G0 F3600 X118.842 Y107.318
G1 F1800 X104.61 Y107.318 E72.6699
G0 F3600 X104.985 Y108.596
G1 F1800 X104.985 Y96.817 E73.90669
G0 F3600 X102.652 Y96.817
G1 F1800 X102.652 Y101.063 E74.35252
G0 F3600 X102.228 Y100.319
G1 F1800 X120.902 Y100.319 E76.31329
G0 F3600 X118.983 Y101.063
G1 F1800 X118.983 Y96.817 E76.75912
G0 F3600 X120.902 Y97.986
G1 F1800 X102.228 Y97.986 E78.71989
G0 F3600 X107.318 Y96.817
G1 F1800 X107.318 Y111.157 E80.22559
G0 F3600 X108.07 Y111.984
G1 F1800 X119.673 Y111.984 E81.44391
G0 F3600 X120.058 Y114.317
G1 F1800 X109.358 Y114.317 E82.56741
G0 F3600 X109.358 Y116.65
G1 F1800 X120.462 Y116.65 E83.73333
G0 F3600 X119.26 Y109.651
G1 F1800 X105.945 Y109.651 E85.1314
G0 F3600 X104.61 Y104.985
G1 F1800 X118.462 Y104.985 E86.58586
G0 F3600 X118.332 Y102.652
G1 F1800 X104.61 Y102.652 E88.02667
G0 F3600 X109.651 Y96.817
G1 F1800 X109.651 Y126.316 E91.12407
G0 F3600 X109.062 Y125.982
G1 F1800 X117.695 Y125.982 E92.03053
G0 F3600 X116.65 Y127.427
G1 F1800 X116.65 Y96.817 E95.24458
G0 F3600 X114.317 Y96.817
G1 F1800 X114.317 Y126.796 E98.39238
G0 F3600 X111.984 Y127.981
G1 F1800 X111.984 Y96.817 E101.6646
G0 F3600 X107.318 Y116.941
G1 F1800 X107.318 Y124.988 E102.50953
G0 F3600 X109.945 Y128.315
G1 F1800 X111.407 Y128.315 E102.66304
G10
G0 F3600 X95.101 Y96.498
G0 X95.101 Y95.288
G0 X95.045 Y95.232
G0 X95.44 Y95.627
;TYPE:WALL-OUTER
G11
G1 F1800 X75.841 Y95.627 E104.72094
G1 X75.84 Y93.988 E104.89303
G1 X75.84 Y93.813 E104.91141
G1 X76.015 Y93.813 E104.9233
G1 X95.44 Y93.813 E106.96292
G1 X95.44 Y95.627 E107.15339
G0 F3600 X95.24 Y95.627
G0 X95.115 Y95.302
;TYPE:WALL-INNER
G1 F1800 X76.166 Y95.302 E109.14304
G1 X76.165 Y94.313 E109.24688
G1 X76.165 Y94.138 E109.26526
G1 X76.34 Y94.138 E109.27715
G1 X95.115 Y94.138 E111.24852
G1 X95.115 Y95.302 E111.37074
G0 F3600 X94.765 Y94.952
G1 F1800 X76.516 Y94.952 E113.28689
G1 X76.515 Y94.663 E113.31723
G1 X76.515 Y94.488 E113.33561
G1 X76.69 Y94.488 E113.3475
G1 X94.765 Y94.488 E115.24538
G1 X94.765 Y94.952 E115.2941
G0 F3600 X94.471 Y94.719
G1 F1800 X94.224 Y94.719 E115.30284
G1 X93.976 Y94.719 E115.31162
G1 X93.729 Y94.719 E115.32036
G1 X93.481 Y94.719 E115.32914
G1 X93.234 Y94.719 E115.33789
G1 X92.986 Y94.719 E115.34666
G1 X92.739 Y94.719 E115.35541
G1 X92.491 Y94.719 E115.36419
G1 X92.244 Y94.719 E115.37293
G1 X91.997 Y94.719 E115.38167
G1 X91.749 Y94.719 E115.39045
G1 X91.502 Y94.719 E115.3992
G1 X91.254 Y94.719 E115.40798
G1 X91.007 Y94.719 E115.41672
G1 X90.759 Y94.719 E115.4255
G1 X90.512 Y94.719 E115.43424
G1 X90.264 Y94.719 E115.44302
G1 X90.017 Y94.719 E115.45177
G1 X89.769 Y94.719 E115.46055
G1 X89.522 Y94.719 E115.46929
G1 X89.274 Y94.719 E115.47807
G1 X89.027 Y94.719 E115.48681
G1 X88.779 Y94.719 E115.49559
G1 X88.532 Y94.719 E115.50434
G1 X88.284 Y94.719 E115.51312
G1 X88.037 Y94.719 E115.52186
G1 X87.789 Y94.719 E115.53064
G1 X87.542 Y94.719 E115.53938
G1 X87.294 Y94.719 E115.54816
G1 X87.047 Y94.719 E115.5569
G1 X86.799 Y94.719 E115.56568
G1 X86.552 Y94.719 E115.57443
G1 X86.304 Y94.719 E115.58321
G1 X86.057 Y94.719 E115.59195
G1 X85.809 Y94.719 E115.60073
G1 X85.562 Y94.719 E115.60947
G1 X85.314 Y94.719 E115.61825
G1 X85.067 Y94.719 E115.627
G1 X84.819 Y94.719 E115.63578
G1 X84.572 Y94.719 E115.64452
G1 X84.324 Y94.719 E115.6533
G1 X84.077 Y94.719 E115.66204
G1 X83.829 Y94.719 E115.67082
G1 X83.582 Y94.719 E115.67957
G1 X83.334 Y94.719 E115.68835
G1 X83.087 Y94.719 E115.69709
G1 X82.839 Y94.719 E115.70587
G1 X82.592 Y94.719 E115.71461
G1 X82.345 Y94.719 E115.72336
G1 X82.097 Y94.719 E115.73213
G1 X81.85 Y94.719 E115.74088
G1 X81.602 Y94.719 E115.74966
G1 X81.355 Y94.719 E115.7584
G1 X81.107 Y94.719 E115.76718
G1 X80.86 Y94.719 E115.77592
G1 X80.612 Y94.719 E115.7847
G1 X80.365 Y94.719 E115.79345
G1 X80.117 Y94.719 E115.80223
G1 X79.87 Y94.719 E115.81097
G1 X79.622 Y94.719 E115.81975
G1 X79.375 Y94.719 E115.82849
G1 X79.127 Y94.719 E115.83727
G1 X78.88 Y94.719 E115.84602
G1 X78.632 Y94.719 E115.8548
G1 X78.385 Y94.719 E115.86354
G1 X78.137 Y94.719 E115.87232
G1 X77.89 Y94.719 E115.88106
G1 X77.642 Y94.719 E115.88984
G1 X77.395 Y94.719 E115.89859
G1 X77.147 Y94.719 E115.90736
G1 X76.9 Y94.719 E115.91611
G0 F3600 X76.841 Y94.66
G10
G0 X95.095 Y95.232
G0 X96.311 Y95.232
G0 X100.97 Y95.227
G0 X102.166 Y95.226
G0 X121.045 Y95.232
G0 X121.44 Y95.627
;TYPE:WALL-OUTER
G11
G1 F1800 X101.841 Y95.627 E117.974
G1 X101.84 Y93.988 E118.1461
G1 X101.84 Y93.813 E118.16447
G1 X102.015 Y93.813 E118.17637
G1 X121.44 Y93.813 E120.21599
G1 X121.44 Y95.627 E120.40646
G0 F3600 X121.24 Y95.627
G0 X121.115 Y95.302
;TYPE:WALL-INNER
G1 F1800 X102.166 Y95.302 E122.39611
G1 X102.165 Y94.313 E122.49995
G1 X102.165 Y94.138 E122.51833
G1 X102.34 Y94.138 E122.53022
G1 X121.115 Y94.138 E124.50159
G1 X121.115 Y95.302 E124.62381
G0 F3600 X120.765 Y94.952
G1 F1800 X102.516 Y94.952 E126.53996
G1 X102.515 Y94.663 E126.5703
G1 X102.515 Y94.488 E126.58868
G1 X102.69 Y94.488 E126.60057
G1 X120.765 Y94.488 E128.49844
G1 X120.765 Y94.952 E128.54716
G0 F3600 X120.458 Y94.719
G1 F1800 X120.21 Y94.719 E128.55587
G1 X119.963 Y94.719 E128.56454
G1 X119.715 Y94.719 E128.57324
G1 X119.468 Y94.719 E128.58191
G1 X119.22 Y94.719 E128.59062
G1 X118.973 Y94.719 E128.59929
G1 X118.725 Y94.719 E128.60799
G1 X118.478 Y94.719 E128.61666
G1 X118.23 Y94.719 E128.62537
G1 X117.983 Y94.719 E128.63404
G1 X117.735 Y94.719 E128.64274
G1 X117.488 Y94.719 E128.65141
G1 X117.24 Y94.719 E128.66011
G1 X116.993 Y94.719 E128.66878
G1 X116.745 Y94.719 E128.67749
G1 X116.498 Y94.719 E128.68616
G1 X116.25 Y94.719 E128.69486
G1 X116.003 Y94.719 E128.70353
G1 X115.755 Y94.719 E128.71224
G1 X115.508 Y94.719 E128.72091
G1 X115.26 Y94.719 E128.72961
G1 X115.013 Y94.719 E128.73828
G1 X114.765 Y94.719 E128.74699
G1 X114.518 Y94.719 E128.75566
G1 X114.27 Y94.719 E128.76436
G1 X114.023 Y94.719 E128.77303
G1 X113.775 Y94.719 E128.78174
G1 X113.528 Y94.719 E128.79041
G1 X113.281 Y94.719 E128.79908
G1 X113.033 Y94.719 E128.80778
G1 X112.786 Y94.719 E128.81645
G1 X112.538 Y94.719 E128.82516
G1 X112.291 Y94.719 E128.83382
G1 X112.043 Y94.719 E128.84253
G1 X111.796 Y94.719 E128.8512
G1 X111.548 Y94.719 E128.8599
G1 X111.301 Y94.719 E128.86857
G1 X111.053 Y94.719 E128.87728
G1 X110.806 Y94.719 E128.88595
G1 X110.558 Y94.719 E128.89465
G1 X110.311 Y94.719 E128.90332
G1 X110.063 Y94.719 E128.91203
G1 X109.816 Y94.719 E128.9207
G1 X109.568 Y94.719 E128.9294
G1 X109.321 Y94.719 E128.93807
G1 X109.073 Y94.719 E128.94678
G1 X108.826 Y94.719 E128.95545
G1 X108.578 Y94.719 E128.96415
G1 X108.331 Y94.719 E128.97282
G1 X108.083 Y94.719 E128.98153
G1 X107.836 Y94.719 E128.9902
G1 X107.588 Y94.719 E128.9989
G1 X107.341 Y94.719 E129.00757
G1 X107.093 Y94.719 E129.01627
G1 X106.846 Y94.719 E129.02494
G1 X106.598 Y94.719 E129.03365
G1 X106.351 Y94.719 E129.04232
G1 X106.103 Y94.719 E129.05102
G1 X105.856 Y94.719 E129.05969
G1 X105.608 Y94.719 E129.0684
G1 X105.361 Y94.719 E129.07707
G1 X105.113 Y94.719 E129.08577
G1 X104.866 Y94.719 E129.09444
G1 X104.618 Y94.719 E129.10315
G1 X104.371 Y94.719 E129.11182
G1 X104.123 Y94.719 E129.12052
G1 X103.876 Y94.719 E129.12919
G1 X103.629 Y94.719 E129.13786
G1 X103.381 Y94.719 E129.14657
G1 X103.134 Y94.719 E129.15524
G1 X102.886 Y94.719 E129.16394
G0 F3600 X102.828 Y94.661
G10
G0 X102.18 Y95.288
G0 X100.97 Y95.289
G0 X95.799 Y96.494
G0 X79.322 Y97.982
;TIME_ELAPSED:52.251232
;LAYER:1
M106 S255
G0 F4800 X79.322 Y97.982 Z0.5
;TYPE:SUPPORT
G11
G1 F1800 X81.655 Y97.988 E129.32725
G1 X81.655 Y99.766 E129.45171
G1 X83.988 Y99.771 E129.61502
G1 X83.988 Y97.994 E129.73941
G1 X86.321 Y98 E129.90272
G1 X86.321 Y99.776 E130.02704
G1 X88.654 Y99.782 E130.19035
G1 X88.654 Y98.006 E130.31467
G1 X90.987 Y98.012 E130.47798
G1 X92.791 Y98.016 E130.60426
G1 X92.775 Y99.137 E130.68274
G1 X92.472 Y99.435 E130.71249
G1 X92.472 Y99.791 E130.73741
G1 X90.987 Y99.787 E130.84136
G1 X90.987 Y98.012 E130.96561
G0 F4800 X79.322 Y97.982
G1 F1800 X78.354 Y97.979 E131.03337
G1 X78.336 Y99.157 E131.11584
G1 X78.584 Y99.411 E131.14069
G1 X78.574 Y99.759 E131.16506
G1 X79.322 Y99.76 E131.21742
G1 X79.322 Y97.982 E131.34188
G0 F4800 X79.322 Y101.353
G1 F1800 X78.528 Y101.353 E131.39746
G1 X78.47 Y103.337 E131.5364
G1 X78.47 Y108.184 E131.87569
G1 X78.505 Y108.277 E131.88265
G1 X79.322 Y109.174 E131.96758
G1 X79.322 Y101.353 E132.51505
G1 X81.655 Y101.353 E132.67836
G1 X81.655 Y111.735 E133.4051
G1 X83.218 Y113.452 E133.56763
G1 X83.218 Y117.125 E133.82474
G1 X82.768 Y117.421 E133.86244
G1 X81.655 Y116.936 E133.94743
G1 X81.655 Y125.341 E134.53578
G1 X83.584 Y126.441 E134.69122
G1 X83.806 Y126.825 E134.72227
G1 X83.806 Y129.176 E134.88684
G1 X83.988 Y129.281 E134.90154
G1 X83.988 Y101.353 E136.8565
G1 X86.321 Y101.353 E137.01981
G1 X86.321 Y127.947 E138.88139
G1 X88.058 Y126.937 E139.02205
G1 X88.499 Y126.935 E139.05292
G1 X88.654 Y127.023 E139.06539
G1 X88.654 Y101.353 E140.86229
G1 X90.987 Y101.353 E141.0256
G1 X90.987 Y127.202 E142.83503
G1 X93.32 Y123.98 E143.11349
G1 X95.345 Y121.183 E143.35521
G1 X95.359 Y121.132 E143.35891
G1 X95.327 Y120.72 E143.38784
G1 X95.228 Y120.372 E143.41316
G1 X95.169 Y119.798 E143.45355
G1 X95.098 Y119.622 E143.46684
G1 X95.03 Y118.998 E143.51078
G1 X94.942 Y118.684 E143.5336
G1 X94.884 Y118.15 E143.5712
G1 X94.838 Y117.997 E143.58239
G1 X94.823 Y117.932 E143.58706
G1 X94.788 Y117.8 E143.59662
G1 X94.701 Y117.11 E143.6453
G1 X94.475 Y116.04 E143.72185
G1 X94.436 Y115.68 E143.7472
G1 X94.4 Y115.341 E143.77106
G1 X94.3 Y115.006 E143.79553
G1 X94.247 Y114.48 E143.83254
G1 X94.154 Y114.144 E143.85694
G1 X94.102 Y113.636 E143.89269
G1 X94.029 Y113.477 E143.90494
G1 X93.947 Y112.745 E143.9565
G1 X93.869 Y112.471 E143.97644
G1 X93.804 Y111.903 E144.01646
G1 X93.576 Y110.836 E144.09284
G1 X93.593 Y110.758 E144.09842
G1 X93.557 Y110.67 E144.10508
G1 X93.544 Y110.643 E144.10718
G1 X93.325 Y109.126 E144.21447
G1 X93.32 Y109.108 E144.21578
G1 X93.32 Y123.98 E145.25682
G0 F4800 X81.655 Y116.936
G1 F1800 X79.322 Y115.917 E145.43502
G1 X79.322 Y122.977 E145.92922
G1 X76.989 Y120.376 E146.1738
G1 X76.989 Y116.682 E146.43238
G1 X75.398 Y118.47 E146.59992
G1 X75.398 Y118.603 E146.60923
G1 X76.989 Y120.376 E146.77598
G0 F4800 X102.652 Y117.061
G1 F1800 X101.398 Y118.47 E146.90802
G1 X101.398 Y118.603 E146.91733
G1 X102.652 Y120 E147.04874
G1 X102.652 Y117.061 E147.25447
